;FLAVOR:Marlin
;TIME:4116
;Filament used: 6.1945m
;Layer height: 0.4
;MINX:69.475
;MINY:69.475
;MINZ:0.25
;MAXX:165.525
;MAXY:165.525
;MAXZ:11.25
;Generated with Cura_SteamEngine 4.13.1
M140 S65
M105
M190 S65
M104 S210
M105
M109 S210
M82 ;absolute extrusion mode
; Ender 3 Custom Start G-code
G92 E0 ; Reset Extruder
G28 ; Home all axes
G1 Z2.0 F3000 ; Move Z Axis up little to prevent scratching of Heat Bed
G1 X0.1 Y20 Z0.3 F5000.0 ; Move to start position
G1 X0.1 Y200.0 Z0.3 F1500.0 E15 ; Draw the first line
G1 X0.4 Y200.0 Z0.3 F5000.0 ; Move to side a little
G1 X0.4 Y20 Z0.3 F1500.0 E30 ; Draw the second line
G92 E0 ; Reset Extruder
G1 Z2.0 F3000 ; Move Z Axis up little to prevent scratching of Heat Bed
G1 X5 Y20 Z0.3 F5000.0 ; Move over to prevent blob squish
G92 E0
G92 E0
G1 F2700 E-5
;LAYER_COUNT:28
;LAYER:0
M107
G1 F300 Z0.45
G0 F9000 X75.223 Y75.67 Z0.45
;TYPE:SKIRT
G1 F300 Z0.25
G1 F2700 E0
G1 F3000 X75.694 Y75.199 E0.02423
G1 X76.177 Y74.746 E0.04832
G1 X76.666 Y74.318 E0.07196
G1 X77.141 Y73.927 E0.09434
G1 X77.645 Y73.538 E0.1175
G1 X78.162 Y73.166 E0.14067
G1 X78.709 Y72.797 E0.16468
G1 X79.197 Y72.487 E0.18571
G1 X79.765 Y72.15 E0.20973
G1 X80.313 Y71.848 E0.2325
G1 X80.884 Y71.556 E0.25583
G1 X81.495 Y71.269 E0.28038
G1 X82.106 Y71.007 E0.30457
G1 X82.687 Y70.779 E0.32727
G1 X83.304 Y70.559 E0.3511
G1 X83.873 Y70.375 E0.37286
G1 X84.5 Y70.193 E0.39661
G1 X85.124 Y70.034 E0.42003
G1 X85.747 Y69.896 E0.44325
G1 X86.347 Y69.782 E0.46546
G1 X87.005 Y69.678 E0.4897
G1 X87.642 Y69.598 E0.51305
G1 X88.29 Y69.538 E0.53673
G1 X88.885 Y69.501 E0.55841
G1 X89.53 Y69.48 E0.58189
G1 X89.855 Y69.475 E0.59371
G1 X145.153 Y69.475 E2.60536
G1 X145.5 Y69.481 E2.61799
G1 X146.161 Y69.504 E2.64205
G1 X146.747 Y69.542 E2.66341
G1 X147.396 Y69.603 E2.68712
G1 X148.037 Y69.684 E2.71063
G1 X148.694 Y69.789 E2.73483
G1 X149.299 Y69.905 E2.75724
G1 X149.92 Y70.044 E2.78039
G1 X150.533 Y70.202 E2.80342
G1 X151.164 Y70.386 E2.82733
G1 X151.759 Y70.58 E2.8501
G1 X152.385 Y70.806 E2.87431
G1 X152.963 Y71.035 E2.89692
G1 X153.547 Y71.288 E2.92008
G1 X154.134 Y71.565 E2.94369
G1 X154.719 Y71.865 E2.9676
G1 X155.257 Y72.163 E2.98998
G1 X155.83 Y72.503 E3.01422
G1 X156.355 Y72.837 E3.03685
G1 X156.885 Y73.198 E3.06018
G1 X157.397 Y73.571 E3.08322
G1 X157.916 Y73.975 E3.10715
G1 X158.382 Y74.36 E3.12914
G1 X158.868 Y74.788 E3.1527
G1 X159.328 Y75.221 E3.17568
G1 X159.801 Y75.694 E3.20001
G1 X160.254 Y76.177 E3.2241
G1 X160.682 Y76.666 E3.24774
G1 X161.068 Y77.136 E3.26987
G1 X161.456 Y77.638 E3.29295
G1 X161.816 Y78.134 E3.31525
G1 X162.18 Y78.67 E3.33882
G1 X162.513 Y79.194 E3.3614
G1 X162.858 Y79.777 E3.38604
G1 X163.163 Y80.334 E3.40915
G1 X163.453 Y80.904 E3.43241
G1 X163.727 Y81.487 E3.45585
G1 X163.991 Y82.101 E3.48016
G1 X164.222 Y82.69 E3.50317
G1 X164.441 Y83.304 E3.52689
G1 X164.628 Y83.882 E3.54899
G1 X164.81 Y84.511 E3.57281
G1 X164.967 Y85.128 E3.59597
G1 X165.104 Y85.747 E3.61903
G1 X165.217 Y86.343 E3.6411
G1 X165.322 Y87.006 E3.66552
G1 X165.402 Y87.642 E3.68884
G1 X165.461 Y88.276 E3.712
G1 X165.499 Y88.876 E3.73387
G1 X165.52 Y89.522 E3.75739
G1 X165.525 Y89.846 E3.76917
G1 X165.525 Y145.153 E5.78115
G1 X165.519 Y145.489 E5.79337
G1 X165.497 Y146.142 E5.81714
G1 X165.459 Y146.737 E5.83883
G1 X165.398 Y147.388 E5.86262
G1 X165.317 Y148.032 E5.88623
G1 X165.211 Y148.695 E5.91065
G1 X165.096 Y149.294 E5.93284
G1 X164.958 Y149.912 E5.95588
G1 X164.8 Y150.529 E5.97905
G1 X164.617 Y151.157 E6.00284
G1 X164.423 Y151.751 E6.02557
G1 X164.195 Y152.383 E6.05002
G1 X163.963 Y152.969 E6.07294
G1 X163.71 Y153.552 E6.09606
G1 X163.438 Y154.127 E6.1192
G1 X163.14 Y154.709 E6.14299
G1 X162.841 Y155.251 E6.16551
G1 X162.5 Y155.826 E6.18983
G1 X162.171 Y156.343 E6.21212
G1 X161.813 Y156.87 E6.2353
G1 X161.437 Y157.388 E6.25858
G1 X161.028 Y157.914 E6.28282
G1 X160.633 Y158.39 E6.30532
G1 X160.206 Y158.874 E6.3288
G1 X159.764 Y159.344 E6.35227
G1 X159.297 Y159.809 E6.37625
G1 X158.859 Y160.22 E6.3981
G1 X158.366 Y160.655 E6.42201
G1 X157.855 Y161.076 E6.4461
G1 X157.349 Y161.466 E6.46934
G1 X156.86 Y161.82 E6.4913
G1 X156.319 Y162.187 E6.51508
G1 X155.78 Y162.528 E6.53829
G1 X155.211 Y162.863 E6.56231
G1 X154.709 Y163.139 E6.58315
G1 X154.133 Y163.435 E6.6067
G1 X153.505 Y163.731 E6.63196
G1 X152.894 Y163.993 E6.65615
G1 X152.313 Y164.221 E6.67885
G1 X151.696 Y164.441 E6.70268
G1 X151.127 Y164.625 E6.72443
G1 X150.5 Y164.807 E6.74818
G1 X149.878 Y164.966 E6.77154
G1 X149.26 Y165.103 E6.79457
G1 X148.661 Y165.216 E6.81674
G1 X147.998 Y165.321 E6.84116
G1 X147.358 Y165.402 E6.86463
G1 X146.71 Y165.462 E6.8883
G1 X146.115 Y165.499 E6.90999
G1 X145.47 Y165.52 E6.93347
G1 X145.145 Y165.525 E6.94529
G1 X89.847 Y165.525 E8.95694
G1 X89.5 Y165.519 E8.96956
G1 X88.839 Y165.496 E8.99362
G1 X88.253 Y165.458 E9.01498
G1 X87.604 Y165.397 E9.0387
G1 X86.963 Y165.316 E9.0622
G1 X86.306 Y165.211 E9.08641
G1 X85.701 Y165.095 E9.10882
G1 X85.08 Y164.956 E9.13197
G1 X84.467 Y164.798 E9.15499
G1 X83.836 Y164.614 E9.17891
G1 X83.241 Y164.42 E9.20167
G1 X82.615 Y164.194 E9.22588
G1 X82.042 Y163.967 E9.2483
G1 X81.457 Y163.714 E9.27149
G1 X80.859 Y163.432 E9.29554
G1 X80.273 Y163.131 E9.31951
G1 X79.739 Y162.835 E9.34172
G1 X79.168 Y162.496 E9.36588
G1 X78.641 Y162.161 E9.38859
G1 X78.11 Y161.799 E9.41197
G1 X77.602 Y161.428 E9.43485
G1 X77.083 Y161.024 E9.45878
G1 X76.616 Y160.638 E9.48082
G1 X76.129 Y160.209 E9.50443
G1 X75.67 Y159.777 E9.52736
G1 X75.199 Y159.306 E9.55159
G1 X74.747 Y158.824 E9.57563
G1 X74.318 Y158.334 E9.59932
G1 X73.925 Y157.855 E9.62186
G1 X73.537 Y157.352 E9.64497
G1 X73.166 Y156.838 E9.66803
G1 X72.797 Y156.291 E9.69204
G1 X72.494 Y155.814 E9.71259
G1 X72.153 Y155.241 E9.73685
G1 X71.835 Y154.663 E9.76085
G1 X71.546 Y154.095 E9.78403
G1 X71.27 Y153.507 E9.80766
G1 X71.006 Y152.892 E9.83201
G1 X70.773 Y152.298 E9.85522
G1 X70.554 Y151.682 E9.879
G1 X70.372 Y151.116 E9.90063
G1 X70.191 Y150.491 E9.9243
G1 X70.032 Y149.868 E9.94769
G1 X69.895 Y149.248 E9.97079
G1 X69.783 Y148.656 E9.99271
G1 X69.678 Y147.993 E10.01713
G1 X69.597 Y147.35 E10.0407
G1 X69.537 Y146.7 E10.06445
G1 X69.499 Y146.078 E10.08712
G1 X69.479 Y145.403 E10.11169
G1 X69.475 Y145.108 E10.12242
G1 X69.475 Y142.183 E10.22883
G1 X69.515 Y141.291 E10.26131
G1 X69.635 Y140.406 E10.2938
G1 X69.833 Y139.535 E10.32629
G1 X70.108 Y138.685 E10.35879
G1 X70.459 Y137.864 E10.39127
G1 X70.881 Y137.077 E10.42376
G1 X71.237 Y136.536 E10.44732
G1 X70.777 Y135.805 E10.47874
G1 X70.371 Y135.009 E10.51124
G1 X70.038 Y134.181 E10.54371
G1 X69.78 Y133.326 E10.5762
G1 X69.6 Y132.451 E10.60869
G1 X69.499 Y131.564 E10.64117
G1 X69.475 Y130.877 E10.66618
G1 X69.475 Y112.968 E11.31768
G1 X69.515 Y112.076 E11.35016
G1 X69.635 Y111.191 E11.38265
G1 X69.833 Y110.32 E11.41514
G1 X70.108 Y109.47 E11.44764
G1 X70.459 Y108.649 E11.48012
G1 X70.881 Y107.862 E11.51261
G1 X71.372 Y107.116 E11.5451
G1 X71.928 Y106.417 E11.57759
G1 X72.272 Y106.049 E11.59591
G1 X71.794 Y105.526 E11.62169
G1 X71.253 Y104.816 E11.65416
G1 X70.777 Y104.06 E11.68666
G1 X70.371 Y103.264 E11.71917
G1 X70.038 Y102.436 E11.75163
G1 X69.78 Y101.581 E11.78412
G1 X69.6 Y100.706 E11.81662
G1 X69.499 Y99.819 E11.8491
G1 X69.475 Y99.132 E11.8741
G1 X69.475 Y89.846 E12.21191
G1 X69.481 Y89.51 E12.22414
G1 X69.503 Y88.858 E12.24787
G1 X69.541 Y88.263 E12.26956
G1 X69.602 Y87.612 E12.29334
G1 X69.683 Y86.968 E12.31696
G1 X69.789 Y86.305 E12.34138
G1 X69.904 Y85.706 E12.36357
G1 X70.042 Y85.088 E12.38661
G1 X70.2 Y84.471 E12.40977
G1 X70.383 Y83.843 E12.43357
G1 X70.577 Y83.249 E12.4563
G1 X70.805 Y82.617 E12.48074
G1 X71.037 Y82.031 E12.50367
G1 X71.29 Y81.448 E12.52679
G1 X71.562 Y80.873 E12.54993
G1 X71.86 Y80.291 E12.57372
G1 X72.158 Y79.751 E12.59615
G1 X72.5 Y79.174 E12.62055
G1 X72.832 Y78.651 E12.64309
G1 X73.189 Y78.126 E12.66619
G1 X73.564 Y77.611 E12.68936
G1 X73.977 Y77.08 E12.71383
G1 X74.376 Y76.599 E12.73657
G1 X74.801 Y76.118 E12.75992
G1 X75.223 Y75.67 E12.78231
G0 F9000 X75.47 Y75.917
G1 F3000 X75.941 Y75.446 E12.80654
G1 X76.408 Y75.009 E12.8298
G1 X76.897 Y74.581 E12.85344
G1 X77.355 Y74.205 E12.875
G1 X77.859 Y73.816 E12.89816
G1 X78.357 Y73.456 E12.92052
G1 X78.904 Y73.087 E12.94452
G1 X79.376 Y72.788 E12.96485
G1 X79.944 Y72.451 E12.98887
G1 X80.473 Y72.16 E13.01084
G1 X81.044 Y71.868 E13.03417
G1 X81.633 Y71.591 E13.05784
G1 X82.244 Y71.329 E13.08203
G1 X82.804 Y71.109 E13.10392
G1 X83.421 Y70.889 E13.12775
G1 X83.971 Y70.712 E13.14876
G1 X84.598 Y70.53 E13.17251
G1 X85.199 Y70.376 E13.19508
G1 X85.822 Y70.238 E13.2183
G1 X86.401 Y70.128 E13.23974
G1 X87.059 Y70.024 E13.26397
G1 X87.675 Y69.947 E13.28655
G1 X88.323 Y69.887 E13.31023
G1 X88.897 Y69.851 E13.33115
G1 X89.542 Y69.83 E13.35463
G1 X89.855 Y69.825 E13.36601
G1 X145.153 Y69.825 E15.37766
G1 X145.488 Y69.831 E15.38985
G1 X146.149 Y69.854 E15.41391
G1 X146.715 Y69.89 E15.43454
G1 X147.364 Y69.951 E15.45826
G1 X147.982 Y70.03 E15.48092
G1 X148.639 Y70.135 E15.50512
G1 X149.222 Y70.246 E15.52671
G1 X149.843 Y70.385 E15.54986
G1 X150.435 Y70.538 E15.57211
G1 X151.066 Y70.722 E15.59602
G1 X151.64 Y70.909 E15.61798
G1 X152.266 Y71.135 E15.64219
G1 X152.824 Y71.356 E15.66402
G1 X153.408 Y71.609 E15.68718
G1 X153.974 Y71.877 E15.70996
G1 X154.559 Y72.177 E15.73387
G1 X155.079 Y72.464 E15.75548
G1 X155.652 Y72.804 E15.77972
G1 X156.158 Y73.126 E15.80154
G1 X156.688 Y73.487 E15.82487
G1 X157.182 Y73.847 E15.8471
G1 X157.701 Y74.251 E15.87103
G1 X158.15 Y74.623 E15.89224
G1 X158.636 Y75.051 E15.9158
G1 X159.081 Y75.468 E15.93798
G1 X159.554 Y75.941 E15.96232
G1 X159.991 Y76.408 E15.98558
G1 X160.419 Y76.897 E16.00922
G1 X160.791 Y77.35 E16.03055
G1 X161.179 Y77.852 E16.05363
G1 X161.526 Y78.331 E16.07515
G1 X161.89 Y78.867 E16.09872
G1 X162.211 Y79.372 E16.12048
G1 X162.556 Y79.955 E16.14513
G1 X162.852 Y80.492 E16.16743
G1 X163.142 Y81.062 E16.1907
G1 X163.405 Y81.625 E16.21331
G1 X163.669 Y82.239 E16.23762
G1 X163.893 Y82.808 E16.25986
G1 X164.112 Y83.422 E16.28358
G1 X164.292 Y83.98 E16.30491
G1 X164.474 Y84.609 E16.32873
G1 X164.626 Y85.204 E16.35107
G1 X164.763 Y85.823 E16.37413
G1 X164.872 Y86.397 E16.39539
G1 X164.977 Y87.06 E16.41981
G1 X165.054 Y87.674 E16.44232
G1 X165.113 Y88.308 E16.46548
G1 X165.149 Y88.887 E16.48658
G1 X165.17 Y89.533 E16.5101
G1 X165.175 Y89.846 E16.52148
G1 X165.175 Y145.153 E18.53346
G1 X165.17 Y145.477 E18.54525
G1 X165.148 Y146.13 E18.56901
G1 X165.111 Y146.704 E18.58994
G1 X165.05 Y147.355 E18.61372
G1 X164.971 Y147.977 E18.63653
G1 X164.865 Y148.64 E18.66096
G1 X164.755 Y149.218 E18.68236
G1 X164.617 Y149.836 E18.7054
G1 X164.464 Y150.431 E18.72775
G1 X164.281 Y151.059 E18.75154
G1 X164.094 Y151.632 E18.77347
G1 X163.866 Y152.264 E18.79791
G1 X163.641 Y152.83 E18.82007
G1 X163.388 Y153.413 E18.84319
G1 X163.126 Y153.968 E18.86551
G1 X162.828 Y154.55 E18.8893
G1 X162.54 Y155.073 E18.91102
G1 X162.199 Y155.648 E18.93534
G1 X161.882 Y156.147 E18.95685
G1 X161.524 Y156.674 E18.98002
G1 X161.16 Y157.173 E19.00249
G1 X160.751 Y157.699 E19.02673
G1 X160.371 Y158.159 E19.04844
G1 X159.944 Y158.643 E19.07192
G1 X159.517 Y159.095 E19.09454
G1 X159.05 Y159.56 E19.11851
G1 X158.627 Y159.957 E19.13961
G1 X158.134 Y160.392 E19.16353
G1 X157.642 Y160.798 E19.18674
G1 X157.136 Y161.188 E19.20998
G1 X156.663 Y161.53 E19.23121
G1 X156.122 Y161.897 E19.25499
G1 X155.602 Y162.226 E19.27738
G1 X155.033 Y162.561 E19.3014
G1 X154.549 Y162.828 E19.32151
G1 X153.973 Y163.124 E19.34506
G1 X153.367 Y163.409 E19.36943
G1 X152.756 Y163.671 E19.39361
G1 X152.196 Y163.891 E19.4155
G1 X151.579 Y164.111 E19.43933
G1 X151.029 Y164.288 E19.46035
G1 X150.402 Y164.47 E19.4841
G1 X149.802 Y164.624 E19.50663
G1 X149.184 Y164.761 E19.52966
G1 X148.607 Y164.871 E19.55103
G1 X147.944 Y164.976 E19.57545
G1 X147.325 Y165.053 E19.59814
G1 X146.677 Y165.113 E19.62181
G1 X146.103 Y165.149 E19.64273
G1 X145.458 Y165.17 E19.66621
G1 X145.145 Y165.175 E19.6776
G1 X89.847 Y165.175 E21.68924
G1 X89.512 Y165.169 E21.70143
G1 X88.851 Y165.146 E21.72549
G1 X88.285 Y165.11 E21.74613
G1 X87.636 Y165.049 E21.76984
G1 X87.018 Y164.97 E21.7925
G1 X86.361 Y164.865 E21.81671
G1 X85.778 Y164.754 E21.8383
G1 X85.157 Y164.615 E21.86145
G1 X84.565 Y164.462 E21.88369
G1 X83.934 Y164.278 E21.9076
G1 X83.36 Y164.091 E21.92956
G1 X82.734 Y163.865 E21.95377
G1 X82.181 Y163.646 E21.97541
G1 X81.596 Y163.393 E21.9986
G1 X81.019 Y163.121 E22.0218
G1 X80.433 Y162.82 E22.04577
G1 X79.917 Y162.534 E22.06723
G1 X79.346 Y162.195 E22.09139
G1 X78.838 Y161.872 E22.11329
G1 X78.307 Y161.51 E22.13667
G1 X77.817 Y161.152 E22.15874
G1 X77.298 Y160.748 E22.18267
G1 X76.848 Y160.375 E22.20393
G1 X76.361 Y159.946 E22.22754
G1 X75.917 Y159.53 E22.24967
G1 X75.446 Y159.059 E22.27391
G1 X75.01 Y158.593 E22.29712
G1 X74.581 Y158.103 E22.32081
G1 X74.202 Y157.642 E22.34252
G1 X73.814 Y157.139 E22.36563
G1 X73.456 Y156.643 E22.38788
G1 X73.087 Y156.096 E22.41189
G1 X72.795 Y155.635 E22.43174
G1 X72.454 Y155.062 E22.456
G1 X72.147 Y154.505 E22.47913
G1 X71.858 Y153.937 E22.50232
G1 X71.591 Y153.369 E22.52515
G1 X71.327 Y152.754 E22.5495
G1 X71.103 Y152.181 E22.57188
G1 X70.884 Y151.565 E22.59566
G1 X70.708 Y151.018 E22.61656
G1 X70.527 Y150.393 E22.64023
G1 X70.374 Y149.793 E22.66276
G1 X70.237 Y149.173 E22.68586
G1 X70.128 Y148.602 E22.707
G1 X70.023 Y147.939 E22.73142
G1 X69.946 Y147.318 E22.75419
G1 X69.886 Y146.668 E22.77793
G1 X69.849 Y146.068 E22.7998
G1 X69.829 Y145.393 E22.82437
G1 X69.825 Y145.108 E22.83474
G1 X69.825 Y142.183 E22.94114
G1 X69.865 Y141.307 E22.97304
G1 X69.985 Y140.438 E23.00496
G1 X70.183 Y139.583 E23.03688
G1 X70.458 Y138.75 E23.0688
G1 X70.808 Y137.946 E23.1007
G1 X71.23 Y137.176 E23.13264
G1 X71.668 Y136.527 E23.16112
G1 X71.523 Y136.336 E23.16984
G1 X71.059 Y135.591 E23.20177
G1 X70.664 Y134.808 E23.23368
G1 X70.343 Y133.992 E23.26557
G1 X70.097 Y133.149 E23.29752
G1 X69.929 Y132.288 E23.32943
G1 X69.84 Y131.416 E23.36132
G1 X69.825 Y130.877 E23.38094
G1 X69.825 Y112.968 E24.03243
G1 X69.865 Y112.092 E24.06433
G1 X69.985 Y111.223 E24.09625
G1 X70.183 Y110.368 E24.12817
G1 X70.458 Y109.535 E24.16009
G1 X70.808 Y108.731 E24.19198
G1 X71.23 Y107.961 E24.22393
G1 X71.72 Y107.234 E24.25582
G1 X72.274 Y106.554 E24.28773
G1 X72.644 Y106.162 E24.30734
G1 X72.747 Y106.041 E24.31312
G1 X72.644 Y105.938 E24.31842
G1 X72.053 Y105.29 E24.35032
G1 X71.523 Y104.591 E24.38223
G1 X71.059 Y103.846 E24.41416
G1 X70.664 Y103.063 E24.44607
G1 X70.343 Y102.247 E24.47796
G1 X70.097 Y101.404 E24.50991
G1 X69.929 Y100.543 E24.54182
G1 X69.84 Y99.671 E24.57371
G1 X69.825 Y99.132 E24.59332
G1 X69.825 Y89.846 E24.93113
G1 X69.83 Y89.521 E24.94296
G1 X69.852 Y88.869 E24.96669
G1 X69.889 Y88.296 E24.98758
G1 X69.95 Y87.645 E25.01136
G1 X70.029 Y87.023 E25.03417
G1 X70.135 Y86.36 E25.0586
G1 X70.245 Y85.782 E25.08
G1 X70.383 Y85.164 E25.10304
G1 X70.536 Y84.569 E25.12539
G1 X70.719 Y83.941 E25.14918
G1 X70.906 Y83.368 E25.17111
G1 X71.134 Y82.736 E25.19555
G1 X71.359 Y82.17 E25.21771
G1 X71.612 Y81.587 E25.24083
G1 X71.874 Y81.032 E25.26315
G1 X72.172 Y80.45 E25.28694
G1 X72.459 Y79.929 E25.30858
G1 X72.801 Y79.352 E25.33298
G1 X73.122 Y78.848 E25.35472
G1 X73.479 Y78.323 E25.37781
G1 X73.84 Y77.826 E25.40016
G1 X74.253 Y77.295 E25.42463
G1 X74.638 Y76.831 E25.44656
G1 X75.063 Y76.35 E25.46991
G1 X75.47 Y75.917 E25.49153
G0 F9000 X75.718 Y76.165
G1 F3000 X76.189 Y75.694 E25.51576
G1 X76.638 Y75.273 E25.53815
G1 X77.127 Y74.845 E25.56179
G1 X77.569 Y74.482 E25.5826
G1 X78.073 Y74.093 E25.60576
G1 X78.553 Y73.746 E25.62731
G1 X79.1 Y73.377 E25.65131
G1 X79.554 Y73.089 E25.67087
G1 X80.122 Y72.752 E25.6949
G1 X80.632 Y72.471 E25.71608
G1 X81.203 Y72.179 E25.73941
G1 X81.771 Y71.913 E25.76223
G1 X82.382 Y71.651 E25.78641
G1 X82.922 Y71.439 E25.80751
G1 X83.539 Y71.219 E25.83134
G1 X84.068 Y71.048 E25.85157
G1 X84.695 Y70.866 E25.87532
G1 X85.275 Y70.717 E25.8971
G1 X85.898 Y70.579 E25.92032
G1 X86.456 Y70.474 E25.94097
G1 X87.114 Y70.37 E25.96521
G1 X87.707 Y70.296 E25.98695
G1 X88.355 Y70.236 E26.01062
G1 X88.908 Y70.201 E26.03078
G1 X89.553 Y70.18 E26.05425
G1 X89.855 Y70.175 E26.06524
