;FLAVOR:Marlin
;TIME:217
;Filament used: 0.146033m
;Layer height: 0.4
;MINX:103.881
;MINY:103.895
;MINZ:0.25
;MAXX:131.119
;MAXY:131.105
;MAXZ:13.05
;Generated with Cura_SteamEngine 4.13.1
M140 S65
M105
M190 S65
M104 S210
M105
M109 S210
M82 ;absolute extrusion mode
; Ender 3 Custom Start G-code
G92 E0 ; Reset Extruder
G28 ; Home all axes
G1 Z2.0 F3000 ; Move Z Axis up little to prevent scratching of Heat Bed
G1 X0.1 Y20 Z0.3 F5000.0 ; Move to start position
G1 X0.1 Y200.0 Z0.3 F1500.0 E15 ; Draw the first line
G1 X0.4 Y200.0 Z0.3 F5000.0 ; Move to side a little
G1 X0.4 Y20 Z0.3 F1500.0 E30 ; Draw the second line
G92 E0 ; Reset Extruder
G1 Z2.0 F3000 ; Move Z Axis up little to prevent scratching of Heat Bed
G1 X5 Y20 Z0.3 F5000.0 ; Move over to prevent blob squish
G92 E0
G92 E0
G1 F2700 E-5
;LAYER_COUNT:33
;LAYER:0
M107
G1 F300 Z0.45
G0 F9000 X107.706 Y108.036 Z0.45
;TYPE:SKIRT
G1 F300 Z0.25
G1 F2700 E0
G1 F3000 X108.643 Y107.153 E0.04684
G1 X109.001 Y106.857 E0.06374
G1 X110.009 Y106.125 E0.10905
G1 X110.39 Y105.883 E0.12547
G1 X111.485 Y105.28 E0.17095
G1 X111.903 Y105.083 E0.18776
G1 X113.092 Y104.613 E0.23427
G1 X113.535 Y104.47 E0.2512
G1 X114.757 Y104.16 E0.29707
G1 X115.204 Y104.076 E0.31361
G1 X116.418 Y103.924 E0.35812
G1 X116.878 Y103.895 E0.37489
G1 X118.159 Y103.896 E0.42149
G1 X118.616 Y103.926 E0.43815
G1 X119.82 Y104.079 E0.4823
G1 X120.258 Y104.162 E0.49852
G1 X121.493 Y104.479 E0.5449
G1 X121.95 Y104.628 E0.56239
G1 X123.135 Y105.1 E0.60879
G1 X123.548 Y105.296 E0.62542
G1 X124.619 Y105.888 E0.66994
G1 X124.989 Y106.123 E0.68588
G1 X126.019 Y106.873 E0.73223
G1 X126.387 Y107.179 E0.74964
G1 X127.314 Y108.056 E0.79607
G1 X127.619 Y108.384 E0.81236
G1 X128.398 Y109.333 E0.85702
G1 X128.672 Y109.712 E0.87404
G1 X129.334 Y110.76 E0.91913
G1 X129.555 Y111.163 E0.93585
G1 X130.1 Y112.33 E0.9827
G1 X130.266 Y112.755 E0.9993
G1 X130.635 Y113.896 E1.04293
G1 X130.745 Y114.323 E1.05897
G1 X130.984 Y115.581 E1.10555
G1 X131.043 Y116.056 E1.12296
G1 X131.119 Y117.33 E1.16939
G1 X131.117 Y117.782 E1.18583
G1 X131.034 Y119.019 E1.23094
G1 X130.973 Y119.49 E1.24821
G1 X130.717 Y120.786 E1.29627
G1 X130.598 Y121.231 E1.31303
G1 X130.224 Y122.359 E1.35626
G1 X130.056 Y122.779 E1.37271
G1 X129.491 Y123.959 E1.42031
G1 X129.268 Y124.356 E1.43687
G1 X128.613 Y125.373 E1.48088
G1 X128.34 Y125.745 E1.49766
G1 X127.523 Y126.72 E1.54394
G1 X127.207 Y127.052 E1.56061
G1 X126.292 Y127.901 E1.60602
G1 X125.932 Y128.195 E1.62293
G1 X124.919 Y128.921 E1.66827
G1 X124.544 Y129.156 E1.68437
G1 X123.468 Y129.742 E1.72894
G1 X123.044 Y129.94 E1.74596
G1 X121.819 Y130.416 E1.79377
G1 X121.384 Y130.553 E1.81036
G1 X120.192 Y130.85 E1.85505
G1 X119.746 Y130.932 E1.87155
G1 X118.568 Y131.076 E1.91472
G1 X118.107 Y131.105 E1.93152
G1 X116.784 Y131.101 E1.97965
G1 X116.327 Y131.069 E1.99632
G1 X115.122 Y130.91 E2.04053
G1 X114.674 Y130.823 E2.05713
G1 X113.482 Y130.514 E2.10193
G1 X113.056 Y130.375 E2.11823
G1 X111.861 Y129.898 E2.16504
G1 X111.441 Y129.698 E2.18196
G1 X110.343 Y129.087 E2.22767
G1 X109.955 Y128.838 E2.24444
G1 X108.948 Y128.099 E2.28988
G1 X108.596 Y127.805 E2.30657
G1 X107.69 Y126.947 E2.35196
G1 X107.378 Y126.612 E2.36861
G1 X106.582 Y125.641 E2.41429
G1 X106.315 Y125.27 E2.43092
G1 X105.65 Y124.212 E2.47638
G1 X105.429 Y123.806 E2.49319
G1 X104.889 Y122.642 E2.53987
G1 X104.72 Y122.206 E2.55688
G1 X104.348 Y121.036 E2.60155
G1 X104.24 Y120.607 E2.61764
G1 X104.01 Y119.37 E2.66341
G1 X103.953 Y118.899 E2.68067
G1 X103.881 Y117.678 E2.72516
G1 X103.882 Y117.253 E2.74062
G1 X103.96 Y116.029 E2.78524
G1 X104.02 Y115.553 E2.8027
G1 X104.267 Y114.274 E2.85008
G1 X104.378 Y113.85 E2.86603
G1 X104.749 Y112.716 E2.90943
G1 X104.917 Y112.29 E2.92609
G1 X105.454 Y111.146 E2.97206
G1 X105.676 Y110.742 E2.98883
G1 X106.356 Y109.671 E3.03498
G1 X106.63 Y109.295 E3.05191
G1 X107.399 Y108.365 E3.09581
G1 X107.706 Y108.036 E3.11218
G0 F9000 X107.962 Y108.274
G1 F3000 X108.866 Y107.423 E3.15734
G1 X109.224 Y107.127 E3.17424
G1 X110.196 Y106.42 E3.21797
G1 X110.577 Y106.178 E3.23439
G1 X111.635 Y105.596 E3.27831
G1 X112.053 Y105.399 E3.29512
G1 X113.199 Y104.946 E3.33995
G1 X113.642 Y104.803 E3.35689
G1 X114.821 Y104.504 E3.40113
G1 X115.268 Y104.42 E3.41768
G1 X116.44 Y104.273 E3.46065
G1 X116.9 Y104.244 E3.47742
G1 X118.136 Y104.246 E3.52238
G1 X118.593 Y104.276 E3.53904
G1 X119.755 Y104.423 E3.58165
G1 X120.193 Y104.506 E3.59787
G1 X121.385 Y104.812 E3.64263
G1 X121.842 Y104.961 E3.66012
G1 X122.985 Y105.417 E3.70489
G1 X123.398 Y105.613 E3.72152
G1 X124.431 Y106.183 E3.76444
G1 X124.801 Y106.418 E3.78038
G1 X125.795 Y107.142 E3.82512
G1 X126.163 Y107.448 E3.84253
G1 X127.058 Y108.295 E3.88736
G1 X127.363 Y108.623 E3.90365
G1 X128.114 Y109.538 E3.94671
G1 X128.388 Y109.917 E3.96373
G1 X129.027 Y110.928 E4.00723
G1 X129.248 Y111.331 E4.02395
G1 X129.774 Y112.457 E4.06917
G1 X129.94 Y112.882 E4.08576
G1 X130.296 Y113.983 E4.12786
G1 X130.406 Y114.41 E4.1439
G1 X130.637 Y115.625 E4.18889
G1 X130.696 Y116.1 E4.2063
G1 X130.769 Y117.329 E4.25109
G1 X130.767 Y117.781 E4.26753
G1 X130.687 Y118.974 E4.31103
G1 X130.626 Y119.445 E4.32831
G1 X130.379 Y120.696 E4.3747
G1 X130.26 Y121.141 E4.39145
G1 X129.899 Y122.229 E4.43315
G1 X129.731 Y122.649 E4.44961
G1 X129.186 Y123.788 E4.49554
G1 X128.963 Y124.185 E4.51211
G1 X128.331 Y125.166 E4.55456
G1 X128.058 Y125.538 E4.57135
G1 X127.27 Y126.479 E4.616
G1 X126.954 Y126.811 E4.63267
G1 X126.07 Y127.63 E4.67651
G1 X125.71 Y127.924 E4.69342
G1 X124.733 Y128.625 E4.73716
G1 X124.358 Y128.86 E4.75326
G1 X123.32 Y129.425 E4.79625
G1 X122.896 Y129.623 E4.81327
G1 X121.714 Y130.082 E4.8594
G1 X121.279 Y130.219 E4.87599
G1 X120.128 Y130.505 E4.91914
G1 X119.682 Y130.587 E4.93563
G1 X118.546 Y130.727 E4.97727
G1 X118.085 Y130.756 E4.99408
G1 X116.809 Y130.751 E5.04049
G1 X116.352 Y130.719 E5.05716
G1 X115.189 Y130.566 E5.09983
G1 X114.741 Y130.479 E5.11643
G1 X113.59 Y130.181 E5.15969
G1 X113.164 Y130.042 E5.17599
G1 X112.012 Y129.582 E5.22111
G1 X111.592 Y129.382 E5.23804
G1 X110.532 Y128.792 E5.28217
G1 X110.144 Y128.543 E5.29894
G1 X109.172 Y127.83 E5.34279
G1 X108.82 Y127.536 E5.35948
G1 X107.947 Y126.709 E5.40322
G1 X107.635 Y126.374 E5.41988
G1 X106.866 Y125.436 E5.464
G1 X106.599 Y125.065 E5.48063
G1 X105.957 Y124.045 E5.52447
G1 X105.736 Y123.639 E5.54129
G1 X105.216 Y122.516 E5.58631
G1 X105.047 Y122.08 E5.60332
G1 X104.687 Y120.951 E5.64643
G1 X104.579 Y120.522 E5.66252
G1 X104.358 Y119.328 E5.70669
G1 X104.301 Y118.857 E5.72395
G1 X104.231 Y117.678 E5.76692
G1 X104.232 Y117.253 E5.78238
G1 X104.308 Y116.072 E5.82543
G1 X104.368 Y115.596 E5.84288
G1 X104.606 Y114.362 E5.8886
G1 X104.717 Y113.938 E5.90455
G1 X105.074 Y112.845 E5.94637
G1 X105.242 Y112.419 E5.96303
G1 X105.761 Y111.315 E6.00741
G1 X105.983 Y110.911 E6.02418
G1 X106.639 Y109.877 E6.06873
G1 X106.913 Y109.501 E6.08565
G1 X107.655 Y108.603 E6.12803
G1 X107.962 Y108.274 E6.1444
G0 F9000 X108.218 Y108.513
G1 F3000 X109.089 Y107.693 E6.18792
G1 X109.447 Y107.397 E6.20482
G1 X110.384 Y106.716 E6.24695
G1 X110.765 Y106.474 E6.26337
G1 X111.784 Y105.913 E6.30569
G1 X112.202 Y105.716 E6.3225
G1 X113.307 Y105.279 E6.36573
G1 X113.75 Y105.136 E6.38266
G1 X114.886 Y104.848 E6.42529
G1 X115.333 Y104.764 E6.44184
G1 X116.462 Y104.622 E6.48323
G1 X116.922 Y104.593 E6.5
G1 X118.114 Y104.595 E6.54336
G1 X118.571 Y104.625 E6.56003
G1 X119.69 Y104.767 E6.60106
G1 X120.128 Y104.85 E6.61728
G1 X121.276 Y105.145 E6.6604
G1 X121.733 Y105.294 E6.67788
G1 X122.835 Y105.733 E6.72103
G1 X123.248 Y105.929 E6.73766
G1 X124.244 Y106.479 E6.77905
G1 X124.614 Y106.714 E6.795
G1 X125.571 Y107.411 E6.83807
G1 X125.939 Y107.717 E6.85548
G1 X126.801 Y108.533 E6.89866
G1 X127.106 Y108.861 E6.91495
G1 X127.83 Y109.743 E6.95646
G1 X128.104 Y110.122 E6.97348
G1 X128.72 Y111.096 E7.0154
G1 X128.941 Y111.499 E7.03212
G1 X129.448 Y112.585 E7.07572
G1 X129.614 Y113.01 E7.09232
G1 X129.957 Y114.07 E7.13285
G1 X130.067 Y114.497 E7.14889
G1 X130.289 Y115.668 E7.19225
G1 X130.348 Y116.143 E7.20966
G1 X130.419 Y117.327 E7.25281
G1 X130.417 Y117.779 E7.26925
G1 X130.34 Y118.929 E7.31118
G1 X130.279 Y119.4 E7.32846
G1 X130.041 Y120.605 E7.37314
G1 X129.922 Y121.05 E7.3899
G1 X129.574 Y122.099 E7.4301
G1 X129.406 Y122.519 E7.44656
G1 X128.881 Y123.616 E7.4908
G1 X128.658 Y124.013 E7.50737
G1 X128.048 Y124.959 E7.54831
G1 X127.775 Y125.331 E7.5651
G1 X127.016 Y126.238 E7.60812
G1 X126.7 Y126.57 E7.6248
G1 X125.849 Y127.359 E7.66701
G1 X125.489 Y127.653 E7.68392
G1 X124.547 Y128.328 E7.72608
G1 X124.172 Y128.563 E7.74218
G1 X123.171 Y129.108 E7.78364
G1 X122.747 Y129.306 E7.80067
G1 X121.609 Y129.749 E7.84509
G1 X121.174 Y129.886 E7.86168
G1 X120.065 Y130.161 E7.90325
G1 X119.619 Y130.243 E7.91974
G1 X118.524 Y130.378 E7.95988
G1 X118.063 Y130.407 E7.97668
G1 X116.833 Y130.402 E8.02143
G1 X116.376 Y130.37 E8.03809
G1 X115.256 Y130.223 E8.07919
G1 X114.808 Y130.136 E8.09579
G1 X113.699 Y129.848 E8.13747
G1 X113.273 Y129.709 E8.15377
G1 X112.162 Y129.266 E8.19728
G1 X111.742 Y129.066 E8.2142
G1 X110.721 Y128.498 E8.25671
G1 X110.333 Y128.249 E8.27348
G1 X109.396 Y127.562 E8.31575
G1 X109.044 Y127.268 E8.33243
G1 X108.203 Y126.47 E8.3746
G1 X107.891 Y126.135 E8.39126
G1 X107.15 Y125.232 E8.43375
G1 X106.883 Y124.861 E8.45038
G1 X106.265 Y123.877 E8.49265
G1 X106.044 Y123.471 E8.50947
G1 X105.542 Y122.389 E8.55286
G1 X105.373 Y121.953 E8.56987
G1 X105.027 Y120.865 E8.6114
G1 X104.919 Y120.436 E8.62749
G1 X104.705 Y119.286 E8.67005
G1 X104.648 Y118.815 E8.68731
G1 X104.581 Y117.679 E8.7287
G1 X104.582 Y117.254 E8.74417
G1 X104.655 Y116.116 E8.78565
G1 X104.715 Y115.64 E8.8031
G1 X104.944 Y114.451 E8.84715
G1 X105.055 Y114.027 E8.8631
G1 X105.4 Y112.973 E8.90344
G1 X105.568 Y112.547 E8.9201
G1 X106.067 Y111.483 E8.96285
G1 X106.289 Y111.079 E8.97962
G1 X106.922 Y110.084 E9.02252
G1 X107.196 Y109.708 E9.03944
G1 X107.911 Y108.842 E9.0803
G1 X108.218 Y108.513 E9.09667
G0 F9000 X108.474 Y108.752
G1 F3000 X109.312 Y107.963 E9.13854
G1 X109.67 Y107.667 E9.15544
G1 X110.572 Y107.011 E9.19601
G1 X110.953 Y106.769 E9.21243
G1 X111.933 Y106.23 E9.25312
G1 X112.351 Y106.033 E9.26993
G1 X113.414 Y105.613 E9.31151
G1 X113.857 Y105.47 E9.32844
G1 X114.951 Y105.192 E9.3695
G1 X115.398 Y105.108 E9.38605
G1 X116.484 Y104.972 E9.42587
G1 X116.944 Y104.943 E9.44263
G1 X118.091 Y104.944 E9.48436
G1 X118.548 Y104.974 E9.50102
G1 X119.625 Y105.111 E9.54051
G1 X120.063 Y105.194 E9.55673
G1 X121.168 Y105.478 E9.59824
G1 X121.625 Y105.627 E9.61572
G1 X122.685 Y106.049 E9.65723
G1 X123.098 Y106.245 E9.67386
G1 X124.056 Y106.774 E9.71367
G1 X124.426 Y107.009 E9.72961
G1 X125.347 Y107.681 E9.77109
G1 X125.715 Y107.987 E9.7885
G1 X126.545 Y108.771 E9.83003
G1 X126.85 Y109.099 E9.84633
G1 X127.547 Y109.948 E9.88629
G1 X127.821 Y110.327 E9.9033
G1 X128.414 Y111.265 E9.94367
G1 X128.635 Y111.668 E9.96039
G1 X129.122 Y112.712 E10.0023
G1 X129.288 Y113.137 E10.0189
G1 X129.618 Y114.158 E10.05793
G1 X129.728 Y114.585 E10.07397
G1 X129.942 Y115.711 E10.11567
G1 X130.001 Y116.186 E10.13308
G1 X130.069 Y117.325 E10.17459
G1 X130.067 Y117.777 E10.19103
G1 X129.993 Y118.884 E10.23139
G1 X129.932 Y119.355 E10.24867
G1 X129.703 Y120.515 E10.29168
G1 X129.584 Y120.96 E10.30844
G1 X129.249 Y121.969 E10.34711
G1 X129.081 Y122.389 E10.36357
G1 X128.575 Y123.445 E10.40617
G1 X128.352 Y123.842 E10.42273
G1 X127.766 Y124.751 E10.46208
G1 X127.493 Y125.123 E10.47886
G1 X126.763 Y125.996 E10.52026
G1 X126.447 Y126.328 E10.53693
G1 X125.627 Y127.088 E10.57761
G1 X125.267 Y127.382 E10.59451
G1 X124.361 Y128.032 E10.63508
G1 X123.986 Y128.267 E10.65118
G1 X123.023 Y128.791 E10.69106
G1 X122.599 Y128.989 E10.70808
G1 X121.504 Y129.415 E10.75083
G1 X121.069 Y129.552 E10.76742
G1 X120.002 Y129.817 E10.80741
G1 X119.556 Y129.899 E10.82391
G1 X118.502 Y130.028 E10.86254
G1 X118.041 Y130.057 E10.87934
G1 X116.858 Y130.053 E10.92238
G1 X116.401 Y130.021 E10.93904
G1 X115.323 Y129.879 E10.9786
G1 X114.875 Y129.792 E10.9952
G1 X113.808 Y129.516 E11.03529
G1 X113.382 Y129.377 E11.05159
G1 X112.313 Y128.95 E11.09347
G1 X111.893 Y128.75 E11.11039
G1 X110.91 Y128.203 E11.15131
G1 X110.522 Y127.954 E11.16809
G1 X109.621 Y127.293 E11.20874
G1 X109.269 Y126.999 E11.22542
G1 X108.459 Y126.232 E11.266
G1 X108.147 Y125.897 E11.28266
G1 X107.434 Y125.027 E11.32358
G1 X107.167 Y124.656 E11.3402
G1 X106.572 Y123.71 E11.38086
G1 X106.351 Y123.304 E11.39767
G1 X105.868 Y122.263 E11.43942
G1 X105.699 Y121.827 E11.45643
G1 X105.366 Y120.78 E11.4964
G1 X105.258 Y120.351 E11.51249
G1 X105.053 Y119.244 E11.55345
G1 X104.996 Y118.773 E11.57071
G1 X104.931 Y117.68 E11.61054
G1 X104.932 Y117.255 E11.626
G1 X105.002 Y116.16 E11.66592
G1 X105.062 Y115.684 E11.68337
G1 X105.283 Y114.54 E11.72576
G1 X105.394 Y114.116 E11.7417
G1 X105.725 Y113.102 E11.7805
G1 X105.893 Y112.676 E11.79716
G1 X106.374 Y111.652 E11.83832
G1 X106.596 Y111.248 E11.85509
G1 X107.205 Y110.29 E11.89638
G1 X107.479 Y109.914 E11.91331
G1 X108.167 Y109.081 E11.95261
G1 X108.474 Y108.752 E11.96898
G0 F9000 X108.73 Y108.991
G1 F3000 X109.535 Y108.232 E12.00923
G1 X109.893 Y107.936 E12.02613
G1 X110.759 Y107.307 E12.06506
G1 X111.14 Y107.065 E12.08148
G1 X112.082 Y106.546 E12.12061
G1 X112.5 Y106.349 E12.13742
G1 X113.522 Y105.946 E12.17738
G1 X113.965 Y105.803 E12.19432
G1 X115.015 Y105.536 E12.23373
G1 X115.462 Y105.452 E12.25028
G1 X116.506 Y105.321 E12.28855
G1 X116.966 Y105.292 E12.30532
G1 X118.068 Y105.293 E12.34541
G1 X118.525 Y105.323 E12.36207
G1 X119.56 Y105.455 E12.40003
G1 X119.998 Y105.538 E12.41624
G1 X121.059 Y105.81 E12.45609
G1 X121.516 Y105.959 E12.47358
G1 X122.534 Y106.365 E12.51345
G1 X122.947 Y106.561 E12.53008
G1 X123.868 Y107.07 E12.56836
G1 X124.238 Y107.305 E12.5843
G1 X125.124 Y107.95 E12.62417
G1 X125.492 Y108.256 E12.64158
G1 X126.289 Y109.01 E12.68149
G1 X126.594 Y109.338 E12.69779
G1 X127.263 Y110.153 E12.73614
G1 X127.537 Y110.532 E12.75316
G1 X128.107 Y111.433 E12.79194
G1 X128.328 Y111.836 E12.80866
G1 X128.796 Y112.839 E12.84893
G1 X128.962 Y113.264 E12.86552
G1 X129.279 Y114.245 E12.90303
G1 X129.389 Y114.672 E12.91907
G1 X129.595 Y115.754 E12.95914
G1 X129.654 Y116.229 E12.97655
G1 X129.719 Y117.324 E13.01645
G1 X129.717 Y117.776 E13.0329
G1 X129.646 Y118.839 E13.07165
G1 X129.585 Y119.31 E13.08893
G1 X129.365 Y120.424 E13.13024
G1 X129.246 Y120.869 E13.147
G1 X128.924 Y121.839 E13.18418
G1 X128.756 Y122.259 E13.20063
G1 X128.27 Y123.274 E13.24157
G1 X128.047 Y123.671 E13.25814
G1 X127.484 Y124.544 E13.29593
G1 X127.211 Y124.916 E13.31271
G1 X126.509 Y125.755 E13.35251
G1 X126.193 Y126.087 E13.36918
G1 X125.406 Y126.817 E13.40823
G1 X125.046 Y127.111 E13.42514
G1 X124.175 Y127.735 E13.46412
G1 X123.8 Y127.97 E13.48022
G1 X122.875 Y128.474 E13.51854
G1 X122.451 Y128.672 E13.53556
G1 X121.399 Y129.081 E13.57662
G1 X120.964 Y129.218 E13.59321
G1 X119.939 Y129.473 E13.63164
G1 X119.493 Y129.555 E13.64813
G1 X118.48 Y129.679 E13.68526
G1 X118.019 Y129.708 E13.70206
G1 X116.882 Y129.704 E13.74342
G1 X116.425 Y129.672 E13.76009
G1 X115.389 Y129.536 E13.7981
G1 X114.941 Y129.449 E13.8147
G1 X113.916 Y129.183 E13.85323
G1 X113.49 Y129.044 E13.86953
G1 X112.463 Y128.634 E13.90975
G1 X112.043 Y128.434 E13.92668
G1 X111.099 Y127.909 E13.96597
G1 X110.711 Y127.66 E13.98274
G1 X109.845 Y127.024 E14.02183
G1 X109.493 Y126.73 E14.03851
G1 X108.715 Y125.993 E14.0775
G1 X108.403 Y125.658 E14.09415
G1 X107.718 Y124.823 E14.13344
G1 X107.451 Y124.452 E14.15007
G1 X106.88 Y123.543 E14.18912
G1 X106.659 Y123.137 E14.20594
G1 X106.195 Y122.136 E14.24607
G1 X106.026 Y121.7 E14.26308
G1 X105.705 Y120.694 E14.3015
G1 X105.597 Y120.265 E14.31759
G1 X105.4 Y119.202 E14.35692
G1 X105.343 Y118.731 E14.37418
G1 X105.281 Y117.681 E14.41244
G1 X105.282 Y117.256 E14.4279
G1 X105.349 Y116.204 E14.46625
G1 X105.409 Y115.728 E14.48371
G1 X105.622 Y114.628 E14.52446
G1 X105.733 Y114.204 E14.54041
G1 X106.051 Y113.23 E14.57768
G1 X106.219 Y112.804 E14.59434
G1 X106.681 Y111.82 E14.63389
G1 X106.903 Y111.416 E14.65066
G1 X107.488 Y110.496 E14.69032
G1 X107.762 Y110.12 E14.70724
