;FLAVOR:Marlin
;TIME:4640
;Filament used: 7.94396m
;Layer height: 0.4
;MINX:63.956
;MINY:59.632
;MINZ:0.25
;MAXX:160.006
;MAXY:155.682
;MAXZ:10.85
;Generated with Cura_SteamEngine 4.13.1
M140 S65
M105
M190 S65
M104 S210
M105
M109 S210
M82 ;absolute extrusion mode
; Ender 3 Custom Start G-code
G92 E0 ; Reset Extruder
G28 ; Home all axes
G1 Z2.0 F3000 ; Move Z Axis up little to prevent scratching of Heat Bed
G1 X0.1 Y20 Z0.3 F5000.0 ; Move to start position
G1 X0.1 Y200.0 Z0.3 F1500.0 E15 ; Draw the first line
G1 X0.4 Y200.0 Z0.3 F5000.0 ; Move to side a little
G1 X0.4 Y20 Z0.3 F1500.0 E30 ; Draw the second line
G92 E0 ; Reset Extruder
G1 Z2.0 F3000 ; Move Z Axis up little to prevent scratching of Heat Bed
G1 X5 Y20 Z0.3 F5000.0 ; Move over to prevent blob squish
G92 E0
G92 E0
G1 F2700 E-5
;LAYER_COUNT:27
;LAYER:0
M107
G1 F300 Z0.45
G0 F9000 X69.712 Y65.817 Z0.45
;TYPE:SKIRT
G1 F300 Z0.25
G1 F2700 E0
G1 F3000 X70.161 Y65.369 E0.02307
G1 X70.615 Y64.944 E0.0457
G1 X71.109 Y64.509 E0.06964
G1 X71.588 Y64.113 E0.09225
G1 X72.105 Y63.712 E0.11605
G1 X72.618 Y63.339 E0.13913
G1 X73.159 Y62.972 E0.16291
G1 X73.663 Y62.652 E0.18463
G1 X74.23 Y62.315 E0.20862
G1 X74.793 Y62.005 E0.232
G1 X75.381 Y61.705 E0.25602
G1 X75.969 Y61.428 E0.27966
G1 X76.552 Y61.177 E0.30275
G1 X77.133 Y60.949 E0.32546
G1 X77.761 Y60.724 E0.34972
G1 X78.348 Y60.533 E0.37218
G1 X78.976 Y60.351 E0.39596
G1 X79.578 Y60.197 E0.41857
G1 X80.2 Y60.058 E0.44176
G1 X80.818 Y59.94 E0.46464
G1 X81.476 Y59.836 E0.48888
G1 X82.101 Y59.758 E0.51179
G1 X82.751 Y59.697 E0.53554
G1 X83.362 Y59.658 E0.55781
G1 X84.015 Y59.637 E0.58158
G1 X84.336 Y59.632 E0.59326
G1 X139.625 Y59.632 E2.60458
G1 X139.957 Y59.638 E2.61666
G1 X140.617 Y59.66 E2.64068
G1 X141.217 Y59.698 E2.66255
G1 X141.867 Y59.759 E2.6863
G1 X142.495 Y59.838 E2.70933
G1 X143.152 Y59.942 E2.73352
G1 X143.771 Y60.06 E2.75645
G1 X144.392 Y60.199 E2.7796
G1 X144.995 Y60.354 E2.80225
G1 X145.625 Y60.537 E2.82611
G1 X146.212 Y60.727 E2.84856
G1 X146.839 Y60.952 E2.87279
G1 X147.417 Y61.18 E2.89539
G1 X147.995 Y61.429 E2.91829
G1 X148.587 Y61.708 E2.9421
G1 X149.178 Y62.01 E2.96624
G1 X149.74 Y62.32 E2.98959
G1 X150.308 Y62.658 E3.01363
G1 X150.803 Y62.973 E3.03498
G1 X151.343 Y63.339 E3.05871
G1 X151.857 Y63.712 E3.08181
G1 X152.377 Y64.115 E3.10574
G1 X152.865 Y64.518 E3.12877
G1 X153.356 Y64.951 E3.15258
G1 X153.827 Y65.394 E3.1761
G1 X154.276 Y65.845 E3.19926
G1 X154.682 Y66.278 E3.22085
G1 X155.115 Y66.768 E3.24464
G1 X155.523 Y67.26 E3.26789
G1 X155.927 Y67.781 E3.29187
G1 X156.291 Y68.282 E3.3144
G1 X156.651 Y68.811 E3.33768
G1 X156.982 Y69.332 E3.36013
G1 X157.328 Y69.915 E3.38479
G1 X157.638 Y70.478 E3.40818
G1 X157.936 Y71.063 E3.43206
G1 X158.207 Y71.641 E3.45528
G1 X158.458 Y72.223 E3.47834
G1 X158.688 Y72.805 E3.5011
G1 X158.914 Y73.435 E3.52545
G1 X159.107 Y74.03 E3.54821
G1 X159.289 Y74.659 E3.57203
G1 X159.443 Y75.261 E3.59463
G1 X159.581 Y75.88 E3.6177
G1 X159.697 Y76.491 E3.64033
G1 X159.802 Y77.154 E3.66475
G1 X159.881 Y77.783 E3.68781
G1 X159.942 Y78.434 E3.7116
G1 X159.981 Y79.052 E3.73412
G1 X160.001 Y79.69 E3.75734
G1 X160.006 Y80.003 E3.76873
G1 X160.006 Y135.31 E5.7807
G1 X160 Y135.646 E5.79293
G1 X159.978 Y136.299 E5.8167
G1 X159.94 Y136.894 E5.83839
G1 X159.879 Y137.545 E5.86217
G1 X159.798 Y138.189 E5.88578
G1 X159.692 Y138.852 E5.91021
G1 X159.577 Y139.451 E5.9324
G1 X159.439 Y140.069 E5.95543
G1 X159.281 Y140.686 E5.9786
G1 X159.098 Y141.314 E6.0024
G1 X158.904 Y141.908 E6.02513
G1 X158.676 Y142.54 E6.04957
G1 X158.444 Y143.126 E6.0725
G1 X158.191 Y143.709 E6.09562
G1 X157.919 Y144.284 E6.11876
G1 X157.621 Y144.866 E6.14255
G1 X157.322 Y145.408 E6.16506
G1 X156.981 Y145.983 E6.18938
G1 X156.652 Y146.5 E6.21168
G1 X156.294 Y147.027 E6.23485
G1 X155.918 Y147.545 E6.25814
G1 X155.509 Y148.071 E6.28238
G1 X155.114 Y148.547 E6.30488
G1 X154.687 Y149.031 E6.32836
G1 X154.245 Y149.501 E6.35183
G1 X153.778 Y149.966 E6.3758
G1 X153.34 Y150.377 E6.39765
G1 X152.847 Y150.812 E6.42157
G1 X152.336 Y151.233 E6.44566
G1 X151.83 Y151.623 E6.4689
G1 X151.341 Y151.977 E6.49086
G1 X150.8 Y152.344 E6.51464
G1 X150.261 Y152.685 E6.53784
G1 X149.692 Y153.02 E6.56186
G1 X149.19 Y153.296 E6.5827
G1 X148.614 Y153.592 E6.60626
G1 X147.986 Y153.888 E6.63152
G1 X147.375 Y154.15 E6.6557
G1 X146.794 Y154.378 E6.67841
G1 X146.177 Y154.598 E6.70224
G1 X145.608 Y154.782 E6.72399
G1 X144.981 Y154.964 E6.74774
G1 X144.359 Y155.123 E6.7711
G1 X143.741 Y155.26 E6.79412
G1 X143.142 Y155.373 E6.8163
G1 X142.479 Y155.478 E6.84072
G1 X141.839 Y155.559 E6.86419
G1 X141.191 Y155.619 E6.88786
G1 X140.596 Y155.656 E6.90955
G1 X139.951 Y155.677 E6.93302
G1 X139.626 Y155.682 E6.94485
G1 X84.328 Y155.682 E8.95649
G1 X83.981 Y155.676 E8.96912
G1 X83.32 Y155.653 E8.99318
G1 X82.734 Y155.615 E9.01454
G1 X82.085 Y155.554 E9.03825
G1 X81.444 Y155.473 E9.06176
G1 X80.787 Y155.368 E9.08596
G1 X80.182 Y155.252 E9.10837
G1 X79.561 Y155.113 E9.13152
G1 X78.948 Y154.955 E9.15455
G1 X78.317 Y154.771 E9.17846
G1 X77.722 Y154.577 E9.20123
G1 X77.096 Y154.351 E9.22544
G1 X76.523 Y154.124 E9.24786
G1 X75.938 Y153.871 E9.27105
G1 X75.34 Y153.589 E9.2951
G1 X74.754 Y153.288 E9.31906
G1 X74.22 Y152.992 E9.34127
G1 X73.649 Y152.653 E9.36543
G1 X73.122 Y152.318 E9.38815
G1 X72.591 Y151.956 E9.41153
G1 X72.083 Y151.585 E9.43441
G1 X71.564 Y151.181 E9.45834
G1 X71.097 Y150.795 E9.48038
G1 X70.61 Y150.366 E9.50399
G1 X70.151 Y149.934 E9.52692
G1 X69.68 Y149.463 E9.55115
G1 X69.228 Y148.981 E9.57519
G1 X68.799 Y148.491 E9.59888
G1 X68.406 Y148.012 E9.62142
G1 X68.018 Y147.509 E9.64453
G1 X67.647 Y146.995 E9.66759
G1 X67.278 Y146.448 E9.69159
G1 X66.975 Y145.971 E9.71215
G1 X66.634 Y145.398 E9.73641
G1 X66.316 Y144.82 E9.7604
G1 X66.027 Y144.252 E9.78359
G1 X65.751 Y143.664 E9.80722
G1 X65.487 Y143.049 E9.83156
G1 X65.254 Y142.455 E9.85478
G1 X65.035 Y141.839 E9.87856
G1 X64.853 Y141.273 E9.90019
G1 X64.672 Y140.648 E9.92386
G1 X64.513 Y140.025 E9.94725
G1 X64.376 Y139.405 E9.97035
G1 X64.264 Y138.813 E9.99227
G1 X64.159 Y138.15 E10.01668
G1 X64.078 Y137.507 E10.04026
G1 X64.018 Y136.857 E10.06401
G1 X63.981 Y136.257 E10.08588
G1 X63.961 Y135.628 E10.10877
G1 X63.956 Y135.311 E10.1203
G1 X63.956 Y80.012 E12.13198
G1 X63.961 Y79.691 E12.14366
G1 X63.982 Y79.039 E12.16739
G1 X64.021 Y78.429 E12.18963
G1 X64.082 Y77.778 E12.21342
G1 X64.161 Y77.146 E12.23659
G1 X64.266 Y76.484 E12.26097
G1 X64.382 Y75.876 E12.28349
G1 X64.52 Y75.257 E12.30656
G1 X64.677 Y74.644 E12.32958
G1 X64.861 Y74.011 E12.35356
G1 X65.051 Y73.426 E12.37593
G1 X65.276 Y72.799 E12.40017
G1 X65.512 Y72.203 E12.42349
G1 X65.765 Y71.619 E12.44664
G1 X66.03 Y71.056 E12.46928
G1 X66.326 Y70.475 E12.493
G1 X66.636 Y69.912 E12.51638
G1 X66.979 Y69.334 E12.54083
G1 X67.308 Y68.817 E12.56312
G1 X67.671 Y68.283 E12.58661
G1 X68.041 Y67.774 E12.6095
G1 X68.447 Y67.251 E12.63359
G1 X68.844 Y66.771 E12.65625
G1 X69.276 Y66.281 E12.68001
G1 X69.712 Y65.817 E12.70317
G0 F9000 X69.96 Y66.065
G1 F3000 X70.409 Y65.617 E12.72625
G1 X70.846 Y65.206 E12.74807
G1 X71.34 Y64.771 E12.77202
G1 X71.802 Y64.39 E12.7938
G1 X72.319 Y63.989 E12.8176
G1 X72.815 Y63.629 E12.8399
G1 X73.356 Y63.262 E12.86368
G1 X73.841 Y62.953 E12.8846
G1 X74.408 Y62.616 E12.90859
G1 X74.952 Y62.316 E12.93119
G1 X75.54 Y62.016 E12.95521
G1 X76.108 Y61.75 E12.97802
G1 X76.691 Y61.499 E13.00111
G1 X77.251 Y61.278 E13.02301
G1 X77.879 Y61.053 E13.04728
G1 X78.446 Y60.869 E13.06897
G1 X79.074 Y60.687 E13.09275
G1 X79.654 Y60.539 E13.11453
G1 X80.276 Y60.4 E13.13771
G1 X80.872 Y60.286 E13.15979
G1 X81.53 Y60.182 E13.18402
G1 X82.134 Y60.106 E13.20617
G1 X82.784 Y60.045 E13.22992
G1 X83.374 Y60.008 E13.25142
G1 X84.027 Y59.987 E13.27519
G1 X84.336 Y59.982 E13.28643
G1 X139.625 Y59.982 E15.29775
G1 X139.946 Y59.987 E15.30943
G1 X140.606 Y60.009 E15.33345
G1 X141.184 Y60.046 E15.35452
G1 X141.834 Y60.107 E15.37827
G1 X142.44 Y60.183 E15.40049
G1 X143.097 Y60.287 E15.42469
G1 X143.694 Y60.401 E15.4468
G1 X144.315 Y60.54 E15.46995
G1 X144.898 Y60.69 E15.49185
G1 X145.528 Y60.873 E15.51571
G1 X146.094 Y61.057 E15.53736
G1 X146.721 Y61.282 E15.5616
G1 X147.278 Y61.501 E15.58337
G1 X147.856 Y61.75 E15.60627
G1 X148.428 Y62.019 E15.62926
G1 X149.019 Y62.321 E15.6534
G1 X149.561 Y62.621 E15.67594
G1 X150.129 Y62.959 E15.69998
G1 X150.607 Y63.263 E15.72059
G1 X151.147 Y63.629 E15.74432
G1 X151.643 Y63.988 E15.7666
G1 X152.163 Y64.391 E15.79053
G1 X152.633 Y64.78 E15.81272
G1 X153.124 Y65.213 E15.83654
G1 X153.579 Y65.641 E15.85926
G1 X154.028 Y66.092 E15.88241
G1 X154.419 Y66.51 E15.90324
G1 X154.852 Y67 E15.92702
G1 X155.246 Y67.475 E15.94947
G1 X155.65 Y67.996 E15.97346
G1 X156.001 Y68.479 E15.99518
G1 X156.361 Y69.008 E16.01846
G1 X156.681 Y69.511 E16.04014
G1 X157.027 Y70.094 E16.06481
G1 X157.326 Y70.637 E16.08736
G1 X157.624 Y71.222 E16.11124
G1 X157.886 Y71.779 E16.13363
G1 X158.137 Y72.361 E16.15669
G1 X158.359 Y72.923 E16.17867
G1 X158.585 Y73.553 E16.20302
G1 X158.771 Y74.128 E16.225
G1 X158.953 Y74.757 E16.24882
G1 X159.101 Y75.338 E16.27063
G1 X159.239 Y75.957 E16.29371
G1 X159.352 Y76.545 E16.31549
G1 X159.457 Y77.208 E16.33991
G1 X159.533 Y77.816 E16.3622
G1 X159.594 Y78.467 E16.38598
G1 X159.631 Y79.063 E16.40771
G1 X159.651 Y79.701 E16.43093
G1 X159.656 Y80.003 E16.44191
G1 X159.656 Y135.31 E18.45389
G1 X159.651 Y135.634 E18.46568
G1 X159.629 Y136.287 E18.48944
G1 X159.592 Y136.861 E18.51037
G1 X159.531 Y137.512 E18.53416
G1 X159.452 Y138.134 E18.55696
G1 X159.346 Y138.797 E18.58139
G1 X159.236 Y139.375 E18.60279
G1 X159.098 Y139.993 E18.62583
G1 X158.945 Y140.588 E18.64818
G1 X158.762 Y141.216 E18.67197
G1 X158.575 Y141.789 E18.6939
G1 X158.347 Y142.421 E18.71834
G1 X158.122 Y142.987 E18.7405
G1 X157.869 Y143.57 E18.76362
G1 X157.607 Y144.125 E18.78595
G1 X157.309 Y144.707 E18.80973
G1 X157.021 Y145.23 E18.83145
G1 X156.68 Y145.805 E18.85577
G1 X156.363 Y146.304 E18.87728
G1 X156.005 Y146.831 E18.90045
G1 X155.641 Y147.33 E18.92292
G1 X155.232 Y147.856 E18.94716
G1 X154.852 Y148.316 E18.96887
G1 X154.425 Y148.8 E18.99235
G1 X153.998 Y149.252 E19.01497
G1 X153.531 Y149.717 E19.03894
G1 X153.108 Y150.114 E19.06004
G1 X152.615 Y150.549 E19.08396
G1 X152.123 Y150.955 E19.10717
G1 X151.617 Y151.345 E19.13041
G1 X151.144 Y151.687 E19.15164
G1 X150.603 Y152.054 E19.17542
G1 X150.083 Y152.383 E19.19781
G1 X149.514 Y152.718 E19.22183
G1 X149.03 Y152.985 E19.24194
G1 X148.454 Y153.281 E19.2655
G1 X147.848 Y153.566 E19.28986
G1 X147.237 Y153.828 E19.31404
G1 X146.677 Y154.048 E19.33593
G1 X146.06 Y154.268 E19.35976
G1 X145.51 Y154.445 E19.38078
G1 X144.883 Y154.627 E19.40453
G1 X144.283 Y154.781 E19.42706
G1 X143.665 Y154.918 E19.45009
G1 X143.088 Y155.028 E19.47146
G1 X142.425 Y155.133 E19.49588
G1 X141.806 Y155.21 E19.51857
G1 X141.158 Y155.27 E19.54224
G1 X140.584 Y155.306 E19.56317
G1 X139.939 Y155.327 E19.58664
G1 X139.626 Y155.332 E19.59803
G1 X84.328 Y155.332 E21.60968
G1 X83.993 Y155.326 E21.62186
G1 X83.332 Y155.303 E21.64592
G1 X82.766 Y155.267 E21.66656
G1 X82.117 Y155.206 E21.69027
G1 X81.499 Y155.127 E21.71293
G1 X80.842 Y155.022 E21.73714
G1 X80.259 Y154.911 E21.75873
G1 X79.638 Y154.772 E21.78188
G1 X79.046 Y154.619 E21.80412
G1 X78.415 Y154.435 E21.82803
G1 X77.841 Y154.248 E21.84999
G1 X77.215 Y154.022 E21.8742
G1 X76.662 Y153.803 E21.89584
G1 X76.077 Y153.55 E21.91903
G1 X75.5 Y153.278 E21.94223
G1 X74.914 Y152.977 E21.9662
G1 X74.398 Y152.691 E21.98766
G1 X73.827 Y152.352 E22.01182
G1 X73.319 Y152.029 E22.03372
G1 X72.788 Y151.667 E22.0571
G1 X72.298 Y151.309 E22.07917
G1 X71.779 Y150.905 E22.1031
G1 X71.329 Y150.532 E22.12436
G1 X70.842 Y150.103 E22.14797
G1 X70.398 Y149.687 E22.1701
G1 X69.927 Y149.216 E22.19434
G1 X69.491 Y148.75 E22.21755
G1 X69.062 Y148.26 E22.24124
G1 X68.683 Y147.799 E22.26295
G1 X68.295 Y147.296 E22.28606
G1 X67.937 Y146.8 E22.30832
G1 X67.568 Y146.253 E22.33232
G1 X67.276 Y145.792 E22.35217
G1 X66.935 Y145.219 E22.37643
G1 X66.628 Y144.662 E22.39956
G1 X66.339 Y144.094 E22.42275
G1 X66.072 Y143.526 E22.44558
G1 X65.808 Y142.911 E22.46993
G1 X65.584 Y142.338 E22.49231
G1 X65.365 Y141.722 E22.51609
G1 X65.189 Y141.175 E22.53699
G1 X65.008 Y140.55 E22.56066
G1 X64.855 Y139.95 E22.58319
G1 X64.718 Y139.33 E22.60629
G1 X64.609 Y138.759 E22.62744
G1 X64.504 Y138.096 E22.65185
G1 X64.427 Y137.475 E22.67462
G1 X64.367 Y136.825 E22.69837
G1 X64.331 Y136.246 E22.71947
G1 X64.311 Y135.617 E22.74236
G1 X64.306 Y135.311 E22.7535
G1 X64.306 Y80.012 E24.76518
G1 X64.311 Y79.702 E24.77646
G1 X64.332 Y79.05 E24.80019
G1 X64.369 Y78.462 E24.82162
G1 X64.43 Y77.811 E24.84541
G1 X64.507 Y77.201 E24.86777
G1 X64.612 Y76.539 E24.89216
G1 X64.724 Y75.953 E24.91386
G1 X64.862 Y75.334 E24.93693
G1 X65.014 Y74.741 E24.9592
G1 X65.198 Y74.108 E24.98318
G1 X65.381 Y73.544 E25.00475
G1 X65.606 Y72.917 E25.02898
G1 X65.833 Y72.342 E25.05147
G1 X66.086 Y71.758 E25.07463
G1 X66.342 Y71.215 E25.09646
G1 X66.638 Y70.634 E25.12019
G1 X66.937 Y70.091 E25.14274
G1 X67.28 Y69.513 E25.16719
G1 X67.597 Y69.014 E25.18869
G1 X67.96 Y68.48 E25.21218
G1 X68.317 Y67.989 E25.23427
G1 X68.723 Y67.466 E25.25835
G1 X69.106 Y67.003 E25.28021
G1 X69.538 Y66.513 E25.30397
G1 X69.96 Y66.065 E25.32636
G0 F9000 X70.207 Y66.312
G1 F3000 X70.656 Y65.864 E25.34944
G1 X71.077 Y65.469 E25.37044
G1 X71.571 Y65.034 E25.39438
G1 X72.017 Y64.666 E25.41542
G1 X72.534 Y64.265 E25.43922
G1 X73.011 Y63.918 E25.46068
G1 X73.552 Y63.551 E25.48446
G1 X74.02 Y63.254 E25.50462
G1 X74.587 Y62.917 E25.52862
G1 X75.111 Y62.628 E25.55039
G1 X75.699 Y62.328 E25.5744
G1 X76.246 Y62.071 E25.59639
G1 X76.829 Y61.82 E25.61948
G1 X77.369 Y61.607 E25.64059
G1 X77.997 Y61.382 E25.66486
G1 X78.543 Y61.206 E25.68573
G1 X79.171 Y61.024 E25.70952
G1 X79.73 Y60.88 E25.73052
G1 X80.352 Y60.741 E25.7537
G1 X80.927 Y60.632 E25.77499
G1 X81.585 Y60.528 E25.79923
G1 X82.166 Y60.455 E25.82053
G1 X82.816 Y60.394 E25.84428
G1 X83.385 Y60.358 E25.86502
G1 X84.038 Y60.337 E25.88879
G1 X84.336 Y60.332 E25.89963
G1 X139.625 Y60.332 E27.91095
G1 X139.934 Y60.337 E27.92219
G1 X140.594 Y60.359 E27.94621
G1 X141.152 Y60.395 E27.96655
G1 X141.802 Y60.456 E27.9903
G1 X142.385 Y60.529 E28.01168
G1 X143.042 Y60.633 E28.03587
G1 X143.618 Y60.743 E28.05721
G1 X144.239 Y60.882 E28.08036
G1 X144.8 Y61.026 E28.10143
G1 X145.43 Y61.209 E28.12529
G1 X145.976 Y61.386 E28.14617
G1 X146.603 Y61.611 E28.17041
G1 X147.14 Y61.823 E28.19141
G1 X147.718 Y62.072 E28.2143
G1 X148.268 Y62.331 E28.23642
G1 X148.859 Y62.633 E28.26056
G1 X149.382 Y62.921 E28.28228
G1 X149.95 Y63.259 E28.30633
G1 X150.411 Y63.552 E28.3262
G1 X150.951 Y63.918 E28.34993
G1 X151.429 Y64.265 E28.37142
G1 X151.949 Y64.668 E28.39535
G1 X152.402 Y65.043 E28.41674
G1 X152.893 Y65.476 E28.44056
G1 X153.331 Y65.888 E28.46243
G1 X153.78 Y66.339 E28.48558
G1 X154.157 Y66.741 E28.50563
G1 X154.59 Y67.231 E28.52942
G1 X154.97 Y67.689 E28.55107
G1 X155.374 Y68.21 E28.57505
G1 X155.712 Y68.676 E28.596
G1 X156.072 Y69.205 E28.61927
G1 X156.38 Y69.689 E28.64014
G1 X156.726 Y70.272 E28.6648
G1 X157.014 Y70.796 E28.68656
G1 X157.312 Y71.381 E28.71044
G1 X157.565 Y71.918 E28.73203
G1 X157.816 Y72.5 E28.75509
G1 X158.029 Y73.041 E28.77624
G1 X158.255 Y73.671 E28.80059
G1 X158.435 Y74.225 E28.82178
G1 X158.617 Y74.854 E28.8456
G1 X158.76 Y75.414 E28.86663
G1 X158.898 Y76.033 E28.8897
G1 X159.006 Y76.6 E28.9107
G1 X159.111 Y77.263 E28.93512
G1 X159.185 Y77.849 E28.9566
G1 X159.246 Y78.5 E28.98039
G1 X159.281 Y79.074 E29.00131
G1 X159.301 Y79.712 E29.02453
G1 X159.306 Y80.003 E29.03512
G1 X159.306 Y135.31 E31.04709
G1 X159.301 Y135.622 E31.05844
G1 X159.279 Y136.275 E31.08221
G1 X159.244 Y136.828 E31.10237
G1 X159.183 Y137.479 E31.12615
G1 X159.107 Y138.078 E31.14812
G1 X159.001 Y138.741 E31.17254
G1 X158.894 Y139.298 E31.19318
G1 X158.756 Y139.916 E31.21621
G1 X158.609 Y140.49 E31.23777
G1 X158.426 Y141.118 E31.26156
G1 X158.246 Y141.67 E31.28268
G1 X158.018 Y142.302 E31.30713
G1 X157.801 Y142.847 E31.32847
G1 X157.548 Y143.43 E31.35159
G1 X157.296 Y143.965 E31.3731
G1 X156.998 Y144.547 E31.39688
G1 X156.72 Y145.051 E31.41782
