;FLAVOR:Marlin
;TIME:872
;Filament used: 0.317076m
;Layer height: 0.16
;MINX:99.675
;MINY:99.672
;MINZ:0.2
;MAXX:135.327
;MAXY:135.326
;MAXZ:36.04
;Generated with Cura_SteamEngine 5.3.1
M140 S65
M105
M190 S65
M104 S210
M105
M109 S210
M82 ;absolute extrusion mode
; Ender 3 Custom Start G-code
G92 E0 ; Reset Extruder
G28 ; Home all axes
G1 Z2.0 F3000 ; Move Z Axis up little to prevent scratching of Heat Bed
G1 X0.1 Y20 Z0.3 F5000.0 ; Move to start position
G1 X0.1 Y200.0 Z0.3 F1500.0 E15 ; Draw the first line
G1 X0.4 Y200.0 Z0.3 F5000.0 ; Move to side a little
G1 X0.4 Y20 Z0.3 F1500.0 E30 ; Draw the second line
G92 E0 ; Reset Extruder
G1 Z2.0 F3000 ; Move Z Axis up little to prevent scratching of Heat Bed
G1 X5 Y20 Z0.3 F5000.0 ; Move over to prevent blob squish
G92 E0
G92 E0
G1 F2700 E-5
;LAYER_COUNT:225
;LAYER:0
M107
G0 F6000 X106.009 Y105.323 Z0.2
;TYPE:SKIRT
G1 F2700 E0
G1 F900 X106.687 Y104.719 E0.04077
G1 X107.147 Y104.329 E0.06785
G1 X108.065 Y103.653 E0.11904
G1 X108.72 Y103.237 E0.15388
G1 X109.311 Y102.886 E0.18474
G1 X110.359 Y102.342 E0.23776
G1 X111.103 Y102.021 E0.27415
G1 X111.737 Y101.771 E0.30475
G1 X112.81 Y101.415 E0.35551
G1 X113.555 Y101.222 E0.39006
G1 X114.225 Y101.071 E0.4209
G1 X115.389 Y100.878 E0.47388
G1 X116.113 Y100.809 E0.50654
G1 X116.823 Y100.762 E0.53849
G1 X118.003 Y100.752 E0.59147
G1 X118.791 Y100.801 E0.62692
G1 X119.481 Y100.866 E0.65804
G1 X120.62 Y101.038 E0.70976
G1 X121.375 Y101.206 E0.74449
G1 X122.025 Y101.371 E0.7746
G1 X123.158 Y101.729 E0.82796
G1 X123.891 Y102.019 E0.86335
G1 X124.509 Y102.285 E0.89356
G1 X125.593 Y102.829 E0.94802
G1 X126.226 Y103.205 E0.98108
G1 X126.799 Y103.567 E1.01151
G1 X127.781 Y104.271 E1.06576
G1 X128.375 Y104.763 E1.1004
G1 X128.785 Y105.123 E1.12489
G1 X129.674 Y106.005 E1.18112
G1 X130.267 Y106.67 E1.22113
G1 X130.652 Y107.124 E1.24786
G1 X131.344 Y108.062 E1.3002
G1 X131.763 Y108.72 E1.33522
G1 X132.114 Y109.311 E1.36609
G1 X132.658 Y110.359 E1.41911
G1 X132.966 Y111.07 E1.4539
G1 X133.201 Y111.66 E1.48241
G1 X133.543 Y112.669 E1.53025
G1 X133.641 Y113.016 E1.54644
G1 X133.777 Y113.551 E1.57123
G1 X133.929 Y114.226 E1.60229
G1 X134.119 Y115.363 E1.65405
G1 X134.19 Y116.095 E1.68708
G1 X134.238 Y116.819 E1.71966
G1 X134.249 Y117.982 E1.77188
G1 X134.2 Y118.78 E1.80778
G1 X134.134 Y119.48 E1.83935
G1 X133.969 Y120.583 E1.88942
G1 X133.794 Y121.379 E1.92602
G1 X133.626 Y122.038 E1.95656
G1 X133.268 Y123.164 E2.00961
G1 X132.981 Y123.891 E2.0447
G1 X132.715 Y124.509 E2.07491
G1 X132.171 Y125.593 E2.12937
G1 X131.795 Y126.226 E2.16243
G1 X131.433 Y126.799 E2.19286
G1 X130.74 Y127.767 E2.24632
G1 X130.229 Y128.385 E2.28232
G1 X129.869 Y128.794 E2.30679
G1 X128.995 Y129.674 E2.36248
G1 X128.33 Y130.267 E2.40248
G1 X127.86 Y130.665 E2.43014
G1 X126.935 Y131.347 E2.48174
G1 X126.28 Y131.763 E2.51658
G1 X125.689 Y132.114 E2.54745
G1 X124.641 Y132.658 E2.60046
G1 X123.897 Y132.979 E2.63685
G1 X123.263 Y133.229 E2.66745
G1 X122.19 Y133.585 E2.71821
G1 X121.439 Y133.779 E2.75304
G1 X120.767 Y133.93 E2.78396
G1 X119.598 Y134.123 E2.83716
G1 X118.858 Y134.193 E2.87054
G1 X118.173 Y134.238 E2.90136
G1 X117 Y134.248 E2.95403
G1 X116.209 Y134.199 E2.98962
G1 X115.519 Y134.134 E3.02074
G1 X114.38 Y133.962 E3.07246
G1 X113.615 Y133.792 E3.10765
G1 X112.96 Y133.625 E3.138
G1 X111.84 Y133.27 E3.19075
G1 X111.107 Y132.981 E3.22613
G1 X110.487 Y132.714 E3.25644
G1 X109.402 Y132.168 E3.31098
G1 X108.762 Y131.789 E3.34438
G1 X108.196 Y131.431 E3.37445
G1 X107.233 Y130.74 E3.42767
G1 X106.611 Y130.226 E3.4639
G1 X106.199 Y129.863 E3.48855
G1 X105.321 Y128.99 E3.54415
G1 X104.731 Y128.328 E3.58396
G1 X104.335 Y127.86 E3.61149
G1 X103.657 Y126.94 E3.66281
G1 X103.244 Y126.291 E3.69735
G1 X102.888 Y125.692 E3.72863
G1 X102.343 Y124.643 E3.78171
G1 X102.019 Y123.893 E3.8184
G1 X101.77 Y123.261 E3.8489
G1 X101.411 Y122.175 E3.90026
G1 X101.221 Y121.437 E3.93447
G1 X101.073 Y120.782 E3.96463
G1 X100.877 Y119.596 E4.0186
G1 X100.804 Y118.829 E4.0532
G1 X100.761 Y118.162 E4.08321
G1 X100.753 Y116.985 E4.13606
G1 X100.802 Y116.202 E4.17128
G1 X100.866 Y115.521 E4.202
G1 X101.038 Y114.38 E4.25381
G1 X101.211 Y113.604 E4.28951
G1 X101.38 Y112.944 E4.3201
G1 X101.718 Y111.873 E4.37052
G1 X102.024 Y111.094 E4.4081
G1 X102.296 Y110.466 E4.43883
G1 X102.82 Y109.423 E4.49124
G1 X103.213 Y108.76 E4.52585
G1 X103.58 Y108.181 E4.55663
G1 X104.271 Y107.218 E4.60985
G1 X104.771 Y106.614 E4.64506
G1 X105.132 Y106.204 E4.66958
G1 X106.009 Y105.323 E4.7254
G0 F6000 X105.626 Y104.942
G1 F900 X106.338 Y104.307 E4.76824
G1 X106.827 Y103.894 E4.79698
G1 X107.775 Y103.197 E4.84981
G1 X108.444 Y102.773 E4.88537
G1 X109.062 Y102.407 E4.91763
G1 X110.145 Y101.846 E4.97239
G1 X110.905 Y101.519 E5.00954
G1 X111.567 Y101.258 E5.04149
G1 X112.64 Y100.902 E5.09225
G1 X113.436 Y100.695 E5.12918
G1 X114.137 Y100.538 E5.16144
G1 X115.338 Y100.34 E5.21609
G1 X116.077 Y100.27 E5.24942
G1 X116.787 Y100.223 E5.28137
G1 X117.998 Y100.212 E5.33575
G1 X118.842 Y100.263 E5.37372
G1 X119.532 Y100.328 E5.40483
G1 X120.701 Y100.504 E5.45792
G1 X121.508 Y100.683 E5.49503
G1 X122.188 Y100.856 E5.52654
G1 X123.321 Y101.214 E5.57989
G1 X124.104 Y101.523 E5.61769
G1 X124.751 Y101.802 E5.64932
G1 X125.835 Y102.346 E5.70378
G1 X126.514 Y102.748 E5.73921
G1 X127.114 Y103.128 E5.7711
G1 X128.096 Y103.832 E5.82535
G1 X128.731 Y104.357 E5.86235
G1 X129.141 Y104.717 E5.88685
G1 X130.077 Y105.646 E5.94606
G1 X130.679 Y106.321 E5.98667
G1 X131.087 Y106.803 E6.01503
G1 X131.779 Y107.741 E6.06737
G1 X132.227 Y108.444 E6.1048
G1 X132.593 Y109.062 E6.13705
G1 X133.154 Y110.144 E6.19177
G1 X133.468 Y110.87 E6.22729
G1 X133.703 Y111.46 E6.2558
G1 X134.063 Y112.522 E6.30615
G1 X134.164 Y112.883 E6.32299
G1 X134.304 Y113.432 E6.34843
G1 X134.462 Y114.137 E6.38087
G1 X134.652 Y115.274 E6.43263
G1 X134.729 Y116.059 E6.46804
G1 X134.777 Y116.783 E6.50062
G1 X134.788 Y118.015 E6.55594
G1 X134.738 Y118.831 E6.59265
G1 X134.672 Y119.531 E6.62422
G1 X134.503 Y120.663 E6.67561
G1 X134.317 Y121.512 E6.71464
G1 X134.141 Y122.202 E6.74661
G1 X133.783 Y123.328 E6.79967
G1 X133.477 Y124.104 E6.83712
G1 X133.198 Y124.751 E6.86876
G1 X132.654 Y125.835 E6.92321
G1 X132.252 Y126.514 E6.95865
G1 X131.89 Y127.087 E6.98908
G1 X131.156 Y128.111 E7.04565
G1 X130.634 Y128.742 E7.08242
G1 X130.252 Y129.175 E7.10835
G1 X129.378 Y130.055 E7.16404
G1 X128.679 Y130.679 E7.20611
G1 X128.18 Y131.1 E7.23542
G1 X127.225 Y131.803 E7.28867
G1 X126.556 Y132.227 E7.32423
G1 X125.938 Y132.593 E7.35648
G1 X124.855 Y133.154 E7.41125
G1 X124.095 Y133.481 E7.4484
G1 X123.433 Y133.742 E7.48035
G1 X122.36 Y134.098 E7.53111
G1 X121.557 Y134.306 E7.56836
G1 X120.855 Y134.463 E7.60066
G1 X119.649 Y134.661 E7.65553
G1 X118.893 Y134.732 E7.68963
G1 X118.208 Y134.777 E7.72045
G1 X116.967 Y134.787 E7.77617
G1 X116.158 Y134.737 E7.81257
G1 X115.468 Y134.672 E7.84369
G1 X114.299 Y134.496 E7.89677
G1 X113.482 Y134.315 E7.93434
G1 X112.797 Y134.14 E7.96609
G1 X111.677 Y133.785 E8.01884
G1 X110.893 Y133.477 E8.05666
G1 X110.273 Y133.21 E8.08697
G1 X109.127 Y132.633 E8.14459
G1 X108.473 Y132.245 E8.17873
G1 X107.881 Y131.87 E8.2102
G1 X106.918 Y131.179 E8.26342
G1 X106.254 Y130.631 E8.30207
G1 X105.818 Y130.246 E8.32819
G1 X104.94 Y129.373 E8.38378
G1 X104.319 Y128.677 E8.42567
G1 X103.9 Y128.18 E8.45485
G1 X103.201 Y127.23 E8.50781
G1 X102.78 Y126.567 E8.54308
G1 X102.409 Y125.941 E8.57575
G1 X101.847 Y124.857 E8.63058
G1 X101.517 Y124.091 E8.66803
G1 X101.257 Y123.43 E8.69992
G1 X100.888 Y122.31 E8.75287
G1 X100.694 Y121.556 E8.78783
G1 X100.54 Y120.87 E8.81939
G1 X100.339 Y119.647 E8.87505
G1 X100.265 Y118.864 E8.91036
G1 X100.221 Y118.166 E8.94176
G1 X100.214 Y116.951 E8.99632
G1 X100.264 Y116.151 E9.03231
G1 X100.328 Y115.47 E9.06302
G1 X100.511 Y114.262 E9.11788
G1 X100.688 Y113.47 E9.15432
G1 X100.865 Y112.781 E9.18626
G1 X101.215 Y111.676 E9.23831
G1 X101.528 Y110.879 E9.27675
G1 X101.8 Y110.251 E9.30748
G1 X102.355 Y109.148 E9.36293
G1 X102.757 Y108.471 E9.39828
G1 X103.141 Y107.866 E9.43045
G1 X103.832 Y106.903 E9.48367
G1 X104.366 Y106.257 E9.52131
G1 X104.749 Y105.823 E9.5473
G1 X105.626 Y104.942 E9.60311
G0 F6000 X105.243 Y104.561
G1 F900 X105.99 Y103.894 E9.64808
G1 X106.507 Y103.459 E9.67842
G1 X107.486 Y102.741 E9.73293
G1 X108.169 Y102.308 E9.76924
G1 X108.787 Y101.942 E9.80149
G1 X109.932 Y101.35 E9.85937
G1 X110.707 Y101.017 E9.89724
G1 X111.397 Y100.745 E9.93055
G1 X112.504 Y100.379 E9.9829
G1 X113.318 Y100.168 E10.02066
G1 X114.049 Y100.005 E10.05428
G1 X115.287 Y99.802 E10.11061
G1 X116.041 Y99.731 E10.14462
G1 X116.751 Y99.684 E10.17657
G1 X117.993 Y99.672 E10.23234
G1 X118.893 Y99.725 E10.27282
G1 X119.583 Y99.79 E10.30394
G1 X120.818 Y99.977 E10.36002
G1 X121.641 Y100.16 E10.39788
G1 X122.351 Y100.341 E10.43078
G1 X123.484 Y100.699 E10.48413
G1 X124.318 Y101.027 E10.52437
G1 X124.993 Y101.319 E10.55739
G1 X126.11 Y101.881 E10.61354
G1 X126.803 Y102.292 E10.64972
G1 X127.429 Y102.689 E10.683
G1 X128.411 Y103.393 E10.73725
G1 X129.087 Y103.951 E10.77661
G1 X129.497 Y104.311 E10.80111
G1 X130.48 Y105.287 E10.86331
G1 X131.091 Y105.972 E10.90452
G1 X131.522 Y106.482 E10.93451
G1 X132.214 Y107.42 E10.98684
G1 X132.692 Y108.169 E11.02674
G1 X133.058 Y108.787 E11.05899
G1 X133.65 Y109.93 E11.11679
G1 X133.97 Y110.67 E11.15299
G1 X134.205 Y111.26 E11.1815
G1 X134.583 Y112.377 E11.23445
G1 X134.687 Y112.75 E11.25184
G1 X134.831 Y113.314 E11.27798
G1 X134.995 Y114.048 E11.31175
G1 X135.185 Y115.185 E11.36351
G1 X135.268 Y116.023 E11.40132
G1 X135.316 Y116.747 E11.4339
G1 X135.327 Y118.048 E11.49232
G1 X135.276 Y118.882 E11.52983
G1 X135.21 Y119.582 E11.56141
G1 X135.037 Y120.743 E11.61411
G1 X134.84 Y121.645 E11.65557
G1 X134.656 Y122.366 E11.68898
G1 X134.298 Y123.492 E11.74203
G1 X133.973 Y124.318 E11.78189
G1 X133.681 Y124.993 E11.81491
G1 X133.119 Y126.11 E11.87105
G1 X132.709 Y126.802 E11.90717
G1 X132.329 Y127.402 E11.93906
G1 X131.595 Y128.426 E11.99563
G1 X131.039 Y129.099 E12.03483
G1 X130.635 Y129.556 E12.06222
G1 X129.738 Y130.458 E12.11933
G1 X129.027 Y131.092 E12.16211
G1 X128.5 Y131.535 E12.19302
G1 X127.545 Y132.238 E12.24627
G1 X126.831 Y132.692 E12.28426
G1 X126.213 Y133.058 E12.31651
G1 X125.068 Y133.65 E12.37438
G1 X124.293 Y133.983 E12.41226
G1 X123.603 Y134.255 E12.44556
G1 X122.53 Y134.611 E12.49632
G1 X121.675 Y134.833 E12.53599
G1 X120.942 Y134.996 E12.5697
G1 X119.699 Y135.199 E12.62625
G1 X118.928 Y135.271 E12.66102
G1 X118.243 Y135.316 E12.69185
G1 X116.934 Y135.326 E12.75063
G1 X116.107 Y135.275 E12.78783
G1 X115.417 Y135.21 E12.81895
G1 X114.182 Y135.023 E12.87503
G1 X113.348 Y134.838 E12.91339
G1 X112.634 Y134.655 E12.94649
G1 X111.48 Y134.288 E13.00086
G1 X110.679 Y133.973 E13.03951
G1 X110.059 Y133.706 E13.06982
G1 X108.851 Y133.097 E13.13056
G1 X108.184 Y132.701 E13.16539
G1 X107.566 Y132.309 E13.19825
G1 X106.603 Y131.618 E13.25147
G1 X105.897 Y131.036 E13.29255
G1 X105.437 Y130.629 E13.32013
G1 X104.537 Y129.733 E13.37716
G1 X103.906 Y129.025 E13.41974
G1 X103.465 Y128.5 E13.45052
G1 X102.745 Y127.519 E13.50516
G1 X102.315 Y126.842 E13.54117
G1 X101.944 Y126.216 E13.57385
G1 X101.351 Y125.071 E13.63175
G1 X101.014 Y124.289 E13.66998
G1 X100.754 Y123.628 E13.70187
G1 X100.365 Y122.445 E13.75779
G1 X100.167 Y121.674 E13.79353
G1 X100.007 Y120.958 E13.82647
G1 X99.801 Y119.698 E13.8838
G1 X99.726 Y118.898 E13.91988
G1 X99.681 Y118.169 E13.95267
G1 X99.675 Y116.917 E14.00889
G1 X99.726 Y116.1 E14.04565
G1 X99.79 Y115.419 E14.07636
G1 X99.984 Y114.144 E14.13427
G1 X100.165 Y113.336 E14.17145
G1 X100.35 Y112.618 E14.20474
G1 X100.712 Y111.479 E14.2584
G1 X101.032 Y110.664 E14.29772
G1 X101.304 Y110.036 E14.32845
G1 X101.891 Y108.872 E14.38698
G1 X102.301 Y108.182 E14.42302
G1 X102.702 Y107.551 E14.45659
G1 X103.393 Y106.588 E14.50981
G1 X103.961 Y105.9 E14.54987
G1 X104.366 Y105.442 E14.57732
G1 X105.243 Y104.561 E14.63314
G1 F2700 E9.63314
;MESH:button.stl
G0 F6000 X111.754 Y113.225
G0 X112.521 Y113.881
G0 X112.111 Y116.648
G0 X112.044 Y117.5
G0 X112.111 Y118.352
G0 X112.312 Y119.186
G0 X112.64 Y119.98
G0 X113.083 Y120.704
G0 X113.644 Y121.357
G0 X114.296 Y121.917
G0 X115.02 Y122.36
G0 X115.469 Y122.545
G0 X117.5 Y123.187
;TYPE:WALL-INNER
G1 F2700 E14.63314
G1 F900 X118.388 Y123.118 E14.67313
G1 X119.257 Y122.908 E14.71327
G1 X120.085 Y122.566 E14.7535
G1 X120.84 Y122.104 E14.79324
G1 X121.519 Y121.52 E14.83345
G1 X122.104 Y120.84 E14.87373
G1 X122.566 Y120.085 E14.91347
G1 X122.908 Y119.257 E14.9537
G1 X123.118 Y118.388 E14.99384
G1 X123.187 Y117.5 E15.03383
G1 X123.118 Y116.612 E15.07383
G1 X122.908 Y115.743 E15.11397
G1 X122.566 Y114.915 E15.15419
G1 X122.104 Y114.16 E15.19394
G1 X121.519 Y113.481 E15.23418
G1 X120.84 Y112.896 E15.27442
G1 X120.085 Y112.434 E15.31417
G1 X119.257 Y112.092 E15.35439
G1 X118.388 Y111.882 E15.39453
G1 X117.5 Y111.813 E15.43452
G1 X116.612 Y111.882 E15.47452
G1 X115.743 Y112.092 E15.51466
G1 X114.915 Y112.434 E15.55488
G1 X114.16 Y112.896 E15.59463
G1 X113.48 Y113.481 E15.6349
G1 X112.896 Y114.16 E15.67512
G1 X112.434 Y114.915 E15.71486
G1 X112.092 Y115.743 E15.75509
G1 X111.882 Y116.612 E15.79523
G1 X111.813 Y117.5 E15.83522
G1 X111.882 Y118.388 E15.87521
G1 X112.092 Y119.257 E15.91536
G1 X112.434 Y120.085 E15.95558
G1 X112.896 Y120.84 E15.99532
G1 X113.48 Y121.52 E16.03557
G1 X114.16 Y122.104 E16.07582
G1 X114.915 Y122.566 E16.11556
G1 X115.743 Y122.908 E16.15579
G1 X116.612 Y123.118 E16.19593
G1 X117.5 Y123.187 E16.23592
G0 F6000 X117.5 Y123.729
;TYPE:WALL-OUTER
G1 F900 X118.473 Y123.653 E16.27974
G1 X119.425 Y123.423 E16.32372
G1 X120.331 Y123.049 E16.36773
G1 X121.159 Y122.542 E16.41133
G1 X121.903 Y121.903 E16.45536
G1 X122.542 Y121.159 E16.4994
G1 X123.049 Y120.331 E16.54299
G1 X123.423 Y119.425 E16.587
G1 X123.653 Y118.473 E16.63098
G1 X123.729 Y117.5 E16.6748
G1 X123.653 Y116.527 E16.71862
G1 X123.423 Y115.575 E16.7626
G1 X123.049 Y114.669 E16.80661
G1 X122.542 Y113.841 E16.8502
G1 X121.903 Y113.097 E16.89424
G1 X121.159 Y112.458 E16.93828
G1 X120.331 Y111.951 E16.98187
G1 X119.425 Y111.577 E17.02588
G1 X118.473 Y111.347 E17.06986
G1 X117.5 Y111.271 E17.11368
G1 X116.527 Y111.347 E17.1575
G1 X115.575 Y111.577 E17.20148
G1 X114.669 Y111.951 E17.24549
G1 X113.841 Y112.458 E17.28908
G1 X113.097 Y113.097 E17.33312
G1 X112.458 Y113.841 E17.37715
G1 X111.951 Y114.669 E17.42075
G1 X111.577 Y115.575 E17.46476
G1 X111.347 Y116.527 E17.50873
G1 X111.271 Y117.5 E17.55256
G1 X111.347 Y118.473 E17.59638
G1 X111.577 Y119.425 E17.64035
G1 X111.951 Y120.331 E17.68436
G1 X112.458 Y121.159 E17.72796
G1 X113.097 Y121.903 E17.77199
G1 X113.841 Y122.542 E17.81603
G1 X114.669 Y123.049 E17.85962
G1 X115.575 Y123.423 E17.90364
G1 X116.527 Y123.653 E17.94761
G1 X117.5 Y123.729 E17.99143
G0 F6000 X117.5 Y123.374
G0 X117.475 Y123.013
G0 X117.5 Y122.69
;TYPE:SKIN
G1 F900 X116.691 Y122.628 E18.02786
G1 X115.897 Y122.434 E18.06456
G1 X115.138 Y122.121 E18.10143
G1 X114.453 Y121.704 E18.13744
G1 X113.833 Y121.168 E18.17424
G1 X113.296 Y120.547 E18.2111
G1 X112.879 Y119.862 E18.24711
G1 X112.566 Y119.103 E18.28397
G1 X112.372 Y118.309 E18.32067
G1 X112.31 Y117.5 E18.3571
G1 X112.372 Y116.691 E18.39354
G1 X112.566 Y115.894 E18.43037
G1 X112.877 Y115.14 E18.46699
G1 X113.296 Y114.453 E18.50312
G1 X113.837 Y113.829 E18.5402
G1 X114.45 Y113.298 E18.57662
G1 X115.138 Y112.879 E18.61279
G1 X115.897 Y112.566 E18.64965
G1 X116.691 Y112.372 E18.68635
G1 X117.5 Y112.31 E18.72278
G1 X118.309 Y112.372 E18.75922
G1 X119.103 Y112.566 E18.79592
G1 X119.862 Y112.879 E18.83278
G1 X120.55 Y113.298 E18.86895
G1 X121.163 Y113.829 E18.90537
G1 X121.704 Y114.453 E18.94245
G1 X122.123 Y115.14 E18.97858
G1 X122.434 Y115.894 E19.0152
G1 X122.628 Y116.691 E19.05203
G1 X122.69 Y117.5 E19.08846
G1 X122.628 Y118.309 E19.1249
G1 X122.434 Y119.103 E19.1616
G1 X122.121 Y119.862 E19.19846
G1 X121.704 Y120.547 E19.23447
G1 X121.167 Y121.168 E19.27133
G1 X120.547 Y121.704 E19.30813
G1 X119.86 Y122.123 E19.34426
G1 X119.106 Y122.434 E19.38089
G1 X118.309 Y122.628 E19.41772
G1 X117.5 Y122.69 E19.45415
G0 F6000 X117.475 Y123.013
G0 X115.814 Y122.688
