;FLAVOR:Marlin
;TIME:47095
;Filament used: 31.6792m
;Layer height: 0.16
;MINX:31.731
;MINY:55.23
;MINZ:0.2
;MAXX:203.269
;MAXY:179.769
;MAXZ:53.96
;Generated with Cura_SteamEngine 5.3.1
M140 S65
M105
M190 S65
M104 S210
M105
M109 S210
M82 ;absolute extrusion mode
; Ender 3 Custom Start G-code
G92 E0 ; Reset Extruder
G28 ; Home all axes
G1 Z2.0 F3000 ; Move Z Axis up little to prevent scratching of Heat Bed
G1 X0.1 Y20 Z0.3 F5000.0 ; Move to start position
G1 X0.1 Y200.0 Z0.3 F1500.0 E15 ; Draw the first line
G1 X0.4 Y200.0 Z0.3 F5000.0 ; Move to side a little
G1 X0.4 Y20 Z0.3 F1500.0 E30 ; Draw the second line
G92 E0 ; Reset Extruder
G1 Z2.0 F3000 ; Move Z Axis up little to prevent scratching of Heat Bed
G1 X5 Y20 Z0.3 F5000.0 ; Move over to prevent blob squish
G92 E0
G92 E0
G1 F2700 E-5
;LAYER_COUNT:337
;LAYER:0
M107
G0 F6000 X37.397 Y57.176 Z0.2
;TYPE:SKIRT
G1 F2700 E0
G1 F900 X38.178 Y56.716 E0.0407
G1 X38.934 Y56.354 E0.07833
G1 X39.399 Y56.154 E0.10106
G1 X40.247 Y55.833 E0.14178
G1 X41.119 Y55.588 E0.18245
G1 X42.012 Y55.42 E0.22325
G1 X42.561 Y55.342 E0.24814
G1 X43.676 Y55.245 E0.2984
G1 X44.255 Y55.232 E0.3244
G1 X190.298 Y55.23 E6.88191
G1 X191.213 Y55.242 E6.92299
G1 X192.118 Y55.295 E6.9637
G1 X192.602 Y55.357 E6.98561
G1 X193.025 Y55.421 E7.00482
G1 X193.915 Y55.596 E7.04555
G1 X194.785 Y55.848 E7.08622
G1 X195.293 Y56.035 E7.11052
G1 X195.777 Y56.228 E7.13392
G1 X196.603 Y56.601 E7.17461
G1 X197.393 Y57.045 E7.2153
G1 X198.116 Y57.538 E7.2546
G1 X198.53 Y57.847 E7.27779
G1 X199.231 Y58.42 E7.31844
G1 X199.88 Y59.053 E7.35915
G1 X200.471 Y59.742 E7.39991
G1 X200.797 Y60.158 E7.42364
G1 X201.324 Y60.896 E7.46436
G1 X201.783 Y61.676 E7.505
G1 X202.152 Y62.445 E7.54329
G1 X202.351 Y62.909 E7.56596
G1 X202.671 Y63.757 E7.60666
G1 X202.915 Y64.629 E7.64732
G1 X203.077 Y65.489 E7.68661
G1 X203.155 Y66.029 E7.71111
G1 X203.254 Y67.146 E7.76146
G1 X203.268 Y67.731 E7.78774
G1 X203.269 Y166.945 E12.24256
G1 X203.258 Y167.712 E12.27701
G1 X203.205 Y168.617 E12.31771
G1 X203.083 Y169.503 E12.35787
G1 X202.91 Y170.393 E12.39858
G1 X202.659 Y171.264 E12.43928
G1 X202.464 Y171.794 E12.46464
G1 X202.27 Y172.28 E12.48813
G1 X201.897 Y173.106 E12.52883
G1 X201.453 Y173.896 E12.56952
G1 X200.962 Y174.616 E12.60865
G1 X200.653 Y175.03 E12.63184
G1 X200.08 Y175.731 E12.6725
G1 X199.447 Y176.38 E12.7132
G1 X198.755 Y176.973 E12.75412
G1 X198.34 Y177.298 E12.77779
G1 X197.603 Y177.824 E12.81845
G1 X196.822 Y178.284 E12.85915
G1 X196.066 Y178.646 E12.89678
G1 X195.601 Y178.846 E12.91951
G1 X194.753 Y179.167 E12.96022
G1 X193.881 Y179.412 E13.00089
G1 X192.988 Y179.58 E13.04169
G1 X192.439 Y179.658 E13.06659
G1 X191.324 Y179.755 E13.11685
G1 X190.745 Y179.768 E13.14285
G1 X44.555 Y179.769 E19.70695
G1 X43.787 Y179.758 E19.74144
G1 X42.882 Y179.705 E19.78215
G1 X42.398 Y179.643 E19.80406
G1 X41.975 Y179.579 E19.82327
G1 X41.085 Y179.404 E19.86399
G1 X40.215 Y179.152 E19.90466
G1 X39.707 Y178.965 E19.92897
G1 X39.223 Y178.772 E19.95237
G1 X38.397 Y178.399 E19.99306
G1 X37.607 Y177.955 E20.03375
G1 X36.884 Y177.462 E20.07304
G1 X36.47 Y177.153 E20.09624
G1 X35.769 Y176.58 E20.13689
G1 X35.12 Y175.947 E20.1776
G1 X34.529 Y175.258 E20.21836
G1 X34.203 Y174.842 E20.24209
G1 X33.676 Y174.104 E20.28281
G1 X33.217 Y173.324 E20.32344
G1 X32.848 Y172.555 E20.36174
G1 X32.649 Y172.091 E20.38441
G1 X32.329 Y171.243 E20.42511
G1 X32.085 Y170.371 E20.46577
G1 X31.92 Y169.488 E20.5061
G1 X31.842 Y168.939 E20.531
G1 X31.745 Y167.816 E20.58161
G1 X31.732 Y167.239 E20.60753
G1 X31.731 Y68.055 E25.061
G1 X31.742 Y67.289 E25.0954
G1 X31.795 Y66.384 E25.13611
G1 X31.853 Y65.923 E25.15697
G1 X31.916 Y65.5 E25.17617
G1 X32.089 Y64.611 E25.21684
G1 X32.34 Y63.74 E25.25754
G1 X32.536 Y63.206 E25.28308
G1 X32.73 Y62.72 E25.30658
G1 X33.103 Y61.894 E25.34727
G1 X33.547 Y61.104 E25.38796
G1 X34.038 Y60.384 E25.42709
G1 X34.347 Y59.97 E25.45029
G1 X34.92 Y59.269 E25.49094
G1 X35.553 Y58.62 E25.53165
G1 X36.245 Y58.027 E25.57257
G1 X36.66 Y57.702 E25.59624
G1 X37.397 Y57.176 E25.63689
G1 F2700 E20.63689
;MESH:BAS REMASTERED.stl
G0 F6000 X43.834 Y64.852
G0 X44.062 Y66.58
G0 X43.759 Y66.581
G0 X43.324 Y66.834
G0 X43.08 Y67.26
G0 X43.041 Y67.554
G0 X43.042 Y167.444
G0 X43.176 Y167.967
G0 X43.523 Y168.321
G0 X43.955 Y168.431
G0 X190.955 Y168.69
;TYPE:WALL-INNER
G1 F2700 E25.63689
G1 F900 X191.301 Y168.644 E25.65256
G1 X191.584 Y168.526 E25.66633
G1 X191.84 Y168.331 E25.68078
G1 X192.022 Y168.093 E25.69423
G1 X192.144 Y167.8 E25.70848
G1 X192.19 Y167.462 E25.7238
G1 X192.19 Y67.541 E30.21037
G1 X192.144 Y67.199 E30.22587
G1 X192.026 Y66.916 E30.23963
G1 X191.831 Y66.66 E30.25408
G1 X191.593 Y66.478 E30.26754
G1 X191.301 Y66.356 E30.28175
G1 X190.958 Y66.31 E30.29729
G1 X44.045 Y66.31 E36.89385
G1 X43.699 Y66.356 E36.90952
G1 X43.416 Y66.474 E36.92329
G1 X43.159 Y66.669 E36.93778
G1 X42.978 Y66.906 E36.95117
G1 X42.855 Y67.199 E36.96544
G1 X42.81 Y67.538 E36.98079
G1 X42.811 Y167.46 E41.46741
G1 X42.856 Y167.801 E41.48285
G1 X42.974 Y168.084 E41.49662
G1 X43.169 Y168.34 E41.51107
G1 X43.407 Y168.522 E41.52452
G1 X43.699 Y168.644 E41.53873
G1 X44.042 Y168.689 E41.55426
G1 X190.955 Y168.69 E48.15083
G0 F6000 X190.99 Y169.23
;TYPE:WALL-OUTER
G1 F900 X191.443 Y169.17 E48.17135
G1 X191.856 Y168.998 E48.19144
G1 X192.225 Y168.717 E48.21226
G1 X192.494 Y168.366 E48.23212
G1 X192.67 Y167.942 E48.25273
G1 X192.73 Y167.498 E48.27285
G1 X192.73 Y67.505 E52.76265
G1 X192.67 Y67.057 E52.78295
G1 X192.498 Y66.644 E52.80304
G1 X192.217 Y66.275 E52.82386
G1 X191.866 Y66.006 E52.84372
G1 X191.443 Y65.83 E52.86429
G1 X190.993 Y65.77 E52.88467
G1 X44.01 Y65.77 E59.48439
G1 X43.557 Y65.83 E59.5049
G1 X43.144 Y66.002 E59.52499
G1 X42.775 Y66.283 E59.54582
G1 X42.506 Y66.633 E59.56564
G1 X42.329 Y67.057 E59.58627
G1 X42.27 Y67.502 E59.60642
G1 X42.271 Y167.495 E64.09623
G1 X42.33 Y167.943 E64.11652
G1 X42.502 Y168.356 E64.13661
G1 X42.783 Y168.725 E64.15743
G1 X43.134 Y168.994 E64.17729
G1 X43.557 Y169.17 E64.19786
G1 X44.007 Y169.229 E64.21824
G1 X190.99 Y169.23 E70.81795
G0 F6000 X190.965 Y168.876
G0 X191.21 Y168.485
G0 X191.168 Y168.164
;TYPE:SKIN
G1 F900 X190.928 Y168.195 E70.82881
G1 X44.068 Y168.194 E77.423
G1 X43.833 Y168.163 E77.43364
G1 X43.526 Y167.99 E77.44947
G1 X43.336 Y167.667 E77.46629
G1 X43.307 Y167.437 E77.4767
G1 X43.305 Y67.56 E81.9613
G1 X43.335 Y67.335 E81.97149
G1 X43.51 Y67.026 E81.98744
G1 X43.833 Y66.837 E82.00424
G1 X44.072 Y66.805 E82.01507
G1 X190.929 Y66.805 E88.60912
G1 X191.167 Y66.837 E88.6199
G1 X191.474 Y67.01 E88.63572
G1 X191.664 Y67.333 E88.65255
G1 X191.695 Y67.563 E88.66297
G1 X191.695 Y167.439 E93.14752
G1 X191.663 Y167.665 E93.15777
G1 X191.49 Y167.974 E93.17367
G1 X191.168 Y168.164 E93.19046
G1 F2700 E88.19046
G0 F6000 X191.21 Y168.485
G0 X191.676 Y168.166
G0 X191.919 Y167.739
G0 X191.959 Y167.446
G0 X191.959 Y67.557
G0 X191.824 Y67.033
G0 X191.477 Y66.679
G0 X190.79 Y66.48
G0 X190.79 Y67.074
G1 F2700 E93.19046
G1 F900 X191.424 Y67.709 E93.23075
G0 F6000 X191.424 Y68.472
G1 F900 X190.026 Y67.074 E93.31952
G0 F6000 X189.262 Y67.074
G1 F900 X191.424 Y69.236 E93.45681
G0 F6000 X191.424 Y70
G1 F900 X188.499 Y67.074 E93.64258
G0 F6000 X187.735 Y67.074
G1 F900 X191.424 Y70.763 E93.87683
G0 F6000 X191.424 Y71.527
G1 F900 X186.971 Y67.074 E94.15959
G0 F6000 X186.208 Y67.074
G1 F900 X191.424 Y72.291 E94.49084
G0 F6000 X191.424 Y73.054
G1 F900 X185.444 Y67.074 E94.87057
G0 F6000 X184.68 Y67.074
G1 F900 X191.424 Y73.818 E95.29881
G0 F6000 X191.424 Y74.582
G1 F900 X183.917 Y67.074 E95.77554
G0 F6000 X183.153 Y67.074
G1 F900 X191.424 Y75.345 E96.30075
G0 F6000 X191.424 Y76.109
G1 F900 X182.389 Y67.074 E96.87447
G0 F6000 X181.626 Y67.074
G1 F900 X191.424 Y76.873 E97.49667
G0 F6000 X191.424 Y77.636
G1 F900 X180.862 Y67.074 E98.16736
G0 F6000 X180.098 Y67.074
G1 F900 X191.424 Y78.4 E98.88656
G0 F6000 X191.424 Y79.164
G1 F900 X179.335 Y67.074 E99.65424
G0 F6000 X178.571 Y67.074
G1 F900 X191.424 Y79.927 E100.4704
G0 F6000 X191.424 Y80.691
G1 F900 X177.807 Y67.074 E101.33508
G0 F6000 X177.043 Y67.074
G1 F900 X191.424 Y81.455 E102.24827
G0 F6000 X191.424 Y82.218
G1 F900 X176.28 Y67.074 E103.20991
G0 F6000 X175.516 Y67.074
G1 F900 X191.424 Y82.982 E104.22007
G0 F6000 X191.424 Y83.746
G1 F900 X174.752 Y67.074 E105.27874
G0 F6000 X173.989 Y67.074
G1 F900 X191.424 Y84.509 E106.38586
G0 F6000 X191.424 Y85.273
G1 F900 X173.225 Y67.074 E107.54149
G0 F6000 X172.461 Y67.074
G1 F900 X191.424 Y86.037 E108.74564
G0 F6000 X191.424 Y86.8
G1 F900 X171.698 Y67.074 E109.99824
G0 F6000 X170.934 Y67.074
G1 F900 X191.424 Y87.564 E111.29935
G0 F6000 X191.424 Y88.328
G1 F900 X170.17 Y67.074 E112.64898
G0 F6000 X169.407 Y67.074
G1 F900 X191.424 Y89.091 E114.04705
G0 F6000 X191.424 Y89.855
G1 F900 X168.643 Y67.074 E115.49364
G0 F6000 X167.879 Y67.074
G1 F900 X191.424 Y90.619 E116.98875
G0 F6000 X191.424 Y91.382
G1 F900 X167.116 Y67.074 E118.5323
G0 F6000 X166.352 Y67.074
G1 F900 X191.424 Y92.146 E120.12437
G0 F6000 X191.424 Y92.91
G1 F900 X165.588 Y67.074 E121.76495
G0 F6000 X164.825 Y67.074
G1 F900 X191.424 Y93.673 E123.45398
G0 F6000 X191.424 Y94.437
G1 F900 X164.061 Y67.074 E125.19153
G0 F6000 X163.297 Y67.074
G1 F900 X191.424 Y95.201 E126.97759
G0 F6000 X191.424 Y95.964
G1 F900 X162.534 Y67.074 E128.8121
G0 F6000 X161.77 Y67.074
G1 F900 X191.424 Y96.728 E130.69513
G0 F6000 X191.424 Y97.492
G1 F900 X161.006 Y67.074 E132.62667
G0 F6000 X160.243 Y67.074
G1 F900 X191.424 Y98.256 E134.60669
G0 F6000 X191.424 Y99.019
G1 F900 X159.479 Y67.074 E136.63519
G0 F6000 X158.715 Y67.074
G1 F900 X191.424 Y99.783 E138.71221
G0 F6000 X191.424 Y100.547
G1 F900 X157.952 Y67.074 E140.83771
G0 F6000 X157.188 Y67.074
G1 F900 X191.424 Y101.31 E143.01169
G0 F6000 X191.424 Y102.074
G1 F900 X156.424 Y67.074 E145.23418
G0 F6000 X155.661 Y67.074
G1 F900 X191.424 Y102.838 E147.50516
G0 F6000 X191.424 Y103.601
G1 F900 X154.897 Y67.074 E149.82462
G0 F6000 X154.133 Y67.074
G1 F900 X191.424 Y104.365 E152.19259
G0 F6000 X191.424 Y105.129
G1 F900 X153.37 Y67.074 E154.60905
G0 F6000 X152.606 Y67.074
G1 F900 X191.424 Y105.892 E157.07399
G0 F6000 X191.424 Y106.656
G1 F900 X151.842 Y67.074 E159.58744
G0 F6000 X151.079 Y67.074
G1 F900 X191.424 Y107.42 E162.14937
G0 F6000 X191.424 Y108.183
G1 F900 X150.315 Y67.074 E164.75979
G0 F6000 X149.551 Y67.074
G1 F900 X191.424 Y108.947 E167.41872
G0 F6000 X191.424 Y109.711
G1 F900 X148.787 Y67.074 E170.12616
G0 F6000 X148.024 Y67.074
G1 F900 X191.424 Y110.474 E172.88205
G0 F6000 X191.424 Y111.238
G1 F900 X147.26 Y67.074 E175.68646
G0 F6000 X146.496 Y67.074
G1 F900 X191.424 Y112.002 E178.53938
G0 F6000 X191.424 Y112.765
G1 F900 X145.733 Y67.074 E181.44076
G0 F6000 X144.969 Y67.074
G1 F900 X191.424 Y113.529 E184.39064
G0 F6000 X191.424 Y114.293
G1 F900 X144.205 Y67.074 E187.38904
G0 F6000 X143.442 Y67.074
G1 F900 X191.424 Y115.056 E190.43589
G0 F6000 X191.424 Y115.82
G1 F900 X142.678 Y67.074 E193.53126
G0 F6000 X141.914 Y67.074
G1 F900 X191.424 Y116.584 E196.67513
G0 F6000 X191.424 Y117.347
G1 F900 X141.151 Y67.074 E199.86746
G0 F6000 X140.387 Y67.074
G1 F900 X191.424 Y118.111 E203.10831
G0 F6000 X191.424 Y118.875
G1 F900 X139.623 Y67.074 E206.39766
G0 F6000 X138.86 Y67.074
G1 F900 X191.424 Y119.638 E209.73547
G0 F6000 X191.424 Y120.402
G1 F900 X138.096 Y67.074 E213.12179
G0 F6000 X137.332 Y67.074
G1 F900 X191.424 Y121.166 E216.55662
G0 F6000 X191.424 Y121.929
G1 F900 X136.569 Y67.074 E220.03991
G0 F6000 X135.805 Y67.074
G1 F900 X191.424 Y122.693 E223.57171
G0 F6000 X191.424 Y123.457
G1 F900 X135.041 Y67.074 E227.15202
G0 F6000 X134.278 Y67.074
G1 F900 X191.424 Y124.22 E230.78078
G0 F6000 X191.424 Y124.984
G1 F900 X133.514 Y67.074 E234.45806
G0 F6000 X132.75 Y67.074
G1 F900 X191.424 Y125.748 E238.18385
G0 F6000 X191.424 Y126.512
G1 F900 X131.987 Y67.074 E241.95812
G0 F6000 X131.223 Y67.074
G1 F900 X191.424 Y127.275 E245.78088
G0 F6000 X191.424 Y128.039
G1 F900 X130.459 Y67.074 E249.65215
G0 F6000 X129.696 Y67.074
G1 F900 X191.424 Y128.803 E253.5719
G0 F6000 X191.424 Y129.566
G1 F900 X128.932 Y67.074 E257.54013
G0 F6000 X128.168 Y67.074
G1 F900 X191.424 Y130.33 E261.55688
G0 F6000 X191.424 Y131.094
G1 F900 X127.405 Y67.074 E265.62211
G0 F6000 X126.641 Y67.074
G1 F900 X191.424 Y131.857 E269.73582
G0 F6000 X191.424 Y132.621
G1 F900 X125.877 Y67.074 E273.89805
G0 F6000 X125.114 Y67.074
G1 F900 X191.424 Y133.385 E278.10875
G0 F6000 X191.424 Y134.148
G1 F900 X124.35 Y67.074 E282.36794
G0 F6000 X123.586 Y67.074
G1 F900 X191.424 Y134.912 E286.67565
G0 F6000 X191.424 Y135.676
G1 F900 X122.823 Y67.074 E291.03183
G0 F6000 X122.059 Y67.074
G1 F900 X191.424 Y136.439 E295.4365
G0 F6000 X191.424 Y137.203
G1 F900 X121.295 Y67.074 E299.88968
G0 F6000 X120.532 Y67.074
G1 F900 X191.424 Y137.967 E304.39135
G0 F6000 X191.424 Y138.73
G1 F900 X119.768 Y67.074 E308.94149
G0 F6000 X119.004 Y67.074
G1 F900 X191.424 Y139.494 E313.54015
G0 F6000 X191.424 Y140.258
G1 F900 X118.24 Y67.074 E318.18733
G0 F6000 X117.477 Y67.074
G1 F900 X191.424 Y141.021 E322.88295
G0 F6000 X191.424 Y141.785
G1 F900 X116.713 Y67.074 E327.62709
G0 F6000 X115.949 Y67.074
G1 F900 X191.424 Y142.549 E332.41974
G0 F6000 X191.424 Y143.312
G1 F900 X115.186 Y67.074 E337.26084
G0 F6000 X114.422 Y67.074
G1 F900 X191.424 Y144.076 E342.15046
G0 F6000 X191.424 Y144.84
G1 F900 X113.658 Y67.074 E347.08859
G0 F6000 X112.895 Y67.074
G1 F900 X191.424 Y145.603 E352.07517
G0 F6000 X191.424 Y146.367
G1 F900 X112.131 Y67.074 E357.11026
G0 F6000 X111.367 Y67.074
G1 F900 X191.424 Y147.131 E362.19387
G0 F6000 X191.424 Y147.894
G1 F900 X110.604 Y67.074 E367.32593
G0 F6000 X109.84 Y67.074
G1 F900 X191.424 Y148.658 E372.5065
G0 F6000 X191.424 Y149.422
G1 F900 X109.076 Y67.074 E377.73559
G0 F6000 X108.313 Y67.074
G1 F900 X191.424 Y150.185 E383.01313
G0 F6000 X191.424 Y150.949
G1 F900 X107.549 Y67.074 E388.33918
G0 F6000 X106.785 Y67.074
G1 F900 X191.424 Y151.713 E393.71374
G0 F6000 X191.424 Y152.476
G1 F900 X106.022 Y67.074 E399.13676
G0 F6000 X105.258 Y67.074
G1 F900 X191.424 Y153.24 E404.60829
G0 F6000 X191.424 Y154.004
G1 F900 X104.494 Y67.074 E410.12833
G0 F6000 X103.731 Y67.074
G1 F900 X191.424 Y154.767 E415.69682
G0 F6000 X191.424 Y155.531
G1 F900 X102.967 Y67.074 E421.31383
G0 F6000 X102.203 Y67.074
G1 F900 X191.424 Y156.295 E426.97935
G0 F6000 X191.424 Y157.059
G1 F900 X101.44 Y67.074 E432.69335
G0 F6000 X100.676 Y67.074
G1 F900 X191.424 Y157.822 E438.45584
G0 F6000 X191.424 Y158.586
G1 F900 X99.912 Y67.074 E444.26684
G0 F6000 X99.149 Y67.074
G1 F900 X191.424 Y159.35 E450.12632
G0 F6000 X191.424 Y160.113
G1 F900 X98.385 Y67.074 E456.03428
G0 F6000 X97.621 Y67.074
G1 F900 X191.424 Y160.877 E461.99076
G0 F6000 X191.424 Y161.641
G1 F900 X96.858 Y67.074 E467.99572
G0 F6000 X96.094 Y67.074
G1 F900 X191.424 Y162.404 E474.04916
G0 F6000 X191.424 Y163.168
G1 F900 X95.33 Y67.074 E480.15112
G0 F6000 X94.567 Y67.074
G1 F900 X191.424 Y163.932 E486.30156
G0 F6000 X191.424 Y164.695
G1 F900 X93.803 Y67.074 E492.50048
G0 F6000 X93.039 Y67.074
G1 F900 X191.424 Y165.459 E498.74791
G0 F6000 X191.424 Y166.223
G1 F900 X92.276 Y67.074 E505.04383
G0 F6000 X91.512 Y67.074
G1 F900 X191.424 Y166.986 E511.38822
G0 F6000 X191.358 Y167.684
G1 F900 X90.748 Y67.074 E517.77695
G0 F6000 X89.984 Y67.074
G1 F900 X190.834 Y167.924 E524.18091
G0 F6000 X190.071 Y167.924
G1 F900 X89.221 Y67.074 E530.58487
G0 F6000 X88.457 Y67.074
G1 F900 X189.307 Y167.924 E536.98883
G0 F6000 X188.543 Y167.924
G1 F900 X87.693 Y67.074 E543.39279
G0 F6000 X86.93 Y67.074
G1 F900 X187.779 Y167.924 E549.79672
G0 F6000 X187.016 Y167.924
G1 F900 X86.166 Y67.074 E556.20068
G0 F6000 X85.402 Y67.074
G1 F900 X186.252 Y167.924 E562.60464
G0 F6000 X185.488 Y167.924
G1 F900 X84.639 Y67.074 E569.00857
G0 F6000 X83.875 Y67.074
G1 F900 X184.725 Y167.924 E575.41253
G0 F6000 X183.961 Y167.924
G1 F900 X83.111 Y67.074 E581.81649
G0 F6000 X82.348 Y67.074
G1 F900 X183.197 Y167.924 E588.22042
G0 F6000 X182.434 Y167.924
G1 F900 X81.584 Y67.074 E594.62438
G0 F6000 X80.82 Y67.074
G1 F900 X181.67 Y167.924 E601.02834
G0 F6000 X180.906 Y167.924
G1 F900 X80.057 Y67.074 E607.43227
G0 F6000 X79.293 Y67.074
