;FLAVOR:Marlin
;TIME:20463
;Filament used: 13.9099m
;Layer height: 0.16
;MINX:31.831
;MINY:55.33
;MINZ:0.2
;MAXX:203.169
;MAXY:179.669
;MAXZ:6.92
;Generated with Cura_SteamEngine 5.3.1
M140 S65
M105
M190 S65
M104 S210
M105
M109 S210
M82 ;absolute extrusion mode
; Ender 3 Custom Start G-code
G92 E0 ; Reset Extruder
G28 ; Home all axes
G1 Z2.0 F3000 ; Move Z Axis up little to prevent scratching of Heat Bed
G1 X0.1 Y20 Z0.3 F5000.0 ; Move to start position
G1 X0.1 Y200.0 Z0.3 F1500.0 E15 ; Draw the first line
G1 X0.4 Y200.0 Z0.3 F5000.0 ; Move to side a little
G1 X0.4 Y20 Z0.3 F1500.0 E30 ; Draw the second line
G92 E0 ; Reset Extruder
G1 Z2.0 F3000 ; Move Z Axis up little to prevent scratching of Heat Bed
G1 X5 Y20 Z0.3 F5000.0 ; Move over to prevent blob squish
G92 E0
G92 E0
G1 F2700 E-5
;LAYER_COUNT:44
;LAYER:0
M107
G0 F6000 X37.58 Y57.637 Z0.2
;TYPE:SKIRT
G1 F2700 E0
G1 F900 X38.341 Y57.145 E0.04069
G1 X39.475 Y56.574 E0.0977
G1 X40.177 Y56.273 E0.13199
G1 X41.025 Y55.953 E0.17269
G1 X41.897 Y55.709 E0.21335
G1 X42.68 Y55.559 E0.24915
G1 X43.331 Y55.46 E0.27871
G1 X44.532 Y55.349 E0.33287
G1 X45.174 Y55.333 E0.3617
G1 X189.354 Y55.33 E6.83556
G1 X190.199 Y55.341 E6.8735
G1 X191.023 Y55.386 E6.91055
G1 X191.776 Y55.473 E6.94459
G1 X192.269 Y55.547 E6.96697
G1 X193.159 Y55.721 E7.00769
G1 X194.029 Y55.972 E7.04835
G1 X194.46 Y56.129 E7.06895
G1 X195.153 Y56.403 E7.10241
G1 X195.477 Y56.541 E7.11822
G1 X196.295 Y56.933 E7.15895
G1 X197.418 Y57.63 E7.2183
G1 X198.029 Y58.066 E7.252
G1 X198.743 Y58.625 E7.29271
G1 X199.405 Y59.244 E7.33341
G1 X200.009 Y59.919 E7.37408
G1 X200.421 Y60.457 E7.40451
G1 X200.851 Y61.059 E7.43772
G1 X201.345 Y61.819 E7.47842
G1 X201.769 Y62.619 E7.51908
G1 X201.957 Y63.037 E7.53966
G1 X202.251 Y63.734 E7.57362
G1 X202.566 Y64.583 E7.61429
G1 X202.805 Y65.457 E7.65497
G1 X202.955 Y66.277 E7.6924
G1 X203.056 Y66.986 E7.72456
G1 X203.153 Y68.092 E7.77441
G1 X203.167 Y68.674 E7.80055
G1 X203.169 Y165.969 E12.16921
G1 X203.158 Y166.773 E12.20531
G1 X203.106 Y167.678 E12.24601
G1 X203.048 Y168.138 E12.26683
G1 X202.96 Y168.732 E12.29379
G1 X202.788 Y169.622 E12.3345
G1 X202.538 Y170.493 E12.37518
G1 X202.362 Y170.976 E12.39827
G1 X202.173 Y171.458 E12.42151
G1 X201.928 Y172.039 E12.44983
G1 X201.53 Y172.854 E12.49055
G1 X200.978 Y173.756 E12.53803
G1 X200.56 Y174.353 E12.57076
G1 X200.317 Y174.681 E12.58909
G1 X199.746 Y175.384 E12.62975
G1 X199.115 Y176.035 E12.67046
G1 X198.429 Y176.627 E12.71115
G1 X198.042 Y176.918 E12.73289
G1 X197.458 Y177.336 E12.76513
G1 X196.699 Y177.831 E12.80582
G1 X195.613 Y178.387 E12.8606
G1 X194.935 Y178.685 E12.89386
G1 X194.091 Y179.013 E12.93452
G1 X193.22 Y179.265 E12.97523
G1 X192.261 Y179.449 E13.01907
G1 X191.522 Y179.555 E13.0526
G1 X190.409 Y179.653 E13.10276
G1 X189.826 Y179.667 E13.12895
G1 X45.5 Y179.669 E19.60936
G1 X44.723 Y179.658 E19.64425
G1 X43.818 Y179.605 E19.68495
G1 X43.365 Y179.548 E19.70545
G1 X42.75 Y179.457 E19.73337
G1 X41.86 Y179.285 E19.77407
G1 X40.989 Y179.035 E19.81476
G1 X40.512 Y178.862 E19.83754
G1 X39.838 Y178.593 E19.87013
G1 X39.491 Y178.444 E19.88708
G1 X38.675 Y178.05 E19.92777
G1 X37.752 Y177.488 E19.97629
G1 X37.213 Y177.112 E20.0058
G1 X36.83 Y176.829 E20.02718
G1 X36.125 Y176.259 E20.06789
G1 X35.474 Y175.629 E20.10857
G1 X34.881 Y174.944 E20.14925
G1 X34.587 Y174.554 E20.17118
G1 X34.161 Y173.96 E20.204
G1 X33.666 Y173.201 E20.24469
G1 X33.24 Y172.402 E20.28534
G1 X33.043 Y171.963 E20.30695
G1 X32.748 Y171.263 E20.34106
G1 X32.433 Y170.414 E20.38172
G1 X32.195 Y169.539 E20.42243
G1 X32.059 Y168.82 E20.45529
G1 X31.982 Y168.314 E20.47827
G1 X31.904 Y167.687 E20.50664
G1 X31.847 Y166.915 E20.5414
G1 X31.833 Y166.326 E20.56785
G1 X31.831 Y68.956 E24.93988
G1 X31.841 Y68.293 E24.96965
G1 X31.885 Y67.491 E25.00572
G1 X31.97 Y66.738 E25.03974
G1 X32.04 Y66.266 E25.06117
G1 X32.212 Y65.377 E25.10183
G1 X32.463 Y64.506 E25.14253
G1 X32.641 Y64.015 E25.16598
G1 X32.836 Y63.519 E25.18991
G1 X33.073 Y62.958 E25.21725
G1 X33.471 Y62.143 E25.25798
G1 X34.032 Y61.23 E25.30609
G1 X34.242 Y60.925 E25.32272
G1 X34.663 Y60.345 E25.3549
G1 X35.231 Y59.639 E25.39559
G1 X35.86 Y58.986 E25.4363
G1 X36.543 Y58.391 E25.47697
G1 X36.995 Y58.052 E25.50234
G1 X37.58 Y57.637 E25.53454
G1 F2700 E20.53454
G0 F6000 X43.682 Y66.219
G1 F2700 E25.53454
G1 F900 X44.316 Y65.955 E25.56538
G1 X44.955 Y65.871 E25.59432
G1 X190.041 Y65.87 E32.10885
G1 X190.681 Y65.956 E32.13785
G1 X191.32 Y66.217 E32.16884
G1 X191.66 Y66.48 E32.18814
G1 X43.344 Y66.48 E38.84771
G1 X43.682 Y66.219 E38.86688
G0 F6000 X42.98 Y66.844
G1 F900 X42.98 Y168.159 E43.41604
G1 X42.719 Y167.819 E43.43529
G1 X42.455 Y167.184 E43.46617
G1 X42.371 Y166.545 E43.49511
G1 X42.37 Y68.459 E47.89928
G1 X42.456 Y67.816 E47.92841
G1 X42.719 Y67.182 E47.95923
G1 X42.98 Y66.844 E47.97841
G1 F2700 E42.97841
G0 F6000 X43.34 Y168.52
G1 F2700 E47.97841
G1 F900 X191.656 Y168.52 E54.63797
G1 X191.319 Y168.78 E54.65708
G1 X190.684 Y169.045 E54.68798
G1 X190.045 Y169.129 E54.71692
G1 X44.958 Y169.13 E61.23149
G1 X44.319 Y169.044 E61.26044
G1 X43.68 Y168.783 E61.29144
G1 X43.34 Y168.52 E61.31074
G1 F2700 E56.31074
G0 F6000 X192.02 Y168.156
G1 F2700 E61.31074
G1 F900 X192.02 Y66.841 E65.8599
G1 X192.281 Y67.181 E65.87915
G1 X192.545 Y67.816 E65.91002
G1 X192.629 Y68.455 E65.93896
G1 X192.63 Y166.541 E70.34314
G1 X192.544 Y167.184 E70.37227
G1 X192.281 Y167.818 E70.40309
G1 X192.02 Y168.156 E70.42226
G1 F2700 E65.42226
;MESH:HAUT AS.stl
G0 F6000 X178.123 Y160.348
G0 X175.853 Y160.03
G0 X173.236 Y159.313
;TYPE:WALL-INNER
G1 F2700 E70.42226
G1 F900 X172.279 Y158.493 E70.47885
G1 X171.52 Y157.493 E70.53522
G1 X170.992 Y156.364 E70.59118
G1 X170.719 Y155.131 E70.64789
G1 X170.723 Y153.869 E70.70455
G1 X170.995 Y152.642 E70.76098
G1 X171.506 Y151.525 E70.81614
G1 X172.277 Y150.502 E70.87366
G1 X173.256 Y149.676 E70.93117
G1 X174.344 Y149.103 E70.98638
G1 X175.556 Y148.767 E71.04286
G1 X176.814 Y148.694 E71.09944
G1 X178.058 Y148.896 E71.15603
G1 X179.23 Y149.369 E71.21277
G1 X180.261 Y150.07 E71.26876
G1 X181.124 Y150.98 E71.32507
G1 X181.776 Y152.055 E71.38152
G1 X182.181 Y153.253 E71.4383
G1 X182.31 Y154.5 E71.49459
G1 X182.179 Y155.754 E71.55121
G1 X181.777 Y156.944 E71.6076
G1 X181.131 Y158.018 E71.66388
G1 X180.263 Y158.934 E71.72054
G1 X179.229 Y159.637 E71.77668
G1 X178.057 Y160.104 E71.83333
G1 X176.822 Y160.305 E71.88951
G1 X175.556 Y160.237 E71.94644
G1 X174.345 Y159.902 E72.00286
G1 X173.236 Y159.313 E72.05924
G1 F2700 E67.05924
G0 F6000 X171.729 Y157.37
G0 X171.225 Y156.278
G0 X170.965 Y155.102
G0 X170.965 Y153.898
G0 X171.225 Y152.722
G0 X171.73 Y151.63
G0 X172.319 Y150.855
G0 X174.277 Y148.857
G0 X174.277 Y140.143
G0 X173.256 Y139.324
G1 F2700 E72.05924
G1 F900 X172.277 Y138.498 E72.11676
G1 X171.506 Y137.475 E72.17427
G1 X170.995 Y136.358 E72.22943
G1 X170.723 Y135.131 E72.28586
G1 X170.723 Y133.869 E72.34252
G1 X170.99 Y132.642 E72.39891
G1 X171.507 Y131.523 E72.45426
G1 X172.279 Y130.503 E72.51169
G1 X173.241 Y129.684 E72.56842
G1 X174.347 Y129.097 E72.62464
G1 X175.55 Y128.764 E72.68069
G1 X176.806 Y128.695 E72.73717
G1 X178.045 Y128.893 E72.79351
G1 X179.23 Y129.363 E72.85075
G1 X180.261 Y130.07 E72.90688
G1 X181.124 Y130.98 E72.9632
G1 X181.776 Y132.055 E73.01965
G1 X182.181 Y133.253 E73.07643
G1 X182.31 Y134.5 E73.13272
G1 X182.179 Y135.754 E73.18933
G1 X181.776 Y136.945 E73.24579
G1 X181.124 Y138.02 E73.30224
G1 X180.261 Y138.93 E73.35856
G1 X179.23 Y139.631 E73.41454
G1 X178.057 Y140.105 E73.47134
G1 X176.815 Y140.301 E73.5278
G1 X175.556 Y140.233 E73.58441
G1 X174.344 Y139.897 E73.64089
G1 X173.256 Y139.324 E73.6961
G1 F2700 E68.6961
G0 F6000 X171.73 Y137.37
G0 X171.225 Y136.278
G0 X170.965 Y135.102
G0 X170.965 Y133.898
G0 X171.225 Y132.722
G0 X171.633 Y131.839
G0 X173.092 Y129.482
G0 X169.498 Y104.368
G0 X167.151 Y103.878
G0 X167.003 Y101.362
G1 F2700 E73.6961
G1 F686.4 X167.144 Y101.272 E73.70595
G1 F744.3 X167.661 Y101.232 E73.7341
G1 F807.3 X169.098 Y101.082 E73.80642
G1 F808.7 X169.386 Y101.022 E73.82113
G1 F806 X170.679 Y100.712 E73.88779
G1 F807.3 X171.079 Y100.574 E73.90897
G1 F806 X172.205 Y100.143 E73.96943
G1 F808.7 X172.696 Y99.898 E73.99685
G1 F807.3 X173.657 Y99.379 E74.05152
G1 X174.204 Y99.009 E74.08458
G1 X174.976 Y98.45 E74.13229
G1 X175.575 Y97.922 E74.17226
G1 X176.181 Y97.351 E74.21393
G1 X176.788 Y96.657 E74.26009
G1 X177.24 Y96.103 E74.29588
G1 F806 X177.815 Y95.239 E74.34791
G1 F807.3 X178.123 Y94.742 E74.37718
G1 F806 X178.643 Y93.684 E74.43629
G1 F807.3 X178.83 Y93.272 E74.45894
G1 X179.242 Y92.056 E74.52321
G1 F810 X179.339 Y91.733 E74.54003
G1 F800.7 X179.653 Y90.166 E74.62069
G1 F803.3 X179.761 Y88.5 E74.70468
G1 X179.657 Y86.885 E74.78609
G1 F799.3 X179.34 Y85.263 E74.86964
G1 F808.7 X179.243 Y84.943 E74.88635
G1 F807.3 X178.83 Y83.728 E74.95059
G1 F806 X178.624 Y83.278 E74.9754
G1 F804.6 X178.123 Y82.257 E75.03252
G1 F807.3 X177.815 Y81.76 E75.06179
G1 X177.24 Y80.897 E75.1137
G1 X176.788 Y80.343 E75.14949
G1 X176.181 Y79.649 E75.19564
G1 X175.574 Y79.076 E75.23743
G1 F808.7 X174.976 Y78.549 E75.27726
G1 F807.3 X174.203 Y77.99 E75.32501
G1 X173.657 Y77.621 E75.358
G1 X172.696 Y77.102 E75.41267
G1 F808.7 X172.205 Y76.857 E75.44009
G1 F807.3 X171.078 Y76.426 E75.50049
G1 F808.7 X170.679 Y76.288 E75.52159
G1 F807.3 X169.386 Y75.978 E75.58814
G1 F811.4 X169.097 Y75.919 E75.60284
G1 F808.7 X167.646 Y75.767 E75.67574
G1 F745.4 X167.144 Y75.728 E75.70304
G1 F686.4 X167.003 Y75.638 E75.71289
G1 X166.862 Y75.728 E75.72274
G1 F744.3 X166.345 Y75.768 E75.75089
G1 F806 X164.908 Y75.918 E75.82333
G1 F807.3 X164.62 Y75.978 E75.83806
G1 F806 X163.328 Y76.288 E75.90468
G1 F807.3 X162.927 Y76.426 E75.92591
G1 F806 X161.801 Y76.857 E75.98636
G1 F807.3 X161.31 Y77.102 E76.01383
G1 F806 X160.349 Y77.622 E76.06861
G1 F804.6 X159.802 Y77.989 E76.10169
G1 X159.031 Y78.549 E76.14955
G1 F806 X158.431 Y79.076 E76.18959
G1 X157.826 Y79.649 E76.23137
G1 F807.3 X157.219 Y80.344 E76.27756
G1 F806 X156.766 Y80.897 E76.31341
G1 F804.6 X156.191 Y81.762 E76.36557
G1 F807.3 X155.885 Y82.257 E76.3947
G1 F806 X155.363 Y83.315 E76.45385
G1 X155.176 Y83.728 E76.47659
G1 F804.6 X154.763 Y84.943 E76.54104
G1 F807.3 X154.667 Y85.263 E76.55776
G1 F802 X154.35 Y86.884 E76.64099
G1 F804.6 X154.245 Y88.5 E76.72232
G1 X154.35 Y90.116 E76.80365
G1 F800.7 X154.667 Y91.733 E76.88682
G1 F808.7 X154.764 Y92.056 E76.90367
G1 F806 X155.176 Y93.272 E76.96804
G1 X155.361 Y93.685 E76.99073
G1 F804.6 X155.884 Y94.742 E77.04996
G1 F806 X156.19 Y95.239 E77.07923
G1 F803.3 X156.765 Y96.103 E77.13144
G1 F804.6 X157.218 Y96.658 E77.16742
G1 F806 X157.826 Y97.351 E77.21364
G1 X158.431 Y97.923 E77.25539
G1 X159.031 Y98.45 E77.29543
G1 F804.6 X159.803 Y99.01 E77.34332
G1 F806 X160.349 Y99.378 E77.37634
G1 X161.31 Y99.898 E77.43112
G1 F807.3 X161.801 Y100.143 E77.45859
G1 F804.6 X162.928 Y100.575 E77.51921
G1 F807.3 X163.328 Y100.712 E77.54037
G1 F806 X164.62 Y101.023 E77.607
G1 F807.3 X164.908 Y101.082 E77.62172
G1 X166.36 Y101.234 E77.6948
G1 F744.3 X166.862 Y101.272 E77.72213
G1 F686.4 X167.003 Y101.362 E77.73198
G0 F6000 X167.009 Y104.168
G0 X167.003 Y104.068
G1 F900 X166.936 Y104.178 E77.73777
G1 X166.748 Y104.265 E77.74707
G1 X166.472 Y104.302 E77.75957
G1 X164.543 Y104.118 E77.84658
G1 X162.645 Y103.698 E77.93386
G1 X160.813 Y103.05 E78.02111
G1 X159.074 Y102.18 E78.10842
G1 X157.467 Y101.111 E78.19509
G1 X155.972 Y99.826 E78.2836
G1 X154.685 Y98.411 E78.36949
G1 X153.545 Y96.796 E78.45825
G1 X152.634 Y95.095 E78.54489
G1 X151.932 Y93.277 E78.6324
G1 X151.466 Y91.431 E78.71788
G1 X151.224 Y89.496 E78.80544
G1 X151.222 Y87.524 E78.89399
G1 X151.461 Y85.596 E78.98122
G1 X151.934 Y83.716 E79.06827
G1 X152.634 Y81.905 E79.15545
G1 X153.555 Y80.185 E79.24305
G1 X154.673 Y78.602 E79.33007
G1 X155.983 Y77.161 E79.41751
G1 X157.455 Y75.897 E79.50463
G1 X159.077 Y74.818 E79.5921
G1 X160.812 Y73.949 E79.67923
G1 X162.649 Y73.299 E79.76673
G1 X164.53 Y72.884 E79.85322
G1 X166.504 Y72.698 E79.94224
G1 X166.767 Y72.741 E79.95421
G1 X166.963 Y72.839 E79.96405
G1 X167.003 Y72.916 E79.96795
G1 X167.043 Y72.839 E79.97184
G1 X167.239 Y72.741 E79.98168
G1 X167.502 Y72.698 E79.99365
G1 X169.465 Y72.881 E80.08217
G1 X171.357 Y73.299 E80.16917
G1 X173.194 Y73.949 E80.25667
G1 X174.929 Y74.818 E80.34379
G1 X176.551 Y75.897 E80.43127
G1 X178.027 Y77.164 E80.51861
G1 X179.3 Y78.563 E80.60354
G1 X180.453 Y80.188 E80.69301
G1 X181.373 Y81.906 E80.78051
G1 X182.074 Y83.718 E80.86775
G1 X182.546 Y85.59 E80.95443
G1 X182.786 Y87.58 E81.04443
G1 X182.786 Y89.42 E81.12705
G1 X182.548 Y91.396 E81.21642
G1 X182.074 Y93.282 E81.30373
G1 X181.373 Y95.094 E81.39097
G1 X180.453 Y96.812 E81.47848
G1 X179.3 Y98.437 E81.56794
G1 X178.027 Y99.836 E81.65287
G1 X176.551 Y101.103 E81.74021
G1 X174.931 Y102.179 E81.82754
G1 X173.194 Y103.051 E81.91481
G1 X171.339 Y103.704 E82.00311
G1 X169.501 Y104.111 E82.08764
G1 X167.558 Y104.301 E82.1753
G1 X167.258 Y104.265 E82.18886
G1 X167.07 Y104.178 E82.19816
G1 X167.003 Y104.068 E82.20395
G0 F6000 X167.009 Y104.168
G0 X167.003 Y97.86
G1 F900 X167.14 Y97.761 E82.21154
G1 X167.4 Y97.683 E82.22372
G1 X168.841 Y97.502 E82.28894
G1 X170.189 Y97.118 E82.35187
G1 X171.457 Y96.535 E82.41454
G1 X172.625 Y95.766 E82.47733
G1 X173.656 Y94.834 E82.53973
G1 X174.542 Y93.75 E82.60259
G1 X175.252 Y92.543 E82.66547
G1 X175.768 Y91.25 E82.72798
G1 X176.083 Y89.893 E82.79053
G1 X176.19 Y88.5 E82.85326
G1 X176.083 Y87.107 E82.91599
G1 X175.767 Y85.747 E82.97869
G1 X175.252 Y84.457 E83.04105
G1 X174.542 Y83.25 E83.10393
G1 X173.656 Y82.166 E83.16679
G1 X172.625 Y81.234 E83.2292
G1 X171.457 Y80.465 E83.29199
G1 X170.189 Y79.882 E83.35465
G1 X168.841 Y79.499 E83.41757
G1 X167.4 Y79.317 E83.48279
G1 X167.14 Y79.239 E83.49498
G1 X167.003 Y79.14 E83.50257
G1 X166.866 Y79.239 E83.51016
G1 X166.606 Y79.317 E83.52235
G1 X165.166 Y79.498 E83.58751
G1 X163.818 Y79.881 E83.65044
G1 X162.55 Y80.465 E83.71312
G1 X161.382 Y81.234 E83.77591
G1 X160.351 Y82.166 E83.83831
G1 X159.464 Y83.25 E83.90121
G1 X158.754 Y84.457 E83.96408
G1 X158.239 Y85.746 E84.02641
G1 X157.924 Y87.107 E84.08913
G1 X157.816 Y88.5 E84.15187
G1 X157.924 Y89.893 E84.2146
G1 X158.238 Y91.251 E84.27719
G1 X158.754 Y92.543 E84.33966
G1 X159.464 Y93.75 E84.40253
G1 X160.351 Y94.834 E84.46542
G1 X161.382 Y95.766 E84.52783
G1 X162.55 Y96.535 E84.59062
G1 X163.818 Y97.118 E84.65328
G1 X165.166 Y97.502 E84.71622
G1 X166.606 Y97.683 E84.78138
G1 X166.866 Y97.761 E84.79357
G1 X167.003 Y97.86 E84.80116
G0 F6000 X167.003 Y100.534
G1 F686.4 X166.862 Y100.624 E84.81101
G1 F739.7 X166.51 Y100.65 E84.83029
G1 F804.6 X164.835 Y100.462 E84.91494
G1 F802 X163.492 Y100.124 E84.98473
G1 F807.3 X163.134 Y100.018 E85.00342
G1 F804.6 X162.043 Y99.58 E85.06246
G1 F807.3 X161.584 Y99.375 E85.08762
G1 F806 X160.666 Y98.85 E85.14065
G1 X160.143 Y98.527 E85.17147
G1 F804.6 X159.415 Y97.969 E85.21753
G1 F806 X158.829 Y97.488 E85.25555
G1 X158.27 Y96.924 E85.29536
G1 X157.668 Y96.276 E85.33971
G1 F804.6 X157.263 Y95.739 E85.37349
G1 F803.3 X156.687 Y94.918 E85.42394
G1 F806 X156.423 Y94.45 E85.45088
G1 F804.6 X155.897 Y93.428 E85.50861
G1 F806 X155.747 Y93.054 E85.52881
G1 X155.329 Y91.871 E85.59172
G1 F808.7 X155.258 Y91.594 E85.60601
G1 F804.6 X154.959 Y90.147 E85.68022
G1 F808.7 X154.849 Y88.5 E85.76271
G1 X154.959 Y86.847 E85.8455
G1 F804.6 X155.258 Y85.402 E85.91961
G1 F807.3 X155.328 Y85.129 E85.93372
G1 F804.6 X155.747 Y83.947 E85.9967
G1 F806 X155.897 Y83.571 E86.017
G1 X156.424 Y82.55 E86.07461
G1 F807.3 X156.686 Y82.082 E86.10145
G1 F804.6 X157.262 Y81.261 E86.15182
G1 F806 X157.668 Y80.725 E86.18554
G1 F807.3 X158.27 Y80.076 E86.22985
G1 F806 X158.829 Y79.512 E86.26966
G1 X159.414 Y79.032 E86.3076
G1 F804.6 X160.142 Y78.474 E86.35367
G1 X160.665 Y78.15 E86.38457
G1 F806 X161.584 Y77.625 E86.43764
G1 F807.3 X162.042 Y77.421 E86.46273
G1 F806 X163.133 Y76.982 E86.5217
G1 F807.3 X163.492 Y76.877 E86.54042
G1 F804.6 X164.834 Y76.538 E86.60994
G1 F777.6 X166.515 Y76.349 E86.69785
G1 F714.7 X166.862 Y76.376 E86.71753
G1 F686.4 X167.003 Y76.466 E86.72738
G1 X167.144 Y76.376 E86.73722
