;FLAVOR:Marlin
;TIME:5065
;Filament used: 11.5216m
;Layer height: 0.4
;MINX:52.775
;MINY:29.075
;MINZ:0.25
;MAXX:182.225
;MAXY:205.925
;MAXZ:9.85
;Generated with Cura_SteamEngine 4.13.1
M140 S70
M105
M190 S70
M104 S215
M105
M109 S215
M82 ;absolute extrusion mode
; Ender 3 Custom Start G-code
G92 E0 ; Reset Extruder
G28 ; Home all axes
G1 Z2.0 F3000 ; Move Z Axis up little to prevent scratching of Heat Bed
G1 X0.1 Y20 Z0.3 F5000.0 ; Move to start position
G1 X0.1 Y200.0 Z0.3 F1500.0 E15 ; Draw the first line
G1 X0.4 Y200.0 Z0.3 F5000.0 ; Move to side a little
G1 X0.4 Y20 Z0.3 F1500.0 E30 ; Draw the second line
G92 E0 ; Reset Extruder
G1 Z2.0 F3000 ; Move Z Axis up little to prevent scratching of Heat Bed
G1 X5 Y20 Z0.3 F5000.0 ; Move over to prevent blob squish
G92 E0
G92 E0
G1 F2700 E-5
;LAYER_COUNT:25
;LAYER:0
M107
G1 F300 Z0.45
G0 F9000 X54.266 Y34.478 Z0.45
;TYPE:SKIRT
G1 F300 Z0.25
G1 F2700 E0
G1 F3000 X54.77 Y33.694 E0.03391
G1 X55.34 Y32.955 E0.06786
G1 X55.97 Y32.268 E0.10177
G1 X56.657 Y31.638 E0.13568
G1 X57.396 Y31.069 E0.1696
G1 X58.181 Y30.565 E0.20354
G1 X59.005 Y30.13 E0.23744
G1 X59.865 Y29.767 E0.2714
G1 X60.752 Y29.48 E0.30531
G1 X61.66 Y29.269 E0.33922
G1 X62.583 Y29.137 E0.37314
G1 X63.354 Y29.088 E0.40124
G1 X63.675 Y29.079 E0.41293
G1 X63.98 Y29.075 E0.42402
G1 X170.643 Y29.075 E4.30424
G1 X171.497 Y29.086 E4.33531
G1 X172.428 Y29.139 E4.36923
G1 X173.351 Y29.272 E4.40315
G1 X174.259 Y29.484 E4.43707
G1 X175.146 Y29.772 E4.471
G1 X176.005 Y30.136 E4.50494
G1 X176.829 Y30.571 E4.53884
G1 X177.613 Y31.076 E4.57276
G1 X178.351 Y31.646 E4.60668
G1 X179.038 Y32.277 E4.64062
G1 X179.668 Y32.965 E4.67455
G1 X180.236 Y33.704 E4.70846
G1 X180.74 Y34.489 E4.7424
G1 X181.174 Y35.314 E4.77631
G1 X181.536 Y36.174 E4.81025
G1 X181.822 Y37.061 E4.84416
G1 X182.032 Y37.97 E4.87809
G1 X182.164 Y38.893 E4.91201
G1 X182.212 Y39.654 E4.93975
G1 X182.221 Y39.974 E4.9514
G1 X182.225 Y40.28 E4.96253
G1 X182.224 Y194.449 E10.57093
G1 X182.215 Y195.176 E10.59738
G1 X182.164 Y196.107 E10.6313
G1 X182.033 Y197.03 E10.66521
G1 X181.823 Y197.939 E10.69915
G1 X181.536 Y198.826 E10.73307
G1 X181.174 Y199.685 E10.76698
G1 X180.74 Y200.511 E10.80092
G1 X180.237 Y201.296 E10.83484
G1 X179.669 Y202.035 E10.86874
G1 X179.039 Y202.723 E10.90268
G1 X178.352 Y203.354 E10.93661
G1 X177.614 Y203.924 E10.97054
G1 X176.83 Y204.429 E11.00446
G1 X176.006 Y204.865 E11.03838
G1 X175.147 Y205.228 E11.0723
G1 X174.26 Y205.517 E11.10624
G1 X173.352 Y205.728 E11.14015
G1 X172.429 Y205.861 E11.17407
G1 X171.646 Y205.912 E11.20262
G1 X171.325 Y205.921 E11.2143
G1 X171.02 Y205.925 E11.2254
G1 X64.217 Y205.924 E15.1107
G1 X63.519 Y205.915 E15.1361
G1 X62.588 Y205.863 E15.17002
G1 X61.665 Y205.732 E15.20393
G1 X60.756 Y205.521 E15.23788
G1 X59.869 Y205.234 E15.27179
G1 X59.009 Y204.872 E15.30574
G1 X58.184 Y204.437 E15.33967
G1 X57.399 Y203.934 E15.37358
G1 X56.661 Y203.365 E15.40748
G1 X55.973 Y202.735 E15.44142
G1 X55.342 Y202.048 E15.47535
G1 X54.773 Y201.31 E15.50925
G1 X54.268 Y200.525 E15.54321
G1 X53.833 Y199.701 E15.57711
G1 X53.47 Y198.842 E15.61103
G1 X53.182 Y197.955 E15.64496
G1 X52.971 Y197.047 E15.67887
G1 X52.838 Y196.124 E15.71279
G1 X52.788 Y195.335 E15.74155
G1 X52.779 Y195.002 E15.75367
G1 X52.775 Y194.708 E15.76437
G1 X52.776 Y40.477 E21.37502
G1 X52.785 Y39.812 E21.39922
G1 X52.838 Y38.881 E21.43314
G1 X52.97 Y37.958 E21.46706
G1 X53.18 Y37.049 E21.501
G1 X53.468 Y36.162 E21.53492
G1 X53.831 Y35.303 E21.56885
G1 X54.266 Y34.478 E21.60278
G0 F9000 X54.614 Y34.578
G1 F3000 X55.117 Y33.811 E21.63614
G1 X55.684 Y33.09 E21.66951
G1 X56.313 Y32.422 E21.70289
G1 X56.997 Y31.811 E21.73625
G1 X57.732 Y31.261 E21.76965
G1 X58.512 Y30.778 E21.80302
G1 X59.331 Y30.365 E21.83639
G1 X60.183 Y30.025 E21.86976
G1 X61.061 Y29.76 E21.90313
G1 X61.959 Y29.572 E21.9365
G1 X62.87 Y29.464 E21.96988
G1 X63.364 Y29.438 E21.98787
G1 X63.685 Y29.429 E21.99955
G1 X63.98 Y29.425 E22.01029
G1 X170.643 Y29.425 E25.8905
G1 X171.492 Y29.436 E25.92139
G1 X172.408 Y29.489 E25.95477
G1 X173.315 Y29.622 E25.98812
G1 X174.208 Y29.833 E26.0215
G1 X175.079 Y30.121 E26.05487
G1 X175.922 Y30.484 E26.08826
G1 X176.729 Y30.919 E26.12161
G1 X177.496 Y31.423 E26.15499
G1 X178.216 Y31.991 E26.18836
G1 X178.884 Y32.62 E26.22173
G1 X179.495 Y33.305 E26.25513
G1 X180.043 Y34.04 E26.28848
G1 X180.526 Y34.82 E26.32185
G1 X180.938 Y35.64 E26.35524
G1 X181.278 Y36.492 E26.38861
G1 X181.542 Y37.37 E26.42196
G1 X181.729 Y38.268 E26.45533
G1 X181.837 Y39.179 E26.4887
G1 X181.862 Y39.664 E26.50637
G1 X181.871 Y39.984 E26.51801
G1 X181.875 Y40.28 E26.52878
G1 X181.874 Y194.444 E32.137
G1 X181.865 Y195.171 E32.16345
G1 X181.814 Y196.087 E32.19683
G1 X181.683 Y196.995 E32.2302
G1 X181.474 Y197.888 E32.26356
G1 X181.187 Y198.76 E32.29696
G1 X180.826 Y199.603 E32.33032
G1 X180.393 Y200.412 E32.3637
G1 X179.89 Y201.18 E32.3971
G1 X179.323 Y201.901 E32.43047
G1 X178.696 Y202.57 E32.46382
G1 X178.012 Y203.182 E32.49721
G1 X177.278 Y203.732 E32.53057
G1 X176.499 Y204.216 E32.56394
G1 X175.68 Y204.63 E32.59732
G1 X174.829 Y204.971 E32.63067
G1 X173.951 Y205.237 E32.66405
G1 X173.053 Y205.426 E32.69743
G1 X172.142 Y205.535 E32.73081
G1 X171.636 Y205.562 E32.74924
G1 X171.315 Y205.571 E32.76092
G1 X171.02 Y205.575 E32.77166
G1 X64.221 Y205.574 E36.65682
G1 X63.523 Y205.565 E36.68221
G1 X62.607 Y205.513 E36.71559
G1 X61.699 Y205.382 E36.74896
G1 X60.806 Y205.172 E36.78233
G1 X59.935 Y204.885 E36.8157
G1 X59.092 Y204.523 E36.84907
G1 X58.284 Y204.09 E36.88242
G1 X57.516 Y203.587 E36.91582
G1 X56.795 Y203.02 E36.94918
G1 X56.126 Y202.392 E36.98256
G1 X55.515 Y201.708 E37.01593
G1 X54.965 Y200.974 E37.04929
G1 X54.482 Y200.194 E37.08267
G1 X54.068 Y199.375 E37.11605
G1 X53.727 Y198.524 E37.1494
G1 X53.461 Y197.645 E37.18281
G1 X53.273 Y196.748 E37.21615
G1 X53.164 Y195.837 E37.24953
G1 X53.138 Y195.325 E37.26818
G1 X53.129 Y194.992 E37.2803
G1 X53.125 Y194.708 E37.29063
G1 X53.126 Y40.482 E42.90111
G1 X53.135 Y39.817 E42.9253
G1 X53.187 Y38.901 E42.95868
G1 X53.319 Y37.993 E42.99205
G1 X53.53 Y37.1 E43.02543
G1 X53.817 Y36.229 E43.0588
G1 X54.179 Y35.386 E43.09217
G1 X54.614 Y34.578 E43.12555
G0 F9000 X54.961 Y34.679
G1 F3000 X55.463 Y33.929 E43.15838
G1 X56.029 Y33.227 E43.19119
G1 X56.655 Y32.578 E43.22399
G1 X57.337 Y31.987 E43.25682
G1 X58.067 Y31.458 E43.28962
G1 X58.842 Y30.996 E43.32244
G1 X59.655 Y30.605 E43.35526
G1 X60.499 Y30.287 E43.38807
G1 X61.368 Y30.045 E43.42088
G1 X62.255 Y29.881 E43.4537
G1 X63.374 Y29.788 E43.49455
G1 X63.695 Y29.779 E43.50623
G1 X63.98 Y29.775 E43.5166
G1 X170.643 Y29.775 E47.39681
G1 X171.487 Y29.786 E47.42752
G1 X172.387 Y29.839 E47.46031
G1 X173.279 Y29.971 E47.49312
G1 X174.156 Y30.182 E47.52593
G1 X175.011 Y30.47 E47.55875
G1 X175.837 Y30.832 E47.59156
G1 X176.628 Y31.266 E47.62438
G1 X177.377 Y31.769 E47.6572
G1 X178.079 Y32.336 E47.69003
G1 X178.728 Y32.962 E47.72283
G1 X179.318 Y33.644 E47.75564
G1 X179.846 Y34.375 E47.78844
G1 X180.308 Y35.15 E47.82126
G1 X180.698 Y35.963 E47.85407
G1 X181.015 Y36.808 E47.8869
G1 X181.257 Y37.677 E47.91971
G1 X181.42 Y38.564 E47.95252
G1 X181.512 Y39.674 E47.99304
G1 X181.521 Y39.994 E48.00469
G1 X181.525 Y40.28 E48.01509
G1 X181.524 Y194.44 E53.62317
G1 X181.515 Y195.167 E53.64961
G1 X181.464 Y196.068 E53.68244
G1 X181.333 Y196.96 E53.71524
G1 X181.124 Y197.837 E53.74804
G1 X180.838 Y198.693 E53.78087
G1 X180.477 Y199.52 E53.8137
G1 X180.045 Y200.311 E53.84648
G1 X179.544 Y201.061 E53.8793
G1 X178.979 Y201.764 E53.9121
G1 X178.353 Y202.414 E53.94493
G1 X177.673 Y203.006 E53.97773
G1 X176.942 Y203.535 E54.01056
G1 X176.168 Y203.998 E54.04337
G1 X175.356 Y204.39 E54.07617
G1 X174.512 Y204.709 E54.10899
G1 X173.643 Y204.952 E54.14182
G1 X172.757 Y205.117 E54.1746
G1 X171.626 Y205.212 E54.21589
G1 X171.305 Y205.221 E54.22757
G1 X171.02 Y205.225 E54.23794
G1 X64.226 Y205.224 E58.12292
G1 X63.528 Y205.215 E58.14832
G1 X62.627 Y205.164 E58.18115
G1 X61.735 Y205.032 E58.21395
G1 X60.858 Y204.823 E58.24675
G1 X60.002 Y204.536 E58.27959
G1 X59.176 Y204.175 E58.31238
G1 X58.384 Y203.742 E58.34522
G1 X57.635 Y203.241 E58.378
G1 X56.932 Y202.675 E58.41083
G1 X56.282 Y202.049 E58.44366
G1 X55.691 Y201.369 E58.47644
G1 X55.162 Y200.638 E58.50926
G1 X54.699 Y199.863 E58.5421
G1 X54.308 Y199.051 E58.57489
G1 X53.989 Y198.207 E58.60771
G1 X53.747 Y197.338 E58.64053
G1 X53.582 Y196.451 E58.67335
G1 X53.488 Y195.316 E58.71478
G1 X53.479 Y194.983 E58.7269
G1 X53.475 Y194.708 E58.7369
G1 X53.476 Y40.486 E64.34723
G1 X53.485 Y39.821 E64.37143
G1 X53.537 Y38.921 E64.40422
G1 X53.669 Y38.028 E64.43706
G1 X53.879 Y37.151 E64.46986
G1 X54.166 Y36.296 E64.50267
G1 X54.528 Y35.47 E64.53548
G1 X54.961 Y34.679 E64.56829
G1 F2700 E59.56829
G1 F300 Z0.45
;MESH:haut projetV2.stl
G0 F9000 X76.399 Y76.778 Z0.45
;TYPE:WALL-INNER
G1 F300 Z0.25
G1 F2700 E64.56829
G1 F3000 X77.444 Y76.246 E64.61094
G1 X78.273 Y75.418 E64.65357
G1 X78.804 Y74.373 E64.69621
G1 X78.986 Y73.218 E64.73874
G1 X78.804 Y72.062 E64.78132
G1 X78.273 Y71.018 E64.82392
G1 X77.444 Y70.189 E64.86657
G1 X76.399 Y69.658 E64.90922
G1 X75.244 Y69.476 E64.95175
G1 X74.089 Y69.658 E64.99429
G1 X73.044 Y70.189 E65.03693
G1 X72.216 Y71.018 E65.07955
G1 X71.684 Y72.062 E65.12218
G1 X71.503 Y73.218 E65.16474
G1 X71.684 Y74.373 E65.20727
G1 X72.216 Y75.418 E65.24993
G1 X73.044 Y76.246 E65.29253
G1 X74.089 Y76.778 E65.33519
G1 X75.244 Y76.959 E65.37772
G1 X76.399 Y76.778 E65.42025
G0 F9000 X76.29 Y76.441
G1 F3000 X77.236 Y75.959 E65.45887
G1 X77.986 Y75.21 E65.49743
G1 X78.467 Y74.264 E65.53604
G1 X78.632 Y73.218 E65.57456
G1 X78.467 Y72.171 E65.61312
G1 X77.986 Y71.226 E65.65169
G1 X77.236 Y70.476 E65.69028
G1 X76.29 Y69.995 E65.72888
G1 X75.244 Y69.83 E65.7674
G1 X74.198 Y69.995 E65.80593
G1 X73.252 Y70.476 E65.84453
G1 X72.503 Y71.226 E65.88309
G1 X72.021 Y72.171 E65.92168
G1 X71.857 Y73.218 E65.96024
G1 X72.021 Y74.264 E65.99875
G1 X72.503 Y75.21 E66.03738
G1 X73.252 Y75.959 E66.07591
G1 X74.198 Y76.441 E66.11453
G1 X75.244 Y76.605 E66.15305
G1 X76.29 Y76.441 E66.19157
G0 F9000 X76.181 Y76.104
G1 F3000 X77.028 Y75.672 E66.22615
G1 X77.699 Y75.002 E66.26065
G1 X78.13 Y74.155 E66.29522
G1 X78.278 Y73.218 E66.32973
G1 X78.13 Y72.28 E66.36428
G1 X77.699 Y71.434 E66.39882
G1 X77.028 Y70.763 E66.43334
G1 X76.181 Y70.332 E66.46791
G1 X75.244 Y70.184 E66.50242
G1 X74.307 Y70.332 E66.53693
G1 X73.46 Y70.763 E66.5715
G1 X72.79 Y71.434 E66.60599
G1 X72.358 Y72.28 E66.64055
G1 X72.211 Y73.218 E66.67509
G1 X72.358 Y74.155 E66.70959
G1 X72.79 Y75.002 E66.74418
G1 X73.46 Y75.672 E66.77865
G1 X74.307 Y76.104 E66.81324
G1 X75.244 Y76.251 E66.84774
G1 X76.181 Y76.104 E66.88225
G0 F9000 X76.103 Y75.863
;TYPE:WALL-OUTER
G1 F3000 X76.879 Y75.467 E66.91394
G1 X77.494 Y74.853 E66.94555
G1 X77.889 Y74.077 E66.97723
G1 X78.025 Y73.218 E67.00887
G1 X77.889 Y72.358 E67.04054
G1 X77.494 Y71.583 E67.07219
G1 X76.879 Y70.968 E67.10382
G1 X76.103 Y70.573 E67.1355
G1 X75.244 Y70.437 E67.16714
G1 X74.385 Y70.573 E67.19878
G1 X73.609 Y70.968 E67.23045
G1 X72.995 Y71.583 E67.26207
G1 X72.599 Y72.358 E67.29373
G1 X72.464 Y73.218 E67.3254
G1 X72.599 Y74.077 E67.35703
G1 X72.995 Y74.853 E67.38872
G1 X73.609 Y75.467 E67.42031
G1 X74.385 Y75.863 E67.452
G1 X75.244 Y75.998 E67.48364
G1 X76.103 Y75.863 E67.51527
G0 F9000 X76.221 Y76.229
G1 F2700 E62.51527
G1 F300 Z0.45
G0 F9000 X75.886 Y92.054 Z0.45
;TYPE:WALL-INNER
G1 F300 Z0.25
G1 F2700 E67.51527
G1 F3000 X76.524 Y91.791 E67.54037
G1 X77.069 Y91.37 E67.56542
G1 X77.492 Y90.824 E67.59055
G1 X77.756 Y90.183 E67.61577
G1 X77.846 Y89.493 E67.64108
G1 X77.755 Y88.814 E67.666
G1 X77.492 Y88.176 E67.69111
G1 X77.069 Y87.63 E67.71623
G1 X76.524 Y87.211 E67.74124
G1 X75.883 Y86.944 E67.7665
G1 X75.2 Y86.855 E67.79156
G1 X74.517 Y86.945 E67.81662
G1 X73.877 Y87.209 E67.84181
G1 X73.329 Y87.631 E67.86697
G1 X72.91 Y88.178 E67.89203
G1 X72.646 Y88.815 E67.91712
G1 X72.555 Y89.5 E67.94226
G1 X72.646 Y90.185 E67.96739
G1 X72.91 Y90.822 E67.99248
G1 X73.329 Y91.369 E68.01754
G1 X73.878 Y91.791 E68.04273
G1 X74.514 Y92.054 E68.06777
G1 X75.2 Y92.146 E68.09295
G1 X75.886 Y92.054 E68.11813
G0 F9000 X75.794 Y91.713
G1 F3000 X76.347 Y91.485 E68.13989
G1 X76.82 Y91.12 E68.16162
G1 X77.186 Y90.647 E68.18338
G1 X77.415 Y90.092 E68.20522
G1 X77.493 Y89.494 E68.22716
G1 X77.414 Y88.906 E68.24874
G1 X77.186 Y88.353 E68.2705
G1 X76.82 Y87.88 E68.29226
G1 X76.347 Y87.516 E68.31397
G1 X75.792 Y87.285 E68.33584
G1 X75.2 Y87.208 E68.35756
G1 X74.608 Y87.286 E68.37928
G1 X74.054 Y87.515 E68.40109
G1 X73.579 Y87.88 E68.42288
G1 X73.216 Y88.354 E68.4446
G1 X72.987 Y88.907 E68.46637
G1 X72.908 Y89.5 E68.48813
G1 X72.987 Y90.093 E68.5099
G1 X73.216 Y90.646 E68.53167
G1 X73.579 Y91.12 E68.55339
G1 X74.054 Y91.485 E68.57518
G1 X74.606 Y91.713 E68.59691
G1 X75.2 Y91.793 E68.61871
G1 X75.794 Y91.713 E68.64052
G0 F9000 X75.702 Y91.372
G1 F3000 X76.17 Y91.179 E68.65893
G1 X76.571 Y90.87 E68.67735
G1 X76.88 Y90.47 E68.69573
G1 X77.074 Y90.001 E68.7142
G1 X77.14 Y89.495 E68.73276
G1 X77.073 Y88.998 E68.75101
G1 X76.88 Y88.53 E68.76942
G1 X76.571 Y88.13 E68.78781
G1 X76.17 Y87.821 E68.80622
G1 X75.701 Y87.626 E68.8247
G1 X75.2 Y87.561 E68.84308
G1 X74.699 Y87.627 E68.86146
G1 X74.231 Y87.821 E68.87989
G1 X73.829 Y88.13 E68.89834
G1 X73.522 Y88.53 E68.91668
G1 X73.328 Y88.999 E68.93514
G1 X73.261 Y89.5 E68.95353
G1 X73.328 Y90.001 E68.97192
G1 X73.522 Y90.47 E68.99038
G1 X73.829 Y90.87 E69.00873
G1 X74.231 Y91.179 E69.02717
G1 X74.698 Y91.372 E69.04555
G1 X75.2 Y91.44 E69.06398
G1 X75.702 Y91.372 E69.08241
G0 F9000 X75.637 Y91.129
;TYPE:WALL-OUTER
G1 F3000 X76.044 Y90.961 E69.09843
G1 X76.393 Y90.692 E69.11446
G1 X76.662 Y90.344 E69.13046
G1 X76.83 Y89.936 E69.14651
G1 X76.888 Y89.495 E69.16269
G1 X76.83 Y89.063 E69.17855
G1 X76.662 Y88.656 E69.19457
G1 X76.393 Y88.308 E69.21057
G1 X76.044 Y88.039 E69.2266
G1 X75.636 Y87.87 E69.24266
G1 X75.2 Y87.813 E69.25866
G1 X74.764 Y87.871 E69.27466
G1 X74.357 Y88.039 E69.29068
G1 X74.007 Y88.308 E69.30673
G1 X73.74 Y88.656 E69.32269
G1 X73.571 Y89.064 E69.33876
G1 X73.513 Y89.5 E69.35476
G1 X73.571 Y89.936 E69.37076
G1 X73.74 Y90.344 E69.38682
G1 X74.007 Y90.692 E69.40278
G1 X74.357 Y90.961 E69.41884
G1 X74.764 Y91.129 E69.43486
G1 X75.2 Y91.188 E69.45086
G1 X75.637 Y91.129 E69.4669
G0 F9000 X75.736 Y91.5
G1 F2700 E64.4669
G1 F300 Z0.45
G0 F9000 X76.524 Y101.791 Z0.45
;TYPE:WALL-INNER
G1 F300 Z0.25
G1 F2700 E69.4669
G1 F3000 X77.069 Y101.37 E69.49196
G1 X77.492 Y100.824 E69.51708
G1 X77.756 Y100.183 E69.5423
G1 X77.846 Y99.493 E69.56761
G1 X77.755 Y98.814 E69.59254
G1 X77.492 Y98.176 E69.61764
G1 X77.069 Y97.63 E69.64277
G1 X76.524 Y97.209 E69.66782
G1 X75.884 Y96.945 E69.693
G1 X75.2 Y96.855 E69.7181
G1 X74.517 Y96.945 E69.74316
G1 X73.877 Y97.209 E69.76835
G1 X73.329 Y97.631 E69.79351
G1 X72.91 Y98.178 E69.81857
G1 X72.646 Y98.815 E69.84366
G1 X72.555 Y99.5 E69.8688
G1 X72.646 Y100.185 E69.89393
G1 X72.91 Y100.822 E69.91902
G1 X73.329 Y101.369 E69.94408
G1 X73.877 Y101.791 E69.96925
G1 X74.517 Y102.055 E69.99443
G1 X75.223 Y102.145 E70.02032
G1 X75.887 Y102.054 E70.0447
G1 X76.524 Y101.791 E70.06977
G0 F9000 X76.347 Y101.485
G1 F3000 X76.82 Y101.12 E70.09151
G1 X77.186 Y100.647 E70.11326
G1 X77.415 Y100.092 E70.1351
G1 X77.493 Y99.494 E70.15704
G1 X77.414 Y98.906 E70.17863
G1 X77.186 Y98.353 E70.20039
G1 X76.82 Y97.88 E70.22214
G1 X76.347 Y97.515 E70.24388
G1 X75.793 Y97.286 E70.26568
G1 X75.2 Y97.208 E70.28744
G1 X74.608 Y97.286 E70.30916
G1 X74.054 Y97.515 E70.33097
G1 X73.579 Y97.88 E70.35276
G1 X73.216 Y98.354 E70.37448
G1 X72.987 Y98.907 E70.39626
G1 X72.908 Y99.5 E70.41802
G1 X72.987 Y100.093 E70.43978
G1 X73.216 Y100.646 E70.46156
G1 X73.579 Y101.12 E70.48328
G1 X74.054 Y101.485 E70.50507
G1 X74.608 Y101.714 E70.52688
G1 X75.221 Y101.792 E70.54935
G1 X75.795 Y101.713 E70.57043
G1 X76.347 Y101.485 E70.59216
G0 F9000 X76.17 Y101.179
G1 F3000 X76.571 Y100.87 E70.61058
G1 X76.88 Y100.47 E70.62896
G1 X77.074 Y100.001 E70.64743
G1 X77.14 Y99.495 E70.66599
G1 X77.073 Y98.998 E70.68423
G1 X76.88 Y98.53 E70.70265
G1 X76.571 Y98.13 E70.72104
