;FLAVOR:Marlin
;TIME:17045
;Filament used: 39.2839m
;Layer height: 0.4
;MINX:54.436
;MINY:31.305
;MINZ:0.25
;MAXX:180.564
;MAXY:203.695
;MAXZ:51.25
;Generated with Cura_SteamEngine 4.13.1
M140 S70
M105
M190 S70
M104 S215
M105
M109 S215
M82 ;absolute extrusion mode
; Ender 3 Custom Start G-code
G92 E0 ; Reset Extruder
G28 ; Home all axes
G1 Z2.0 F3000 ; Move Z Axis up little to prevent scratching of Heat Bed
G1 X0.1 Y20 Z0.3 F5000.0 ; Move to start position
G1 X0.1 Y200.0 Z0.3 F1500.0 E15 ; Draw the first line
G1 X0.4 Y200.0 Z0.3 F5000.0 ; Move to side a little
G1 X0.4 Y20 Z0.3 F1500.0 E30 ; Draw the second line
G92 E0 ; Reset Extruder
G1 Z2.0 F3000 ; Move Z Axis up little to prevent scratching of Heat Bed
G1 X5 Y20 Z0.3 F5000.0 ; Move over to prevent blob squish
G92 E0
G92 E0
G1 F2700 E-5
;LAYER_COUNT:128
;LAYER:0
M107
G1 F300 Z0.45
G0 F9000 X56.431 Y35.924 Z0.45
;TYPE:SKIRT
G1 F300 Z0.25
G1 F2700 E0
G1 F3000 X57.001 Y35.185 E0.03395
G1 X57.631 Y34.498 E0.06786
G1 X58.318 Y33.868 E0.10177
G1 X59.057 Y33.299 E0.1357
G1 X59.842 Y32.795 E0.16964
G1 X60.666 Y32.36 E0.20353
G1 X61.526 Y31.997 E0.23749
G1 X62.413 Y31.71 E0.2714
G1 X63.321 Y31.499 E0.30532
G1 X64.244 Y31.367 E0.33923
G1 X65.015 Y31.318 E0.36734
G1 X65.336 Y31.309 E0.37902
G1 X65.641 Y31.305 E0.39012
G1 X169.138 Y31.306 E4.15516
G1 X169.836 Y31.316 E4.18055
G1 X170.767 Y31.369 E4.21448
G1 X171.69 Y31.502 E4.2484
G1 X172.598 Y31.714 E4.28232
G1 X173.485 Y32.002 E4.31625
G1 X174.344 Y32.366 E4.35019
G1 X175.168 Y32.801 E4.38408
G1 X175.952 Y33.306 E4.41801
G1 X176.69 Y33.876 E4.45193
G1 X177.377 Y34.507 E4.48586
G1 X178.007 Y35.195 E4.5198
G1 X178.575 Y35.934 E4.55371
G1 X179.079 Y36.719 E4.58764
G1 X179.513 Y37.544 E4.62155
G1 X179.875 Y38.404 E4.6555
G1 X180.161 Y39.291 E4.6894
G1 X180.371 Y40.2 E4.72334
G1 X180.503 Y41.123 E4.75726
G1 X180.551 Y41.884 E4.785
G1 X180.56 Y42.204 E4.79664
G1 X180.564 Y42.51 E4.80778
G1 X180.563 Y192.216 E10.25382
G1 X180.553 Y192.944 E10.28031
G1 X180.5 Y193.875 E10.31423
G1 X180.368 Y194.798 E10.34815
G1 X180.157 Y195.707 E10.3821
G1 X179.869 Y196.594 E10.41602
G1 X179.506 Y197.453 E10.44995
G1 X179.071 Y198.278 E10.48388
G1 X178.567 Y199.062 E10.51778
G1 X177.997 Y199.8 E10.5517
G1 X177.366 Y200.487 E10.58564
G1 X176.679 Y201.118 E10.61957
G1 X175.94 Y201.687 E10.6535
G1 X175.156 Y202.19 E10.68739
G1 X174.331 Y202.625 E10.72131
G1 X173.471 Y202.987 E10.75526
G1 X172.717 Y203.237 E10.78416
G1 X172.662 Y203.253 E10.78624
G1 X171.756 Y203.475 E10.82017
G1 X170.835 Y203.618 E10.85408
G1 X169.93 Y203.682 E10.88708
G1 X169.61 Y203.691 E10.89873
G1 X169.304 Y203.695 E10.90986
G1 X160.454 Y203.694 E11.23181
G1 X160.023 Y203.688 E11.24749
G1 X158.622 Y203.678 E11.29846
G1 X66.018 Y203.678 E14.66723
G1 X65.18 Y203.668 E14.69772
G1 X64.249 Y203.616 E14.73164
G1 X63.326 Y203.485 E14.76555
G1 X62.417 Y203.274 E14.7995
G1 X61.53 Y202.987 E14.83341
G1 X60.67 Y202.625 E14.86736
G1 X59.845 Y202.19 E14.90129
G1 X59.06 Y201.687 E14.9352
G1 X58.322 Y201.118 E14.9691
G1 X57.634 Y200.488 E15.00304
G1 X57.003 Y199.801 E15.03697
G1 X56.434 Y199.063 E15.07087
G1 X55.929 Y198.278 E15.10483
G1 X55.494 Y197.454 E15.13873
G1 X55.131 Y196.595 E15.17265
G1 X54.843 Y195.708 E15.20658
G1 X54.632 Y194.8 E15.24049
G1 X54.499 Y193.877 E15.27441
G1 X54.449 Y193.088 E15.30317
G1 X54.44 Y192.755 E15.31529
G1 X54.436 Y192.461 E15.32599
G1 X54.437 Y42.707 E20.77378
G1 X54.446 Y42.042 E20.79797
G1 X54.499 Y41.111 E20.8319
G1 X54.631 Y40.188 E20.86581
G1 X54.841 Y39.279 E20.89975
G1 X55.129 Y38.392 E20.93368
G1 X55.492 Y37.533 E20.9676
G1 X55.927 Y36.708 E21.00153
G1 X56.431 Y35.924 E21.03544
G0 F9000 X56.778 Y36.041
G1 F3000 X57.345 Y35.32 E21.0688
G1 X57.974 Y34.652 E21.10218
G1 X58.658 Y34.041 E21.13555
G1 X59.393 Y33.491 E21.16894
G1 X60.173 Y33.008 E21.20232
G1 X60.992 Y32.595 E21.23569
G1 X61.844 Y32.255 E21.26906
G1 X62.722 Y31.99 E21.30242
G1 X63.62 Y31.802 E21.3358
G1 X64.531 Y31.694 E21.36917
G1 X65.025 Y31.668 E21.38716
G1 X65.346 Y31.659 E21.39885
G1 X65.641 Y31.655 E21.40958
G1 X169.133 Y31.656 E25.17444
G1 X169.831 Y31.666 E25.19983
G1 X170.747 Y31.719 E25.23321
G1 X171.654 Y31.852 E25.26656
G1 X172.547 Y32.063 E25.29994
G1 X173.418 Y32.351 E25.33331
G1 X174.261 Y32.714 E25.3667
G1 X175.068 Y33.149 E25.40005
G1 X175.835 Y33.653 E25.43344
G1 X176.555 Y34.221 E25.4668
G1 X177.223 Y34.85 E25.50018
G1 X177.834 Y35.535 E25.53357
G1 X178.382 Y36.27 E25.56692
G1 X178.865 Y37.05 E25.6003
G1 X179.277 Y37.87 E25.63368
G1 X179.617 Y38.722 E25.66705
G1 X179.881 Y39.6 E25.7004
G1 X180.068 Y40.498 E25.73377
G1 X180.176 Y41.409 E25.76715
G1 X180.201 Y41.894 E25.78481
G1 X180.21 Y42.214 E25.79646
G1 X180.214 Y42.51 E25.80723
G1 X180.213 Y192.212 E31.25313
G1 X180.203 Y192.94 E31.27961
G1 X180.15 Y193.855 E31.31296
G1 X180.018 Y194.763 E31.34633
G1 X179.808 Y195.656 E31.37971
G1 X179.52 Y196.527 E31.41308
G1 X179.158 Y197.37 E31.44645
G1 X178.723 Y198.178 E31.47984
G1 X178.22 Y198.945 E31.5132
G1 X177.652 Y199.666 E31.54659
G1 X177.024 Y200.334 E31.57995
G1 X176.339 Y200.945 E31.61334
G1 X175.604 Y201.494 E31.64671
G1 X174.824 Y201.977 E31.68009
G1 X174.005 Y202.39 E31.71345
G1 X173.153 Y202.73 E31.74683
G1 X172.564 Y202.917 E31.76931
G1 X171.673 Y203.135 E31.80268
G1 X170.766 Y203.274 E31.83606
G1 X169.92 Y203.332 E31.8669
G1 X169.6 Y203.341 E31.87855
G1 X169.304 Y203.345 E31.88932
G1 X160.459 Y203.344 E32.21108
G1 X160.03 Y203.338 E32.22669
G1 X158.625 Y203.328 E32.2778
G1 X66.018 Y203.328 E35.64669
G1 X65.184 Y203.318 E35.67703
G1 X64.268 Y203.266 E35.71041
G1 X63.36 Y203.135 E35.74378
G1 X62.467 Y202.925 E35.77715
G1 X61.596 Y202.638 E35.81051
G1 X60.753 Y202.276 E35.84389
G1 X59.945 Y201.843 E35.87724
G1 X59.177 Y201.34 E35.91063
G1 X58.456 Y200.773 E35.944
G1 X57.787 Y200.145 E35.97738
G1 X57.176 Y199.461 E36.01074
G1 X56.626 Y198.727 E36.04411
G1 X56.143 Y197.947 E36.07749
G1 X55.729 Y197.128 E36.11087
G1 X55.388 Y196.277 E36.14422
G1 X55.122 Y195.398 E36.17763
G1 X54.934 Y194.501 E36.21097
G1 X54.825 Y193.59 E36.24435
G1 X54.799 Y193.078 E36.263
G1 X54.79 Y192.745 E36.27511
G1 X54.786 Y192.461 E36.28545
G1 X54.787 Y42.712 E41.73306
G1 X54.796 Y42.047 E41.75725
G1 X54.848 Y41.131 E41.79063
G1 X54.98 Y40.223 E41.82401
G1 X55.191 Y39.33 E41.85739
G1 X55.478 Y38.459 E41.89075
G1 X55.84 Y37.616 E41.92412
G1 X56.275 Y36.808 E41.9575
G1 X56.778 Y36.041 E41.99087
G0 F9000 X57.124 Y36.159
G1 F3000 X57.69 Y35.457 E42.02368
G1 X58.316 Y34.808 E42.05648
G1 X58.998 Y34.217 E42.08931
G1 X59.728 Y33.688 E42.1221
G1 X60.503 Y33.226 E42.15493
G1 X61.316 Y32.835 E42.18774
G1 X62.16 Y32.517 E42.22055
G1 X63.029 Y32.275 E42.25337
G1 X63.916 Y32.111 E42.28618
G1 X65.035 Y32.018 E42.32703
G1 X65.356 Y32.009 E42.33871
G1 X65.641 Y32.005 E42.34908
G1 X169.128 Y32.006 E46.11376
G1 X169.826 Y32.016 E46.13916
G1 X170.726 Y32.069 E46.17195
G1 X171.618 Y32.201 E46.20476
G1 X172.495 Y32.412 E46.23757
G1 X173.35 Y32.7 E46.27039
G1 X174.176 Y33.062 E46.3032
G1 X174.967 Y33.496 E46.33602
G1 X175.716 Y33.999 E46.36884
G1 X176.418 Y34.566 E46.40167
G1 X177.067 Y35.192 E46.43447
G1 X177.657 Y35.874 E46.46728
G1 X178.185 Y36.605 E46.50008
G1 X178.647 Y37.38 E46.5329
G1 X179.037 Y38.193 E46.56571
G1 X179.354 Y39.038 E46.59854
G1 X179.596 Y39.907 E46.63135
G1 X179.759 Y40.794 E46.66416
G1 X179.851 Y41.904 E46.70468
G1 X179.86 Y42.224 E46.71632
G1 X179.864 Y42.51 E46.72673
G1 X179.863 Y192.207 E52.17245
G1 X179.853 Y192.935 E52.19893
G1 X179.801 Y193.835 E52.23173
G1 X179.669 Y194.728 E52.26457
G1 X179.458 Y195.605 E52.29738
G1 X179.171 Y196.46 E52.33019
G1 X178.809 Y197.286 E52.363
G1 X178.376 Y198.077 E52.3958
G1 X177.874 Y198.826 E52.4286
G1 X177.307 Y199.528 E52.46143
G1 X176.681 Y200.177 E52.49423
G1 X176 Y200.769 E52.52706
G1 X175.269 Y201.297 E52.55986
G1 X174.494 Y201.759 E52.59269
G1 X173.681 Y202.15 E52.6255
G1 X172.521 Y202.565 E52.67032
G1 X172.466 Y202.581 E52.67241
G1 X171.59 Y202.794 E52.7052
G1 X170.698 Y202.929 E52.73802
G1 X169.91 Y202.982 E52.76675
G1 X169.59 Y202.991 E52.7784
G1 X169.304 Y202.995 E52.7888
G1 X160.464 Y202.994 E53.11039
G1 X160.038 Y202.988 E53.12588
G1 X158.627 Y202.978 E53.17722
G1 X66.018 Y202.978 E56.54617
G1 X65.189 Y202.968 E56.57633
G1 X64.288 Y202.917 E56.60916
G1 X63.396 Y202.785 E56.64196
G1 X62.519 Y202.576 E56.67476
G1 X61.663 Y202.289 E56.7076
G1 X60.837 Y201.928 E56.7404
G1 X60.045 Y201.495 E56.77323
G1 X59.296 Y200.994 E56.80601
G1 X58.593 Y200.428 E56.83885
G1 X57.943 Y199.802 E56.87168
G1 X57.352 Y199.122 E56.90445
G1 X56.823 Y198.391 E56.93727
G1 X56.36 Y197.616 E56.97012
G1 X55.969 Y196.804 E57.0029
G1 X55.65 Y195.96 E57.03572
G1 X55.408 Y195.091 E57.06854
G1 X55.243 Y194.204 E57.10136
G1 X55.149 Y193.069 E57.14279
G1 X55.14 Y192.736 E57.15491
G1 X55.136 Y192.461 E57.16492
G1 X55.137 Y42.716 E62.61238
G1 X55.146 Y42.051 E62.63657
G1 X55.198 Y41.151 E62.66937
G1 X55.33 Y40.258 E62.70221
G1 X55.54 Y39.381 E62.73501
G1 X55.827 Y38.526 E62.76782
G1 X56.189 Y37.7 E62.80063
G1 X56.622 Y36.909 E62.83343
G1 X57.124 Y36.159 E62.86627
G1 F2700 E57.86627
G1 F300 Z0.45
;MESH:bas projet AE.stl
G0 F9000 X161.126 Y191.595 Z0.45
;TYPE:WALL-INNER
G1 F300 Z0.25
G1 F2700 E62.86627
G1 F3000 X161.126 Y191.578 E62.86688
G1 X66.536 Y191.578 E66.3079
G1 X66.536 Y43.405 E71.69818
G1 X168.464 Y43.405 E75.40615
G1 X168.464 Y191.595 E80.79704
G1 X161.126 Y191.595 E81.06399
G0 F9000 X160.776 Y191.945
G1 F3000 X160.776 Y191.928 E81.06461
G1 X66.186 Y191.928 E84.50563
G1 X66.186 Y43.055 E89.92137
G1 X168.814 Y43.055 E93.6548
G1 X168.814 Y191.945 E99.07116
G1 X160.776 Y191.945 E99.36357
G0 F9000 X160.426 Y192.295
G1 F3000 X160.426 Y192.278 E99.36419
G1 X65.836 Y192.278 E102.80521
G1 X65.836 Y42.705 E108.24641
G1 X169.164 Y42.705 E112.00531
G1 X169.164 Y192.295 E117.44713
G1 X160.426 Y192.295 E117.76501
G0 F9000 X160.176 Y192.528
;TYPE:WALL-OUTER
G1 F3000 X65.586 Y192.528 E121.20603
G1 X65.586 Y42.455 E126.66543
G1 X169.414 Y42.455 E130.44251
G1 X169.414 Y192.528 E135.9019
G1 X169.359 Y192.545 E135.904
G1 X160.176 Y192.545 E136.23806
G1 X160.176 Y192.528 E136.23868
G0 F9000 X160.448 Y192.16
G0 X161.466 Y191.255
;TYPE:SKIN
G1 F3000 X161.466 Y191.238 E136.2393
G1 X66.876 Y191.238 E139.68032
G1 X66.876 Y43.745 E145.04586
G1 X168.124 Y43.745 E148.72909
G1 X168.124 Y191.255 E154.09525
G1 X161.466 Y191.255 E154.33745
G1 F2700 E149.33745
G1 F300 Z0.45
G0 F9000 X67.353 Y191.097 Z0.45
G1 F300 Z0.25
G1 F2700 E154.33745
G1 F3000 X67.015 Y190.759 E154.35484
G0 F9000 X67.015 Y190.264
G1 F3000 X67.848 Y191.097 E154.3977
G0 F9000 X68.343 Y191.097
G1 F3000 X67.015 Y189.769 E154.46602
G0 F9000 X67.015 Y189.274
G1 F3000 X68.838 Y191.097 E154.5598
G0 F9000 X69.333 Y191.097
G1 F3000 X67.015 Y188.779 E154.67906
G0 F9000 X67.015 Y188.284
G1 F3000 X69.828 Y191.097 E154.82378
G0 F9000 X70.323 Y191.097
G1 F3000 X67.015 Y187.789 E154.99396
G0 F9000 X67.015 Y187.294
G1 F3000 X70.818 Y191.097 E155.18961
G0 F9000 X71.313 Y191.097
G1 F3000 X67.015 Y186.799 E155.41073
G0 F9000 X67.015 Y186.304
G1 F3000 X71.808 Y191.097 E155.65732
G0 F9000 X72.303 Y191.097
G1 F3000 X67.015 Y185.809 E155.92937
G0 F9000 X67.015 Y185.314
G1 F3000 X72.798 Y191.097 E156.22688
G0 F9000 X73.293 Y191.097
G1 F3000 X67.015 Y184.819 E156.54986
G0 F9000 X67.015 Y184.324
G1 F3000 X73.788 Y191.097 E156.89831
G0 F9000 X74.282 Y191.097
G1 F3000 X67.015 Y183.829 E157.2722
G0 F9000 X67.015 Y183.334
G1 F3000 X74.777 Y191.097 E157.67155
G0 F9000 X75.272 Y191.097
G1 F3000 X67.015 Y182.839 E158.09638
G0 F9000 X67.015 Y182.344
G1 F3000 X75.767 Y191.097 E158.54666
G0 F9000 X76.262 Y191.097
G1 F3000 X67.015 Y181.849 E159.02242
G0 F9000 X67.015 Y181.354
G1 F3000 X76.757 Y191.097 E159.52363
G0 F9000 X77.252 Y191.097
G1 F3000 X67.015 Y180.859 E160.05032
G0 F9000 X67.015 Y180.364
G1 F3000 X77.747 Y191.097 E160.60247
G0 F9000 X78.242 Y191.097
G1 F3000 X67.015 Y179.869 E161.18009
G0 F9000 X67.015 Y179.374
G1 F3000 X78.737 Y191.097 E161.78317
G0 F9000 X79.232 Y191.097
G1 F3000 X67.015 Y178.879 E162.41172
G0 F9000 X67.015 Y178.384
G1 F3000 X79.727 Y191.097 E163.06574
G0 F9000 X80.222 Y191.097
G1 F3000 X67.015 Y177.889 E163.74522
G0 F9000 X67.015 Y177.394
G1 F3000 X80.717 Y191.097 E164.45016
G0 F9000 X81.212 Y191.097
G1 F3000 X67.015 Y176.899 E165.18058
G0 F9000 X67.015 Y176.404
G1 F3000 X81.707 Y191.097 E165.93646
G0 F9000 X82.202 Y191.097
G1 F3000 X67.015 Y175.909 E166.7178
G0 F9000 X67.015 Y175.414
G1 F3000 X82.697 Y191.097 E167.52462
G0 F9000 X83.192 Y191.097
G1 F3000 X67.015 Y174.919 E168.35689
G0 F9000 X67.015 Y174.424
G1 F3000 X83.687 Y191.097 E169.21464
G0 F9000 X84.182 Y191.097
G1 F3000 X67.015 Y173.929 E170.09785
G0 F9000 X67.015 Y173.434
G1 F3000 X84.677 Y191.097 E171.00653
G0 F9000 X85.172 Y191.097
G1 F3000 X67.015 Y172.939 E171.94067
G0 F9000 X67.015 Y172.444
G1 F3000 X85.667 Y191.097 E172.90028
G0 F9000 X86.162 Y191.097
G1 F3000 X67.015 Y171.949 E173.88535
G0 F9000 X67.015 Y171.455
G1 F3000 X86.657 Y191.097 E174.89587
G0 F9000 X87.152 Y191.097
G1 F3000 X67.015 Y170.96 E175.93185
G0 F9000 X67.015 Y170.465
G1 F3000 X87.647 Y191.097 E176.99329
G0 F9000 X88.142 Y191.097
G1 F3000 X67.015 Y169.97 E178.08021
G0 F9000 X67.015 Y169.475
G1 F3000 X88.637 Y191.097 E179.19259
G0 F9000 X89.132 Y191.097
G1 F3000 X67.015 Y168.98 E180.33043
G0 F9000 X67.015 Y168.485
G1 F3000 X89.627 Y191.097 E181.49374
G0 F9000 X90.122 Y191.097
G1 F3000 X67.015 Y167.99 E182.68252
G0 F9000 X67.015 Y167.495
G1 F3000 X90.617 Y191.097 E183.89677
G0 F9000 X91.112 Y191.097
G1 F3000 X67.015 Y167 E185.13648
G0 F9000 X67.015 Y166.505
G1 F3000 X91.607 Y191.097 E186.40165
G0 F9000 X92.102 Y191.097
G1 F3000 X67.015 Y166.01 E187.69229
G0 F9000 X67.015 Y165.515
G1 F3000 X92.597 Y191.097 E189.0084
G0 F9000 X93.092 Y191.097
G1 F3000 X67.015 Y165.02 E190.34998
G0 F9000 X67.015 Y164.525
G1 F3000 X93.586 Y191.097 E191.71699
G0 F9000 X94.081 Y191.097
G1 F3000 X67.015 Y164.03 E193.10947
G0 F9000 X67.015 Y163.535
G1 F3000 X94.576 Y191.097 E194.52742
G0 F9000 X95.071 Y191.097
G1 F3000 X67.015 Y163.04 E195.97083
G0 F9000 X67.015 Y162.545
G1 F3000 X95.566 Y191.097 E197.43971
G0 F9000 X96.061 Y191.097
G1 F3000 X67.015 Y162.05 E198.93405
G0 F9000 X67.015 Y161.555
G1 F3000 X96.556 Y191.097 E200.45387
G0 F9000 X97.051 Y191.097
G1 F3000 X67.015 Y161.06 E201.99914
G0 F9000 X67.015 Y160.565
G1 F3000 X97.546 Y191.097 E203.56989
G0 F9000 X98.041 Y191.097
G1 F3000 X67.015 Y160.07 E205.1661
G0 F9000 X67.015 Y159.575
G1 F3000 X98.536 Y191.097 E206.78777
G0 F9000 X99.031 Y191.097
G1 F3000 X67.015 Y159.08 E208.43491
G0 F9000 X67.015 Y158.585
G1 F3000 X99.526 Y191.097 E210.10752
G0 F9000 X100.021 Y191.097
G1 F3000 X67.015 Y158.09 E211.80559
G0 F9000 X67.015 Y157.595
G1 F3000 X100.516 Y191.097 E213.52913
G0 F9000 X101.011 Y191.097
G1 F3000 X67.015 Y157.1 E215.27814
G0 F9000 X67.015 Y156.605
G1 F3000 X101.506 Y191.097 E217.05261
G0 F9000 X102.001 Y191.097
G1 F3000 X67.015 Y156.11 E218.85255
G0 F9000 X67.015 Y155.615
G1 F3000 X102.496 Y191.097 E220.67795
G0 F9000 X102.991 Y191.097
G1 F3000 X67.015 Y155.12 E222.52882
G0 F9000 X67.015 Y154.625
G1 F3000 X103.486 Y191.097 E224.40516
G0 F9000 X103.981 Y191.097
G1 F3000 X67.015 Y154.13 E226.30696
G0 F9000 X67.015 Y153.635
G1 F3000 X104.476 Y191.097 E228.23423
G0 F9000 X104.971 Y191.097
G1 F3000 X67.015 Y153.14 E230.18697
G0 F9000 X67.015 Y152.645
G1 F3000 X105.466 Y191.097 E232.16517
G0 F9000 X105.961 Y191.097
G1 F3000 X67.015 Y152.15 E234.16883
G0 F9000 X67.015 Y151.656
G1 F3000 X106.456 Y191.097 E236.19794
G0 F9000 X106.951 Y191.097
G1 F3000 X67.015 Y151.161 E238.25251
G0 F9000 X67.015 Y150.666
G1 F3000 X107.446 Y191.097 E240.33255
G0 F9000 X107.941 Y191.097
G1 F3000 X67.015 Y150.171 E242.43806
G0 F9000 X67.015 Y149.676
G1 F3000 X108.436 Y191.097 E244.56903
G0 F9000 X108.931 Y191.097
G1 F3000 X67.015 Y149.181 E246.72547
G0 F9000 X67.015 Y148.686
G1 F3000 X109.426 Y191.097 E248.90737
G0 F9000 X109.921 Y191.097
G1 F3000 X67.015 Y148.191 E251.11474
G0 F9000 X67.015 Y147.696
G1 F3000 X110.416 Y191.097 E253.34758
G0 F9000 X110.911 Y191.097
G1 F3000 X67.015 Y147.201 E255.60588
G0 F9000 X67.015 Y146.706
G1 F3000 X111.406 Y191.097 E257.88965
