;FLAVOR:Marlin
;TIME:4946
;Filament used: 11.3537m
;Layer height: 0.4
;MINX:53.275
;MINY:29.075
;MINZ:0.25
;MAXX:181.725
;MAXY:205.925
;MAXZ:9.85
;Generated with Cura_SteamEngine 4.13.1
M140 S70
M105
M190 S70
M104 S215
M105
M109 S215
M82 ;absolute extrusion mode
; Ender 3 Custom Start G-code
G92 E0 ; Reset Extruder
G28 ; Home all axes
G1 Z2.0 F3000 ; Move Z Axis up little to prevent scratching of Heat Bed
G1 X0.1 Y20 Z0.3 F5000.0 ; Move to start position
G1 X0.1 Y200.0 Z0.3 F1500.0 E15 ; Draw the first line
G1 X0.4 Y200.0 Z0.3 F5000.0 ; Move to side a little
G1 X0.4 Y20 Z0.3 F1500.0 E30 ; Draw the second line
G92 E0 ; Reset Extruder
G1 Z2.0 F3000 ; Move Z Axis up little to prevent scratching of Heat Bed
G1 X5 Y20 Z0.3 F5000.0 ; Move over to prevent blob squish
G92 E0
G92 E0
G1 F2700 E-5
;LAYER_COUNT:25
;LAYER:0
M107
G1 F300 Z0.45
G0 F9000 X54.766 Y34.478 Z0.45
;TYPE:SKIRT
G1 F300 Z0.25
G1 F2700 E0
G1 F3000 X55.27 Y33.694 E0.03391
G1 X55.84 Y32.955 E0.06786
G1 X56.47 Y32.268 E0.10177
G1 X57.157 Y31.638 E0.13568
G1 X57.896 Y31.069 E0.1696
G1 X58.681 Y30.565 E0.20354
G1 X59.505 Y30.13 E0.23744
G1 X60.365 Y29.767 E0.2714
G1 X61.252 Y29.48 E0.30531
G1 X62.16 Y29.269 E0.33922
G1 X63.083 Y29.137 E0.37314
G1 X63.854 Y29.088 E0.40124
G1 X64.175 Y29.079 E0.41293
G1 X64.48 Y29.075 E0.42402
G1 X170.143 Y29.075 E4.26786
G1 X170.997 Y29.086 E4.29893
G1 X171.928 Y29.139 E4.33285
G1 X172.851 Y29.272 E4.36678
G1 X173.759 Y29.484 E4.4007
G1 X174.646 Y29.772 E4.43462
G1 X175.505 Y30.136 E4.46856
G1 X176.329 Y30.571 E4.50246
G1 X177.113 Y31.076 E4.53638
G1 X177.851 Y31.646 E4.5703
G1 X178.538 Y32.277 E4.60424
G1 X179.168 Y32.965 E4.63817
G1 X179.736 Y33.704 E4.67208
G1 X180.24 Y34.489 E4.70602
G1 X180.674 Y35.314 E4.73993
G1 X181.036 Y36.174 E4.77387
G1 X181.322 Y37.061 E4.80778
G1 X181.532 Y37.97 E4.84172
G1 X181.664 Y38.893 E4.87563
G1 X181.712 Y39.654 E4.90337
G1 X181.721 Y39.974 E4.91502
G1 X181.725 Y40.28 E4.92615
G1 X181.724 Y194.449 E10.53455
G1 X181.715 Y195.176 E10.561
G1 X181.664 Y196.107 E10.59492
G1 X181.533 Y197.03 E10.62884
G1 X181.323 Y197.939 E10.66277
G1 X181.036 Y198.826 E10.69669
G1 X180.674 Y199.685 E10.7306
G1 X180.24 Y200.511 E10.76454
G1 X179.737 Y201.296 E10.79846
G1 X179.169 Y202.035 E10.83237
G1 X178.539 Y202.723 E10.8663
G1 X177.852 Y203.354 E10.90024
G1 X177.114 Y203.924 E10.93416
G1 X176.33 Y204.429 E10.96808
G1 X175.506 Y204.865 E11.002
G1 X174.647 Y205.228 E11.03592
G1 X173.76 Y205.517 E11.06986
G1 X172.852 Y205.728 E11.10377
G1 X171.929 Y205.861 E11.13769
G1 X171.146 Y205.912 E11.16624
G1 X170.825 Y205.921 E11.17792
G1 X170.52 Y205.925 E11.18902
G1 X64.717 Y205.924 E15.03795
G1 X64.019 Y205.915 E15.06334
G1 X63.088 Y205.863 E15.09726
G1 X62.165 Y205.732 E15.13118
G1 X61.256 Y205.521 E15.16512
G1 X60.369 Y205.234 E15.19904
G1 X59.509 Y204.872 E15.23298
G1 X58.684 Y204.437 E15.26691
G1 X57.899 Y203.934 E15.30083
G1 X57.161 Y203.365 E15.33473
G1 X56.473 Y202.735 E15.36866
G1 X55.842 Y202.048 E15.4026
G1 X55.273 Y201.31 E15.4365
G1 X54.768 Y200.525 E15.47045
G1 X54.333 Y199.701 E15.50435
G1 X53.97 Y198.842 E15.53827
G1 X53.682 Y197.955 E15.5722
G1 X53.471 Y197.047 E15.60611
G1 X53.338 Y196.124 E15.64004
G1 X53.288 Y195.335 E15.6688
G1 X53.279 Y195.002 E15.68091
G1 X53.275 Y194.708 E15.69161
G1 X53.276 Y40.477 E21.30227
G1 X53.285 Y39.812 E21.32646
G1 X53.338 Y38.881 E21.36038
G1 X53.47 Y37.958 E21.3943
G1 X53.68 Y37.049 E21.42824
G1 X53.968 Y36.162 E21.46217
G1 X54.331 Y35.303 E21.49609
G1 X54.766 Y34.478 E21.53002
G0 F9000 X55.114 Y34.578
G1 F3000 X55.617 Y33.811 E21.56339
G1 X56.184 Y33.09 E21.59676
G1 X56.813 Y32.422 E21.63013
G1 X57.497 Y31.811 E21.6635
G1 X58.232 Y31.261 E21.69689
G1 X59.012 Y30.778 E21.73027
G1 X59.831 Y30.365 E21.76364
G1 X60.683 Y30.025 E21.79701
G1 X61.561 Y29.76 E21.83037
G1 X62.459 Y29.572 E21.86375
G1 X63.37 Y29.464 E21.89712
G1 X63.864 Y29.438 E21.91511
G1 X64.185 Y29.429 E21.9268
G1 X64.48 Y29.425 E21.93753
G1 X170.143 Y29.425 E25.78137
G1 X170.992 Y29.436 E25.81225
G1 X171.908 Y29.489 E25.84563
G1 X172.815 Y29.622 E25.87898
G1 X173.708 Y29.833 E25.91236
G1 X174.579 Y30.121 E25.94573
G1 X175.422 Y30.484 E25.97912
G1 X176.229 Y30.919 E26.01247
G1 X176.996 Y31.423 E26.04586
G1 X177.716 Y31.991 E26.07922
G1 X178.384 Y32.62 E26.1126
G1 X178.995 Y33.305 E26.14599
G1 X179.543 Y34.04 E26.17934
G1 X180.026 Y34.82 E26.21272
G1 X180.438 Y35.64 E26.2461
G1 X180.778 Y36.492 E26.27947
G1 X181.042 Y37.37 E26.31283
G1 X181.229 Y38.268 E26.34619
G1 X181.337 Y39.179 E26.37957
G1 X181.362 Y39.664 E26.39723
G1 X181.371 Y39.984 E26.40888
G1 X181.375 Y40.28 E26.41965
G1 X181.374 Y194.444 E32.02787
G1 X181.365 Y195.171 E32.05432
G1 X181.314 Y196.087 E32.08769
G1 X181.183 Y196.995 E32.12106
G1 X180.974 Y197.888 E32.15443
G1 X180.687 Y198.76 E32.18782
G1 X180.326 Y199.603 E32.22118
G1 X179.893 Y200.412 E32.25457
G1 X179.39 Y201.18 E32.28796
G1 X178.823 Y201.901 E32.32133
G1 X178.196 Y202.57 E32.35469
G1 X177.512 Y203.182 E32.38807
G1 X176.778 Y203.732 E32.42144
G1 X175.999 Y204.216 E32.4548
G1 X175.18 Y204.63 E32.48819
G1 X174.329 Y204.971 E32.52154
G1 X173.451 Y205.237 E32.55491
G1 X172.553 Y205.426 E32.5883
G1 X171.642 Y205.535 E32.62167
G1 X171.136 Y205.562 E32.64011
G1 X170.815 Y205.571 E32.65179
G1 X170.52 Y205.575 E32.66252
G1 X64.721 Y205.574 E36.51131
G1 X64.023 Y205.565 E36.5367
G1 X63.107 Y205.513 E36.57008
G1 X62.199 Y205.382 E36.60345
G1 X61.306 Y205.172 E36.63682
G1 X60.435 Y204.885 E36.67018
G1 X59.592 Y204.523 E36.70356
G1 X58.784 Y204.09 E36.73691
G1 X58.016 Y203.587 E36.7703
G1 X57.295 Y203.02 E36.80367
G1 X56.626 Y202.392 E36.83705
G1 X56.015 Y201.708 E36.87041
G1 X55.465 Y200.974 E36.90378
G1 X54.982 Y200.194 E36.93716
G1 X54.568 Y199.375 E36.97054
G1 X54.227 Y198.524 E37.00389
G1 X53.961 Y197.645 E37.0373
G1 X53.773 Y196.748 E37.07064
G1 X53.664 Y195.837 E37.10402
G1 X53.638 Y195.325 E37.12267
G1 X53.629 Y194.992 E37.13478
G1 X53.625 Y194.708 E37.14512
G1 X53.626 Y40.482 E42.75559
G1 X53.635 Y39.817 E42.77979
G1 X53.687 Y38.901 E42.81316
G1 X53.819 Y37.993 E42.84654
G1 X54.03 Y37.1 E42.87992
G1 X54.317 Y36.229 E42.91328
G1 X54.679 Y35.386 E42.94666
G1 X55.114 Y34.578 E42.98004
G0 F9000 X55.461 Y34.679
G1 F3000 X55.963 Y33.929 E43.01287
G1 X56.529 Y33.227 E43.04568
G1 X57.155 Y32.578 E43.07848
G1 X57.837 Y31.987 E43.11131
G1 X58.567 Y31.458 E43.1441
G1 X59.342 Y30.996 E43.17693
G1 X60.155 Y30.605 E43.20974
G1 X60.999 Y30.287 E43.24255
G1 X61.868 Y30.045 E43.27537
G1 X62.755 Y29.881 E43.30818
G1 X63.874 Y29.788 E43.34903
G1 X64.195 Y29.779 E43.36071
G1 X64.48 Y29.775 E43.37108
G1 X170.143 Y29.775 E47.21492
G1 X170.987 Y29.786 E47.24563
G1 X171.887 Y29.839 E47.27842
G1 X172.779 Y29.971 E47.31123
G1 X173.656 Y30.182 E47.34404
G1 X174.511 Y30.47 E47.37686
G1 X175.337 Y30.832 E47.40967
G1 X176.128 Y31.266 E47.44249
G1 X176.877 Y31.769 E47.47531
G1 X177.579 Y32.336 E47.50814
G1 X178.228 Y32.962 E47.54094
G1 X178.818 Y33.644 E47.57375
G1 X179.346 Y34.375 E47.60655
G1 X179.808 Y35.15 E47.63937
G1 X180.198 Y35.963 E47.67218
G1 X180.515 Y36.808 E47.70501
G1 X180.757 Y37.677 E47.73782
G1 X180.92 Y38.564 E47.77063
G1 X181.012 Y39.674 E47.81115
G1 X181.021 Y39.994 E47.82279
G1 X181.025 Y40.28 E47.8332
G1 X181.024 Y194.44 E53.44127
G1 X181.015 Y195.167 E53.46772
G1 X180.964 Y196.068 E53.50055
G1 X180.833 Y196.96 E53.53335
G1 X180.624 Y197.837 E53.56615
G1 X180.338 Y198.693 E53.59898
G1 X179.977 Y199.52 E53.63181
G1 X179.545 Y200.311 E53.66459
G1 X179.044 Y201.061 E53.6974
G1 X178.479 Y201.764 E53.73021
G1 X177.853 Y202.414 E53.76304
G1 X177.173 Y203.006 E53.79584
G1 X176.442 Y203.535 E53.82867
G1 X175.668 Y203.998 E53.86148
G1 X174.856 Y204.39 E53.89428
G1 X174.012 Y204.709 E53.9271
G1 X173.143 Y204.952 E53.95993
G1 X172.257 Y205.117 E53.99271
G1 X171.126 Y205.212 E54.034
G1 X170.805 Y205.221 E54.04568
G1 X170.52 Y205.225 E54.05605
G1 X64.726 Y205.224 E57.90465
G1 X64.028 Y205.215 E57.93005
G1 X63.127 Y205.164 E57.96288
G1 X62.235 Y205.032 E57.99568
G1 X61.358 Y204.823 E58.02848
G1 X60.502 Y204.536 E58.06132
G1 X59.676 Y204.175 E58.09411
G1 X58.884 Y203.742 E58.12695
G1 X58.135 Y203.241 E58.15973
G1 X57.432 Y202.675 E58.19256
G1 X56.782 Y202.049 E58.22539
G1 X56.191 Y201.369 E58.25817
G1 X55.662 Y200.638 E58.29099
G1 X55.199 Y199.863 E58.32383
G1 X54.808 Y199.051 E58.35662
G1 X54.489 Y198.207 E58.38944
G1 X54.247 Y197.338 E58.42226
G1 X54.082 Y196.451 E58.45508
G1 X53.988 Y195.316 E58.49651
G1 X53.979 Y194.983 E58.50863
G1 X53.975 Y194.708 E58.51863
G1 X53.976 Y40.486 E64.12896
G1 X53.985 Y39.821 E64.15316
G1 X54.037 Y38.921 E64.18595
G1 X54.169 Y38.028 E64.21879
G1 X54.379 Y37.151 E64.2516
G1 X54.666 Y36.296 E64.2844
G1 X55.028 Y35.47 E64.31721
G1 X55.461 Y34.679 E64.35002
G1 F2700 E59.35002
G1 F300 Z0.45
;MESH:haut projet.stl
G0 F9000 X75.805 Y76.81 Z0.45
;TYPE:WALL-INNER
G1 F300 Z0.25
G1 F2700 E64.35002
G1 F3000 X76.85 Y76.279 E64.39266
G1 X77.679 Y75.45 E64.43531
G1 X78.21 Y74.405 E64.47795
G1 X78.391 Y73.25 E64.52048
G1 X78.21 Y72.095 E64.56301
G1 X77.679 Y71.05 E64.60565
G1 X76.85 Y70.221 E64.6483
G1 X75.805 Y69.69 E64.69094
G1 X74.65 Y69.508 E64.73348
G1 X73.495 Y69.69 E64.77601
G1 X72.45 Y70.221 E64.81865
G1 X71.621 Y71.05 E64.8613
G1 X71.09 Y72.095 E64.90394
G1 X70.908 Y73.25 E64.94648
G1 X71.09 Y74.405 E64.98901
G1 X71.621 Y75.45 E65.03166
G1 X72.45 Y76.279 E65.0743
G1 X73.495 Y76.81 E65.11695
G1 X74.65 Y76.991 E65.15948
G1 X75.805 Y76.81 E65.20201
G0 F9000 X75.696 Y76.473
G1 F3000 X76.642 Y75.992 E65.24061
G1 X77.392 Y75.242 E65.2792
G1 X77.873 Y74.296 E65.3178
G1 X78.037 Y73.25 E65.35632
G1 X77.873 Y72.204 E65.39484
G1 X77.392 Y71.258 E65.43344
G1 X76.642 Y70.508 E65.47203
G1 X75.696 Y70.027 E65.51064
G1 X74.65 Y69.862 E65.54916
G1 X73.604 Y70.027 E65.58768
G1 X72.658 Y70.508 E65.62629
G1 X71.908 Y71.258 E65.66487
G1 X71.427 Y72.204 E65.70348
G1 X71.262 Y73.25 E65.742
G1 X71.427 Y74.296 E65.78052
G1 X71.908 Y75.242 E65.81913
G1 X72.658 Y75.992 E65.85772
G1 X73.604 Y76.473 E65.89632
G1 X74.65 Y76.637 E65.93484
G1 X75.696 Y76.473 E65.97336
G0 F9000 X75.587 Y76.136
G1 F3000 X76.434 Y75.705 E66.00793
G1 X77.105 Y75.034 E66.04245
G1 X77.536 Y74.187 E66.07702
G1 X77.683 Y73.25 E66.11152
G1 X77.536 Y72.313 E66.14603
G1 X77.105 Y71.466 E66.1806
G1 X76.434 Y70.795 E66.21512
G1 X75.587 Y70.364 E66.24969
G1 X74.65 Y70.216 E66.2842
G1 X73.713 Y70.364 E66.31871
G1 X72.866 Y70.795 E66.35328
G1 X72.195 Y71.466 E66.3878
G1 X71.764 Y72.313 E66.42238
G1 X71.616 Y73.25 E66.45688
G1 X71.764 Y74.187 E66.49139
G1 X72.195 Y75.034 E66.52597
G1 X72.866 Y75.705 E66.56049
G1 X73.713 Y76.136 E66.59506
G1 X74.65 Y76.283 E66.62956
G1 X75.587 Y76.136 E66.66407
G0 F9000 X75.509 Y75.895
;TYPE:WALL-OUTER
G1 F3000 X76.285 Y75.5 E66.69574
G1 X76.9 Y74.885 E66.72738
G1 X77.295 Y74.109 E66.75906
G1 X77.43 Y73.25 E66.79069
G1 X77.295 Y72.391 E66.82232
G1 X76.9 Y71.615 E66.854
G1 X76.285 Y71 E66.88564
G1 X75.509 Y70.605 E66.91732
G1 X74.65 Y70.469 E66.94895
G1 X73.791 Y70.605 E66.98059
G1 X73.015 Y71 E67.01227
G1 X72.4 Y71.615 E67.04391
G1 X72.005 Y72.391 E67.07558
G1 X71.869 Y73.25 E67.10722
G1 X72.005 Y74.109 E67.13886
G1 X72.4 Y74.885 E67.17054
G1 X73.015 Y75.5 E67.20218
G1 X73.791 Y75.895 E67.23385
G1 X74.65 Y76.03 E67.26548
G1 X75.509 Y75.895 E67.29712
G0 F9000 X75.627 Y76.261
G1 F2700 E62.29712
G1 F300 Z0.45
G0 F9000 X75.383 Y92.055 Z0.45
;TYPE:WALL-INNER
G1 F300 Z0.25
G1 F2700 E67.29712
G1 F3000 X76.024 Y91.792 E67.32232
G1 X76.571 Y91.369 E67.34748
G1 X76.991 Y90.824 E67.37251
G1 X77.256 Y90.182 E67.39777
G1 X77.346 Y89.492 E67.42309
G1 X77.254 Y88.814 E67.44798
G1 X76.992 Y88.178 E67.473
G1 X76.571 Y87.63 E67.49814
G1 X76.023 Y87.208 E67.5233
G1 X75.383 Y86.945 E67.54847
G1 X74.7 Y86.855 E67.57353
G1 X74.017 Y86.945 E67.59859
G1 X73.379 Y87.208 E67.6237
G1 X72.831 Y87.629 E67.64884
G1 X72.408 Y88.176 E67.67399
G1 X72.145 Y88.817 E67.6992
G1 X72.055 Y89.5 E67.72426
G1 X72.145 Y90.183 E67.74932
G1 X72.408 Y90.824 E67.77452
G1 X72.831 Y91.371 E67.79968
G1 X73.379 Y91.792 E67.82482
G1 X74.017 Y92.055 E67.84992
G1 X74.7 Y92.145 E67.87498
G1 X75.383 Y92.055 E67.90004
G0 F9000 X75.292 Y91.714
G1 F3000 X75.847 Y91.486 E67.92187
G1 X76.321 Y91.12 E67.94366
G1 X76.685 Y90.647 E67.96537
G1 X76.915 Y90.091 E67.98726
G1 X76.993 Y89.493 E68.0092
G1 X76.913 Y88.906 E68.03075
G1 X76.686 Y88.354 E68.05246
G1 X76.321 Y87.879 E68.07425
G1 X75.847 Y87.514 E68.09602
G1 X75.292 Y87.286 E68.11784
G1 X74.7 Y87.208 E68.13956
G1 X74.108 Y87.286 E68.16129
G1 X73.555 Y87.514 E68.18305
G1 X73.08 Y87.879 E68.20484
G1 X72.714 Y88.353 E68.22662
G1 X72.486 Y88.908 E68.24845
G1 X72.408 Y89.5 E68.27017
G1 X72.486 Y90.092 E68.2919
G1 X72.714 Y90.647 E68.31372
G1 X73.08 Y91.121 E68.33551
G1 X73.555 Y91.486 E68.3573
G1 X74.108 Y91.714 E68.37906
G1 X74.7 Y91.792 E68.40078
G1 X75.292 Y91.714 E68.4225
G0 F9000 X75.201 Y91.373
G1 F3000 X75.67 Y91.18 E68.44095
G1 X76.071 Y90.871 E68.45937
G1 X76.379 Y90.47 E68.47776
G1 X76.574 Y90 E68.49628
G1 X76.64 Y89.494 E68.51484
G1 X76.572 Y88.998 E68.53305
G1 X76.38 Y88.53 E68.55145
G1 X76.071 Y88.129 E68.56987
G1 X75.67 Y87.82 E68.58829
G1 X75.201 Y87.627 E68.60674
G1 X74.7 Y87.561 E68.62512
G1 X74.199 Y87.627 E68.6435
G1 X73.731 Y87.82 E68.66192
G1 X73.329 Y88.129 E68.68036
G1 X73.02 Y88.53 E68.69878
G1 X72.827 Y88.999 E68.71723
G1 X72.761 Y89.5 E68.73561
G1 X72.827 Y90.001 E68.75399
G1 X73.02 Y90.47 E68.77244
G1 X73.329 Y90.871 E68.79086
G1 X73.731 Y91.18 E68.8093
G1 X74.199 Y91.373 E68.82772
G1 X74.7 Y91.439 E68.8461
G1 X75.201 Y91.373 E68.86449
G0 F9000 X75.136 Y91.129
;TYPE:WALL-OUTER
G1 F3000 X75.544 Y90.961 E68.88054
G1 X75.893 Y90.693 E68.89655
G1 X76.161 Y90.344 E68.91255
G1 X76.33 Y89.935 E68.92865
G1 X76.388 Y89.495 E68.9448
G1 X76.329 Y89.064 E68.96062
G1 X76.161 Y88.656 E68.97667
G1 X75.893 Y88.307 E68.99268
G1 X75.544 Y88.039 E69.00869
G1 X75.136 Y87.871 E69.02474
G1 X74.7 Y87.813 E69.04074
G1 X74.264 Y87.871 E69.05674
G1 X73.857 Y88.039 E69.07276
G1 X73.507 Y88.307 E69.0888
G1 X73.239 Y88.656 E69.1048
G1 X73.071 Y89.064 E69.12085
G1 X73.013 Y89.5 E69.13685
G1 X73.071 Y89.936 E69.15286
G1 X73.239 Y90.344 E69.16891
G1 X73.507 Y90.693 E69.18491
G1 X73.857 Y90.961 E69.20095
G1 X74.264 Y91.129 E69.21697
G1 X74.7 Y91.187 E69.23297
G1 X75.136 Y91.129 E69.24897
G0 F9000 X75.235 Y91.5
G1 F2700 E64.24897
G1 F300 Z0.45
G0 F9000 X75.383 Y102.055 Z0.45
;TYPE:WALL-INNER
G1 F300 Z0.25
G1 F2700 E69.24897
G1 F3000 X76.024 Y101.792 E69.27417
G1 X76.571 Y101.369 E69.29933
G1 X76.991 Y100.824 E69.32436
G1 X77.256 Y100.182 E69.34963
G1 X77.346 Y99.492 E69.37494
G1 X77.254 Y98.814 E69.39983
G1 X76.992 Y98.178 E69.42485
G1 X76.571 Y97.63 E69.44999
G1 X76.023 Y97.208 E69.47515
G1 X75.383 Y96.945 E69.50032
G1 X74.7 Y96.855 E69.52539
G1 X74.017 Y96.945 E69.55045
G1 X73.379 Y97.208 E69.57555
G1 X72.831 Y97.629 E69.60069
G1 X72.408 Y98.178 E69.6259
G1 X72.143 Y98.822 E69.65124
G1 X72.057 Y99.524 E69.67696
G1 X72.146 Y100.183 E69.70115
G1 X72.408 Y100.822 E69.72628
G1 X72.831 Y101.371 E69.75149
G1 X73.379 Y101.792 E69.77663
G1 X74.017 Y102.055 E69.80173
G1 X74.7 Y102.145 E69.8268
G1 X75.383 Y102.055 E69.85186
G0 F9000 X75.292 Y101.714
G1 F3000 X75.847 Y101.486 E69.87368
G1 X76.321 Y101.12 E69.89547
G1 X76.685 Y100.647 E69.91718
G1 X76.915 Y100.091 E69.93907
G1 X76.993 Y99.493 E69.96101
G1 X76.913 Y98.906 E69.98256
G1 X76.686 Y98.354 E70.00427
G1 X76.321 Y97.879 E70.02606
G1 X75.847 Y97.514 E70.04783
G1 X75.292 Y97.286 E70.06965
G1 X74.7 Y97.208 E70.09138
G1 X74.108 Y97.286 E70.1131
G1 X73.555 Y97.514 E70.13486
G1 X73.08 Y97.879 E70.15665
G1 X72.714 Y98.354 E70.17847
G1 X72.485 Y98.911 E70.20037
G1 X72.41 Y99.522 E70.22277
G1 X72.487 Y100.092 E70.24369
G1 X72.714 Y100.646 E70.26547
G1 X73.08 Y101.121 E70.28729
G1 X73.555 Y101.486 E70.30908
G1 X74.108 Y101.714 E70.33084
G1 X74.7 Y101.792 E70.35256
G1 X75.292 Y101.714 E70.37428
G0 F9000 X75.201 Y101.373
G1 F3000 X75.67 Y101.18 E70.39273
G1 X76.071 Y100.871 E70.41115
G1 X76.379 Y100.47 E70.42954
G1 X76.574 Y100 E70.44805
G1 X76.64 Y99.494 E70.46662
G1 X76.572 Y98.998 E70.48483
G1 X76.38 Y98.53 E70.50323
G1 X76.071 Y98.129 E70.52165
G1 X75.67 Y97.82 E70.54006
